src/assets/luts/cinematic_warm.cube
TITLE "Cinematic Warm"
LUT_3D_SIZE 17
0.000000 0.000000 0.000000
0.065625 0.000000 0.000000
0.131250 0.000000 0.000000
0.196875 0.000000 0.000000
0.262500 0.000000 0.000000
0.328125 0.000000 0.000000
0.393750 0.000000 0.000000
0.459375 0.000000 0.000000
0.525000 0.000000 0.000000
0.590625 0.000000 0.000000
0.656250 0.000000 0.000000
0.721875 0.000000 0.000000
0.787500 0.000000 0.000000
0.853125 0.000000 0.000000
0.918750 0.000000 0.000000
0.984375 0.000000 0.000000
1.000000 0.000000 0.000000
0.000000 0.062500 0.000000
0.065625 0.062500 0.000000
0.131250 0.062500 0.000000
0.196875 0.062500 0.000000
0.262500 0.062500 0.000000
0.328125 0.062500 0.000000
0.393750 0.062500 0.000000
0.459375 0.062500 0.000000
0.525000 0.062500 0.000000
0.590625 0.062500 0.000000
0.656250 0.062500 0.000000
0.721875 0.062500 0.000000
0.787500 0.062500 0.000000
0.853125 0.062500 0.000000
0.918750 0.062500 0.000000
0.984375 0.062500 0.000000
1.000000 0.062500 0.000000
0.000000 0.125000 0.000000
0.065625 0.125000 0.000000
0.131250 0.125000 0.000000
0.196875 0.125000 0.000000
0.262500 0.125000 0.000000
0.328125 0.125000 0.000000
0.393750 0.125000 0.000000
0.459375 0.125000 0.000000
0.525000 0.125000 0.000000
0.590625 0.125000 0.000000
0.656250 0.125000 0.000000
0.721875 0.125000 0.000000
0.787500 0.125000 0.000000
0.853125 0.125000 0.000000
0.918750 0.125000 0.000000
0.984375 0.125000 0.000000
1.000000 0.125000 0.000000
0.000000 0.187500 0.000000
0.065625 0.187500 0.000000
0.131250 0.187500 0.000000
0.196875 0.187500 0.000000
0.262500 0.187500 0.000000
0.328125 0.187500 0.000000
0.393750 0.187500 0.000000
0.459375 0.187500 0.000000
0.525000 0.187500 0.000000
0.590625 0.187500 0.000000
0.656250 0.187500 0.000000
0.721875 0.187500 0.000000
0.787500 0.187500 0.000000
0.853125 0.187500 0.000000
0.918750 0.187500 0.000000
0.984375 0.187500 0.000000
1.000000 0.187500 0.000000
0.000000 0.250000 0.000000
0.065625 0.250000 0.000000
0.131250 0.250000 0.000000
0.196875 0.250000 0.000000
0.262500 0.250000 0.000000
0.328125 0.250000 0.000000
0.393750 0.250000 0.000000
0.459375 0.250000 0.000000
0.525000 0.250000 0.000000
0.590625 0.250000 0.000000
0.656250 0.250000 0.000000
0.721875 0.250000 0.000000
0.787500 0.250000 0.000000
0.853125 0.250000 0.000000
0.918750 0.250000 0.000000
0.984375 0.250000 0.000000
1.000000 0.250000 0.000000
0.000000 0.312500 0.000000
0.065625 0.312500 0.000000
0.131250 0.312500 0.000000
0.196875 0.312500 0.000000
0.262500 0.312500 0.000000
0.328125 0.312500 0.000000
0.393750 0.312500 0.000000
0.459375 0.312500 0.000000
0.525000 0.312500 0.000000
0.590625 0.312500 0.000000
0.656250 0.312500 0.000000
0.721875 0.312500 0.000000
0.787500 0.312500 0.000000
0.853125 0.312500 0.000000
0.918750 0.312500 0.000000
0.984375 0.312500 0.000000
1.000000 0.312500 0.000000
0.000000 0.375000 0.000000
0.065625 0.375000 0.000000
0.131250 0.375000 0.000000
0.196875 0.375000 0.000000
0.262500 0.375000 0.000000
0.328125 0.375000 0.000000
0.393750 0.375000 0.000000
0.459375 0.375000 0.000000
0.525000 0.375000 0.000000
0.590625 0.375000 0.000000
0.656250 0.375000 0.000000
0.721875 0.375000 0.000000
0.787500 0.375000 0.000000
0.853125 0.375000 0.000000
0.918750 0.375000 0.000000
0.984375 0.375000 0.000000
1.000000 0.375000 0.000000
0.000000 0.437500 0.000000
0.065625 0.437500 0.000000
0.131250 0.437500 0.000000
0.196875 0.437500 0.000000
0.262500 0.437500 0.000000
0.328125 0.437500 0.000000
0.393750 0.437500 0.000000
0.459375 0.437500 0.000000
0.525000 0.437500 0.000000
0.590625 0.437500 0.000000
0.656250 0.437500 0.000000
0.721875 0.437500 0.000000
0.787500 0.437500 0.000000
0.853125 0.437500 0.000000
0.918750 0.437500 0.000000
0.984375 0.437500 0.000000
1.000000 0.437500 0.000000
0.000000 0.500000 0.000000
0.065625 0.500000 0.000000
0.131250 0.500000 0.000000
0.196875 0.500000 0.000000
0.262500 0.500000 0.000000
0.328125 0.500000 0.000000
0.393750 0.500000 0.000000
0.459375 0.500000 0.000000
0.525000 0.500000 0.000000
0.590625 0.500000 0.000000
0.656250 0.500000 0.000000
0.721875 0.500000 0.000000
0.787500 0.500000 0.000000
0.853125 0.500000 0.000000
0.918750 0.500000 0.000000
0.984375 0.500000 0.000000
1.000000 0.500000 0.000000
0.000000 0.562500 0.000000
0.065625 0.562500 0.000000
0.131250 0.562500 0.000000
0.196875 0.562500 0.000000
0.262500 0.562500 0.000000
0.328125 0.562500 0.000000
0.393750 0.562500 0.000000
0.459375 0.562500 0.000000
0.525000 0.562500 0.000000
0.590625 0.562500 0.000000
0.656250 0.562500 0.000000
0.721875 0.562500 0.000000
0.787500 0.562500 0.000000
0.853125 0.562500 0.000000
0.918750 0.562500 0.000000
0.984375 0.562500 0.000000
1.000000 0.562500 0.000000
0.000000 0.625000 0.000000
0.065625 0.625000 0.000000
0.131250 0.625000 0.000000
0.196875 0.625000 0.000000
0.262500 0.625000 0.000000
0.328125 0.625000 0.000000
0.393750 0.625000 0.000000
0.459375 0.625000 0.000000
0.525000 0.625000 0.000000
0.590625 0.625000 0.000000
0.656250 0.625000 0.000000
0.721875 0.625000 0.000000
0.787500 0.625000 0.000000
0.853125 0.625000 0.000000
0.918750 0.625000 0.000000
0.984375 0.625000 0.000000
1.000000 0.625000 0.000000
0.000000 0.687500 0.000000
0.065625 0.687500 0.000000
0.131250 0.687500 0.000000
0.196875 0.687500 0.000000
0.262500 0.687500 0.000000
0.328125 0.687500 0.000000
0.393750 0.687500 0.000000
0.459375 0.687500 0.000000
0.525000 0.687500 0.000000
0.590625 0.687500 0.000000
0.656250 0.687500 0.000000
0.721875 0.687500 0.000000
0.787500 0.687500 0.000000
0.853125 0.687500 0.000000
0.918750 0.687500 0.000000
0.984375 0.687500 0.000000
1.000000 0.687500 0.000000
0.000000 0.750000 0.000000
0.065625 0.750000 0.000000
0.131250 0.750000 0.000000
0.196875 0.750000 0.000000
0.262500 0.750000 0.000000
0.328125 0.750000 0.000000
0.393750 0.750000 0.000000
0.459375 0.750000 0.000000
0.525000 0.750000 0.000000
0.590625 0.750000 0.000000
0.656250 0.750000 0.000000
0.721875 0.750000 0.000000
0.787500 0.750000 0.000000
0.853125 0.750000 0.000000
0.918750 0.750000 0.000000
0.984375 0.750000 0.000000
1.000000 0.750000 0.000000
0.000000 0.812500 0.000000
0.065625 0.812500 0.000000
0.131250 0.812500 0.000000
0.196875 0.812500 0.000000
0.262500 0.812500 0.000000
0.328125 0.812500 0.000000
0.393750 0.812500 0.000000
0.459375 0.812500 0.000000
0.525000 0.812500 0.000000
0.590625 0.812500 0.000000
0.656250 0.812500 0.000000
0.721875 0.812500 0.000000
0.787500 0.812500 0.000000
0.853125 0.812500 0.000000
0.918750 0.812500 0.000000
0.984375 0.812500 0.000000
1.000000 0.812500 0.000000
0.000000 0.875000 0.000000
0.065625 0.875000 0.000000
0.131250 0.875000 0.000000
0.196875 0.875000 0.000000
0.262500 0.875000 0.000000
0.328125 0.875000 0.000000
0.393750 0.875000 0.000000
0.459375 0.875000 0.000000
0.525000 0.875000 0.000000
0.590625 0.875000 0.000000
0.656250 0.875000 0.000000
0.721875 0.875000 0.000000
0.787500 0.875000 0.000000
0.853125 0.875000 0.000000
0.918750 0.875000 0.000000
0.984375 0.875000 0.000000
1.000000 0.875000 0.000000
0.000000 0.937500 0.000000
0.065625 0.937500 0.000000
0.131250 0.937500 0.000000
0.196875 0.937500 0.000000
0.262500 0.937500 0.000000
0.328125 0.937500 0.000000
0.393750 0.937500 0.000000
0.459375 0.937500 0.000000
0.525000 0.937500 0.000000
0.590625 0.937500 0.000000
0.656250 0.937500 0.000000
0.721875 0.937500 0.000000
0.787500 0.937500 0.000000
0.853125 0.937500 0.000000
0.918750 0.937500 0.000000
0.984375 0.937500 0.000000
1.000000 0.937500 0.000000
0.000000 1.000000 0.000000
0.065625 1.000000 0.000000
0.131250 1.000000 0.000000
0.196875 1.000000 0.000000
0.262500 1.000000 0.000000
0.328125 1.000000 0.000000
0.393750 1.000000 0.000000
0.459375 1.000000 0.000000
0.525000 1.000000 0.000000
0.590625 1.000000 0.000000
0.656250 1.000000 0.000000
0.721875 1.000000 0.000000
0.787500 1.000000 0.000000
0.853125 1.000000 0.000000
0.918750 1.000000 0.000000
0.984375 1.000000 0.000000
1.000000 1.000000 0.000000
0.000000 0.000000 0.059375
0.065625 0.000000 0.059375
0.131250 0.000000 0.059375
0.196875 0.000000 0.059375
0.262500 0.000000 0.059375
0.328125 0.000000 0.059375
0.393750 0.000000 0.059375
0.459375 0.000000 0.059375
0.525000 0.000000 0.059375
0.590625 0.000000 0.059375
0.656250 0.000000 0.059375
0.721875 0.000000 0.059375
0.787500 0.000000 0.059375
0.853125 0.000000 0.059375
0.918750 0.000000 0.059375
0.984375 0.000000 0.059375
1.000000 0.000000 0.059375
0.000000 0.062500 0.059375
0.065625 0.062500 0.059375
0.131250 0.062500 0.059375
0.196875 0.062500 0.059375
0.262500 0.062500 0.059375
0.328125 0.062500 0.059375
0.393750 0.062500 0.059375
0.459375 0.062500 0.059375
0.525000 0.062500 0.059375
0.590625 0.062500 0.059375
0.656250 0.062500 0.059375
0.721875 0.062500 0.059375
0.787500 0.062500 0.059375
0.853125 0.062500 0.059375
0.918750 0.062500 0.059375
0.984375 0.062500 0.059375
1.000000 0.062500 0.059375
0.000000 0.125000 0.059375
0.065625 0.125000 0.059375
0.131250 0.125000 0.059375
0.196875 0.125000 0.059375
0.262500 0.125000 0.059375
0.328125 0.125000 0.059375
0.393750 0.125000 0.059375
0.459375 0.125000 0.059375
0.525000 0.125000 0.059375
0.590625 0.125000 0.059375
0.656250 0.125000 0.059375
0.721875 0.125000 0.059375
0.787500 0.125000 0.059375
0.853125 0.125000 0.059375
0.918750 0.125000 0.059375
0.984375 0.125000 0.059375
1.000000 0.125000 0.059375
0.000000 0.187500 0.059375
0.065625 0.187500 0.059375
0.131250 0.187500 0.059375
0.196875 0.187500 0.059375
0.262500 0.187500 0.059375
0.328125 0.187500 0.059375
0.393750 0.187500 0.059375
0.459375 0.187500 0.059375
0.525000 0.187500 0.059375
0.590625 0.187500 0.059375
0.656250 0.187500 0.059375
0.721875 0.187500 0.059375
0.787500 0.187500 0.059375
0.853125 0.187500 0.059375
0.918750 0.187500 0.059375
0.984375 0.187500 0.059375
1.000000 0.187500 0.059375
0.000000 0.250000 0.059375
0.065625 0.250000 0.059375
0.131250 0.250000 0.059375
0.196875 0.250000 0.059375
0.262500 0.250000 0.059375
0.328125 0.250000 0.059375
0.393750 0.250000 0.059375
0.459375 0.250000 0.059375
0.525000 0.250000 0.059375
0.590625 0.250000 0.059375
0.656250 0.250000 0.059375
0.721875 0.250000 0.059375
0.787500 0.250000 0.059375
0.853125 0.250000 0.059375
0.918750 0.250000 0.059375
0.984375 0.250000 0.059375
1.000000 0.250000 0.059375
0.000000 0.312500 0.059375
0.065625 0.312500 0.059375
0.131250 0.312500 0.059375
0.196875 0.312500 0.059375
0.262500 0.312500 0.059375
0.328125 0.312500 0.059375
0.393750 0.312500 0.059375
0.459375 0.312500 0.059375
0.525000 0.312500 0.059375
0.590625 0.312500 0.059375
0.656250 0.312500 0.059375
0.721875 0.312500 0.059375
0.787500 0.312500 0.059375
0.853125 0.312500 0.059375
0.918750 0.312500 0.059375
0.984375 0.312500 0.059375
1.000000 0.312500 0.059375
0.000000 0.375000 0.059375
0.065625 0.375000 0.059375
0.131250 0.375000 0.059375
0.196875 0.375000 0.059375
0.262500 0.375000 0.059375
0.328125 0.375000 0.059375
0.393750 0.375000 0.059375
0.459375 0.375000 0.059375
0.525000 0.375000 0.059375
0.590625 0.375000 0.059375
0.656250 0.375000 0.059375
0.721875 0.375000 0.059375
0.787500 0.375000 0.059375
0.853125 0.375000 0.059375
0.918750 0.375000 0.059375
0.984375 0.375000 0.059375
1.000000 0.375000 0.059375
0.000000 0.437500 0.059375
0.065625 0.437500 0.059375
0.131250 0.437500 0.059375
0.196875 0.437500 0.059375
0.262500 0.437500 0.059375
0.328125 0.437500 0.059375
0.393750 0.437500 0.059375
0.459375 0.437500 0.059375
0.525000 0.437500 0.059375
0.590625 0.437500 0.059375
0.656250 0.437500 0.059375
0.721875 0.437500 0.059375
0.787500 0.437500 0.059375
0.853125 0.437500 0.059375
0.918750 0.437500 0.059375
0.984375 0.437500 0.059375
1.000000 0.437500 0.059375
0.000000 0.500000 0.059375
0.065625 0.500000 0.059375
0.131250 0.500000 0.059375
0.196875 0.500000 0.059375
0.262500 0.500000 0.059375
0.328125 0.500000 0.059375
0.393750 0.500000 0.059375
0.459375 0.500000 0.059375
0.525000 0.500000 0.059375
0.590625 0.500000 0.059375
0.656250 0.500000 0.059375
0.721875 0.500000 0.059375
0.787500 0.500000 0.059375
0.853125 0.500000 0.059375
0.918750 0.500000 0.059375
0.984375 0.500000 0.059375
1.000000 0.500000 0.059375
0.000000 0.562500 0.059375
0.065625 0.562500 0.059375
0.131250 0.562500 0.059375
0.196875 0.562500 0.059375
0.262500 0.562500 0.059375
0.328125 0.562500 0.059375
0.393750 0.562500 0.059375
0.459375 0.562500 0.059375
0.525000 0.562500 0.059375
0.590625 0.562500 0.059375
0.656250 0.562500 0.059375
0.721875 0.562500 0.059375
0.787500 0.562500 0.059375
0.853125 0.562500 0.059375
0.918750 0.562500 0.059375
0.984375 0.562500 0.059375
1.000000 0.562500 0.059375
0.000000 0.625000 0.059375
0.065625 0.625000 0.059375
0.131250 0.625000 0.059375
0.196875 0.625000 0.059375
0.262500 0.625000 0.059375
0.328125 0.625000 0.059375
0.393750 0.625000 0.059375
0.459375 0.625000 0.059375
0.525000 0.625000 0.059375
0.590625 0.625000 0.059375
0.656250 0.625000 0.059375
0.721875 0.625000 0.059375
0.787500 0.625000 0.059375
0.853125 0.625000 0.059375
0.918750 0.625000 0.059375
0.984375 0.625000 0.059375
1.000000 0.625000 0.059375
0.000000 0.687500 0.059375
0.065625 0.687500 0.059375
0.131250 0.687500 0.059375
0.196875 0.687500 0.059375
0.262500 0.687500 0.059375
0.328125 0.687500 0.059375
0.393750 0.687500 0.059375
0.459375 0.687500 0.059375
0.525000 0.687500 0.059375
0.590625 0.687500 0.059375
0.656250 0.687500 0.059375
0.721875 0.687500 0.059375
0.787500 0.687500 0.059375
0.853125 0.687500 0.059375
0.918750 0.687500 0.059375
0.984375 0.687500 0.059375
1.000000 0.687500 0.059375
0.000000 0.750000 0.059375
0.065625 0.750000 0.059375
0.131250 0.750000 0.059375
0.196875 0.750000 0.059375
0.262500 0.750000 0.059375
0.328125 0.750000 0.059375
0.393750 0.750000 0.059375
0.459375 0.750000 0.059375
0.525000 0.750000 0.059375
0.590625 0.750000 0.059375
0.656250 0.750000 0.059375
0.721875 0.750000 0.059375
0.787500 0.750000 0.059375
0.853125 0.750000 0.059375
0.918750 0.750000 0.059375
0.984375 0.750000 0.059375
1.000000 0.750000 0.059375
0.000000 0.812500 0.059375
0.065625 0.812500 0.059375
0.131250 0.812500 0.059375
0.196875 0.812500 0.059375
0.262500 0.812500 0.059375
0.328125 0.812500 0.059375
0.393750 0.812500 0.059375
0.459375 0.812500 0.059375
0.525000 0.812500 0.059375
0.590625 0.812500 0.059375
0.656250 0.812500 0.059375
0.721875 0.812500 0.059375
0.787500 0.812500 0.059375
0.853125 0.812500 0.059375
0.918750 0.812500 0.059375
0.984375 0.812500 0.059375
1.000000 0.812500 0.059375
0.000000 0.875000 0.059375
0.065625 0.875000 0.059375
0.131250 0.875000 0.059375
0.196875 0.875000 0.059375
0.262500 0.875000 0.059375
0.328125 0.875000 0.059375
0.393750 0.875000 0.059375
0.459375 0.875000 0.059375
0.525000 0.875000 0.059375
0.590625 0.875000 0.059375
0.656250 0.875000 0.059375
0.721875 0.875000 0.059375
0.787500 0.875000 0.059375
0.853125 0.875000 0.059375
0.918750 0.875000 0.059375
0.984375 0.875000 0.059375
1.000000 0.875000 0.059375
0.000000 0.937500 0.059375
0.065625 0.937500 0.059375
0.131250 0.937500 0.059375
0.196875 0.937500 0.059375
0.262500 0.937500 0.059375
0.328125 0.937500 0.059375
0.393750 0.937500 0.059375
0.459375 0.937500 0.059375
0.525000 0.937500 0.059375
0.590625 0.937500 0.059375
0.656250 0.937500 0.059375
0.721875 0.937500 0.059375
0.787500 0.937500 0.059375
0.853125 0.937500 0.059375
0.918750 0.937500 0.059375
0.984375 0.937500 0.059375
1.000000 0.937500 0.059375
0.000000 1.000000 0.059375
0.065625 1.000000 0.059375
0.131250 1.000000 0.059375
0.196875 1.000000 0.059375
0.262500 1.000000 0.059375
0.328125 1.000000 0.059375
0.393750 1.000000 0.059375
0.459375 1.000000 0.059375
0.525000 1.000000 0.059375
0.590625 1.000000 0.059375
0.656250 1.000000 0.059375
0.721875 1.000000 0.059375
0.787500 1.000000 0.059375
0.853125 1.000000 0.059375
0.918750 1.000000 0.059375
0.984375 1.000000 0.059375
1.000000 1.000000 0.059375
0.000000 0.000000 0.118750
0.065625 0.000000 0.118750
0.131250 0.000000 0.118750
0.196875 0.000000 0.118750
0.262500 0.000000 0.118750
0.328125 0.000000 0.118750
0.393750 0.000000 0.118750
0.459375 0.000000 0.118750
0.525000 0.000000 0.118750
0.590625 0.000000 0.118750
0.656250 0.000000 0.118750
0.721875 0.000000 0.118750
0.787500 0.000000 0.118750
0.853125 0.000000 0.118750
0.918750 0.000000 0.118750
0.984375 0.000000 0.118750
1.000000 0.000000 0.118750
0.000000 0.062500 0.118750
0.065625 0.062500 0.118750
0.131250 0.062500 0.118750
0.196875 0.062500 0.118750
0.262500 0.062500 0.118750
0.328125 0.062500 0.118750
0.393750 0.062500 0.118750
0.459375 0.062500 0.118750
0.525000 0.062500 0.118750
0.590625 0.062500 0.118750
0.656250 0.062500 0.118750
0.721875 0.062500 0.118750
0.787500 0.062500 0.118750
0.853125 0.062500 0.118750
0.918750 0.062500 0.118750
0.984375 0.062500 0.118750
1.000000 0.062500 0.118750
0.000000 0.125000 0.118750
0.065625 0.125000 0.118750
0.131250 0.125000 0.118750
0.196875 0.125000 0.118750
0.262500 0.125000 0.118750
0.328125 0.125000 0.118750
0.393750 0.125000 0.118750
0.459375 0.125000 0.118750
0.525000 0.125000 0.118750
0.590625 0.125000 0.118750
0.656250 0.125000 0.118750
0.721875 0.125000 0.118750
0.787500 0.125000 0.118750
0.853125 0.125000 0.118750
0.918750 0.125000 0.118750
0.984375 0.125000 0.118750
1.000000 0.125000 0.118750
0.000000 0.187500 0.118750
0.065625 0.187500 0.118750
0.131250 0.187500 0.118750
0.196875 0.187500 0.118750
0.262500 0.187500 0.118750
0.328125 0.187500 0.118750
0.393750 0.187500 0.118750
0.459375 0.187500 0.118750
0.525000 0.187500 0.118750
0.590625 0.187500 0.118750
0.656250 0.187500 0.118750
0.721875 0.187500 0.118750
0.787500 0.187500 0.118750
0.853125 0.187500 0.118750
0.918750 0.187500 0.118750
0.984375 0.187500 0.118750
1.000000 0.187500 0.118750
0.000000 0.250000 0.118750
0.065625 0.250000 0.118750
0.131250 0.250000 0.118750
0.196875 0.250000 0.118750
0.262500 0.250000 0.118750
0.328125 0.250000 0.118750
0.393750 0.250000 0.118750
0.459375 0.250000 0.118750
0.525000 0.250000 0.118750
0.590625 0.250000 0.118750
0.656250 0.250000 0.118750
0.721875 0.250000 0.118750
0.787500 0.250000 0.118750
0.853125 0.250000 0.118750
0.918750 0.250000 0.118750
0.984375 0.250000 0.118750
1.000000 0.250000 0.118750
0.000000 0.312500 0.118750
0.065625 0.312500 0.118750
0.131250 0.312500 0.118750
0.196875 0.312500 0.118750
0.262500 0.312500 0.118750
0.328125 0.312500 0.118750
0.393750 0.312500 0.118750
0.459375 0.312500 0.118750
0.525000 0.312500 0.118750
0.590625 0.312500 0.118750
0.656250 0.312500 0.118750
0.721875 0.312500 0.118750
0.787500 0.312500 0.118750
0.853125 0.312500 0.118750
0.918750 0.312500 0.118750
0.984375 0.312500 0.118750
1.000000 0.312500 0.118750
0.000000 0.375000 0.118750
0.065625 0.375000 0.118750
0.131250 0.375000 0.118750
0.196875 0.375000 0.118750
0.262500 0.375000 0.118750
0.328125 0.375000 0.118750
0.393750 0.375000 0.118750
0.459375 0.375000 0.118750
0.525000 0.375000 0.118750
0.590625 0.375000 0.118750
0.656250 0.375000 0.118750
0.721875 0.375000 0.118750
0.787500 0.375000 0.118750
0.853125 0.375000 0.118750
0.918750 0.375000 0.118750
0.984375 0.375000 0.118750
1.000000 0.375000 0.118750
0.000000 0.437500 0.118750
0.065625 0.437500 0.118750
0.131250 0.437500 0.118750
0.196875 0.437500 0.118750
0.262500 0.437500 0.118750
0.328125 0.437500 0.118750
0.393750 0.437500 0.118750
0.459375 0.437500 0.118750
0.525000 0.437500 0.118750
0.590625 0.437500 0.118750
0.656250 0.437500 0.118750
0.721875 0.437500 0.118750
0.787500 0.437500 0.118750
0.853125 0.437500 0.118750
0.918750 0.437500 0.118750
0.984375 0.437500 0.118750
1.000000 0.437500 0.118750
0.000000 0.500000 0.118750
0.065625 0.500000 0.118750
0.131250 0.500000 0.118750
0.196875 0.500000 0.118750
0.262500 0.500000 0.118750
0.328125 0.500000 0.118750
0.393750 0.500000 0.118750
0.459375 0.500000 0.118750
0.525000 0.500000 0.118750
0.590625 0.500000 0.118750
0.656250 0.500000 0.118750
0.721875 0.500000 0.118750
0.787500 0.500000 0.118750
0.853125 0.500000 0.118750
0.918750 0.500000 0.118750
0.984375 0.500000 0.118750
1.000000 0.500000 0.118750
0.000000 0.562500 0.118750
0.065625 0.562500 0.118750
0.131250 0.562500 0.118750
0.196875 0.562500 0.118750
0.262500 0.562500 0.118750
0.328125 0.562500 0.118750
0.393750 0.562500 0.118750
0.459375 0.562500 0.118750
0.525000 0.562500 0.118750
0.590625 0.562500 0.118750
0.656250 0.562500 0.118750
0.721875 0.562500 0.118750
0.787500 0.562500 0.118750
0.853125 0.562500 0.118750
0.918750 0.562500 0.118750
0.984375 0.562500 0.118750
1.000000 0.562500 0.118750
0.000000 0.625000 0.118750
0.065625 0.625000 0.118750
0.131250 0.625000 0.118750
0.196875 0.625000 0.118750
0.262500 0.625000 0.118750
0.328125 0.625000 0.118750
0.393750 0.625000 0.118750
0.459375 0.625000 0.118750
0.525000 0.625000 0.118750
0.590625 0.625000 0.118750
0.656250 0.625000 0.118750
0.721875 0.625000 0.118750
0.787500 0.625000 0.118750
0.853125 0.625000 0.118750
0.918750 0.625000 0.118750
0.984375 0.625000 0.118750
1.000000 0.625000 0.118750
0.000000 0.687500 0.118750
0.065625 0.687500 0.118750
0.131250 0.687500 0.118750
0.196875 0.687500 0.118750
0.262500 0.687500 0.118750
0.328125 0.687500 0.118750
0.393750 0.687500 0.118750
0.459375 0.687500 0.118750
0.525000 0.687500 0.118750
0.590625 0.687500 0.118750
0.656250 0.687500 0.118750
0.721875 0.687500 0.118750
0.787500 0.687500 0.118750
0.853125 0.687500 0.118750
0.918750 0.687500 0.118750
0.984375 0.687500 0.118750
1.000000 0.687500 0.118750
0.000000 0.750000 0.118750
0.065625 0.750000 0.118750
0.131250 0.750000 0.118750
0.196875 0.750000 0.118750
0.262500 0.750000 0.118750
0.328125 0.750000 0.118750
0.393750 0.750000 0.118750
0.459375 0.750000 0.118750
0.525000 0.750000 0.118750
0.590625 0.750000 0.118750
0.656250 0.750000 0.118750
0.721875 0.750000 0.118750
0.787500 0.750000 0.118750
0.853125 0.750000 0.118750
0.918750 0.750000 0.118750
0.984375 0.750000 0.118750
1.000000 0.750000 0.118750
0.000000 0.812500 0.118750
0.065625 0.812500 0.118750
0.131250 0.812500 0.118750
0.196875 0.812500 0.118750
0.262500 0.812500 0.118750
0.328125 0.812500 0.118750
0.393750 0.812500 0.118750
0.459375 0.812500 0.118750
0.525000 0.812500 0.118750
0.590625 0.812500 0.118750
0.656250 0.812500 0.118750
0.721875 0.812500 0.118750
0.787500 0.812500 0.118750
0.853125 0.812500 0.118750
0.918750 0.812500 0.118750
0.984375 0.812500 0.118750
1.000000 0.812500 0.118750
0.000000 0.875000 0.118750
0.065625 0.875000 0.118750
0.131250 0.875000 0.118750
0.196875 0.875000 0.118750
0.262500 0.875000 0.118750
0.328125 0.875000 0.118750
0.393750 0.875000 0.118750
0.459375 0.875000 0.118750
0.525000 0.875000 0.118750
0.590625 0.875000 0.118750
0.656250 0.875000 0.118750
0.721875 0.875000 0.118750
0.787500 0.875000 0.118750
0.853125 0.875000 0.118750
0.918750 0.875000 0.118750
0.984375 0.875000 0.118750
1.000000 0.875000 0.118750
0.000000 0.937500 0.118750
0.065625 0.937500 0.118750
0.131250 0.937500 0.118750
0.196875 0.937500 0.118750
0.262500 0.937500 0.118750
0.328125 0.937500 0.118750
0.393750 0.937500 0.118750
0.459375 0.937500 0.118750
0.525000 0.937500 0.118750
0.590625 0.937500 0.118750
0.656250 0.937500 0.118750
0.721875 0.937500 0.118750
0.787500 0.937500 0.118750
0.853125 0.937500 0.118750
0.918750 0.937500 0.118750
0.984375 0.937500 0.118750
1.000000 0.937500 0.118750
0.000000 1.000000 0.118750
0.065625 1.000000 0.118750
0.131250 1.000000 0.118750
0.196875 1.000000 0.118750
0.262500 1.000000 0.118750
0.328125 1.000000 0.118750
0.393750 1.000000 0.118750
0.459375 1.000000 0.118750
0.525000 1.000000 0.118750
0.590625 1.000000 0.118750
0.656250 1.000000 0.118750
0.721875 1.000000 0.118750
0.787500 1.000000 0.118750
0.853125 1.000000 0.118750
0.918750 1.000000 0.118750
0.984375 1.000000 0.118750
1.000000 1.000000 0.118750
0.000000 0.000000 0.178125
0.065625 0.000000 0.178125
0.131250 0.000000 0.178125
0.196875 0.000000 0.178125
0.262500 0.000000 0.178125
0.328125 0.000000 0.178125
0.393750 0.000000 0.178125
0.459375 0.000000 0.178125
0.525000 0.000000 0.178125
0.590625 0.000000 0.178125
0.656250 0.000000 0.178125
0.721875 0.000000 0.178125
0.787500 0.000000 0.178125
0.853125 0.000000 0.178125
0.918750 0.000000 0.178125
0.984375 0.000000 0.178125
1.000000 0.000000 0.178125
0.000000 0.062500 0.178125
0.065625 0.062500 0.178125
0.131250 0.062500 0.178125
