src/assets/luts/cool_shadows.cube
TITLE "Cool Shadows"
LUT_3D_SIZE 9
0.000000 0.000000 0.000000
0.118750 0.000000 0.000000
0.237500 0.000000 0.000000
0.356250 0.000000 0.000000
0.500000 0.000000 0.000000
0.625000 0.000000 0.000000
0.750000 0.000000 0.000000
0.875000 0.000000 0.000000
1.000000 0.000000 0.000000
0.000000 0.125000 0.000000
0.118750 0.125000 0.000000
0.237500 0.125000 0.000000
0.356250 0.125000 0.000000
0.500000 0.125000 0.000000
0.625000 0.125000 0.000000
0.750000 0.125000 0.000000
0.875000 0.125000 0.000000
1.000000 0.125000 0.000000
0.000000 0.250000 0.000000
0.118750 0.250000 0.000000
0.237500 0.250000 0.000000
0.356250 0.250000 0.000000
0.500000 0.250000 0.000000
0.625000 0.250000 0.000000
0.750000 0.250000 0.000000
0.875000 0.250000 0.000000
1.000000 0.250000 0.000000
0.000000 0.375000 0.000000
0.118750 0.375000 0.000000
0.237500 0.375000 0.000000
0.356250 0.375000 0.000000
0.500000 0.375000 0.000000
0.625000 0.375000 0.000000
0.750000 0.375000 0.000000
0.875000 0.375000 0.000000
1.000000 0.375000 0.000000
0.000000 0.500000 0.000000
0.118750 0.500000 0.000000
0.237500 0.500000 0.000000
0.356250 0.500000 0.000000
0.500000 0.500000 0.000000
0.625000 0.500000 0.000000
0.750000 0.500000 0.000000
0.875000 0.500000 0.000000
1.000000 0.500000 0.000000
0.000000 0.625000 0.000000
0.118750 0.625000 0.000000
0.237500 0.625000 0.000000
0.356250 0.625000 0.000000
0.500000 0.625000 0.000000
0.625000 0.625000 0.000000
0.750000 0.625000 0.000000
0.875000 0.625000 0.000000
1.000000 0.625000 0.000000
0.000000 0.750000 0.000000
0.118750 0.750000 0.000000
0.237500 0.750000 0.000000
0.356250 0.750000 0.000000
0.500000 0.750000 0.000000
0.625000 0.750000 0.000000
0.750000 0.750000 0.000000
0.875000 0.750000 0.000000
1.000000 0.750000 0.000000
0.000000 0.875000 0.000000
0.118750 0.875000 0.000000
0.237500 0.875000 0.000000
0.356250 0.875000 0.000000
0.500000 0.875000 0.000000
0.625000 0.875000 0.000000
0.750000 0.875000 0.000000
0.875000 0.875000 0.000000
1.000000 0.875000 0.000000
0.000000 1.000000 0.000000
0.118750 1.000000 0.000000
0.237500 1.000000 0.000000
0.356250 1.000000 0.000000
0.500000 1.000000 0.000000
0.625000 1.000000 0.000000
0.750000 1.000000 0.000000
0.875000 1.000000 0.000000
1.000000 1.000000 0.000000
0.000000 0.000000 0.137500
0.118750 0.000000 0.137500
0.237500 0.000000 0.137500
0.356250 0.000000 0.137500
0.500000 0.000000 0.125000
0.625000 0.000000 0.125000
0.750000 0.000000 0.125000
0.875000 0.000000 0.125000
1.000000 0.000000 0.125000
0.000000 0.125000 0.137500
0.118750 0.125000 0.137500
0.237500 0.125000 0.137500
0.356250 0.125000 0.137500
0.500000 0.125000 0.125000
0.625000 0.125000 0.125000
0.750000 0.125000 0.125000
0.875000 0.125000 0.125000
1.000000 0.125000 0.125000
0.000000 0.250000 0.137500
0.118750 0.250000 0.137500
0.237500 0.250000 0.137500
0.356250 0.250000 0.137500
0.500000 0.250000 0.125000
0.625000 0.250000 0.125000
0.750000 0.250000 0.125000
0.875000 0.250000 0.125000
1.000000 0.250000 0.125000
0.000000 0.375000 0.137500
0.118750 0.375000 0.137500
0.237500 0.375000 0.137500
0.356250 0.375000 0.137500
0.500000 0.375000 0.125000
0.625000 0.375000 0.125000
0.750000 0.375000 0.125000
0.875000 0.375000 0.125000
1.000000 0.375000 0.125000
0.000000 0.500000 0.137500
0.118750 0.500000 0.137500
0.237500 0.500000 0.137500
0.356250 0.500000 0.137500
0.500000 0.500000 0.125000
0.625000 0.500000 0.125000
0.750000 0.500000 0.125000
0.875000 0.500000 0.125000
1.000000 0.500000 0.125000
0.000000 0.625000 0.137500
0.118750 0.625000 0.137500
0.237500 0.625000 0.137500
0.356250 0.625000 0.137500
0.500000 0.625000 0.125000
0.625000 0.625000 0.125000
0.750000 0.625000 0.125000
0.875000 0.625000 0.125000
1.000000 0.625000 0.125000
0.000000 0.750000 0.137500
0.118750 0.750000 0.137500
0.237500 0.750000 0.137500
0.356250 0.750000 0.137500
0.500000 0.750000 0.125000
0.625000 0.750000 0.125000
0.750000 0.750000 0.125000
0.875000 0.750000 0.125000
1.000000 0.750000 0.125000
0.000000 0.875000 0.137500
0.118750 0.875000 0.137500
0.237500 0.875000 0.137500
0.356250 0.875000 0.137500
0.500000 0.875000 0.125000
0.625000 0.875000 0.125000
0.750000 0.875000 0.125000
0.875000 0.875000 0.125000
1.000000 0.875000 0.125000
0.000000 1.000000 0.137500
0.118750 1.000000 0.137500
0.237500 1.000000 0.137500
0.356250 1.000000 0.137500
0.500000 1.000000 0.125000
0.625000 1.000000 0.125000
0.750000 1.000000 0.125000
0.875000 1.000000 0.125000
1.000000 1.000000 0.125000
0.000000 0.000000 0.275000
0.118750 0.000000 0.275000
0.237500 0.000000 0.275000
0.356250 0.000000 0.275000
0.500000 0.000000 0.250000
0.625000 0.000000 0.250000
0.750000 0.000000 0.250000
0.875000 0.000000 0.250000
1.000000 0.000000 0.250000
0.000000 0.125000 0.275000
0.118750 0.125000 0.275000
0.237500 0.125000 0.275000
0.356250 0.125000 0.275000
0.500000 0.125000 0.250000
0.625000 0.125000 0.250000
0.750000 0.125000 0.250000
0.875000 0.125000 0.250000
1.000000 0.125000 0.250000
0.000000 0.250000 0.275000
0.118750 0.250000 0.275000
0.237500 0.250000 0.275000
0.356250 0.250000 0.275000
0.500000 0.250000 0.250000
0.625000 0.250000 0.250000
0.750000 0.250000 0.250000
0.875000 0.250000 0.250000
1.000000 0.250000 0.250000
0.000000 0.375000 0.275000
0.118750 0.375000 0.275000
0.237500 0.375000 0.275000
0.356250 0.375000 0.275000
0.500000 0.375000 0.250000
0.625000 0.375000 0.250000
0.750000 0.375000 0.250000
0.875000 0.375000 0.250000
1.000000 0.375000 0.250000
0.000000 0.500000 0.275000
0.118750 0.500000 0.275000
0.237500 0.500000 0.275000
0.356250 0.500000 0.275000
0.500000 0.500000 0.250000
0.625000 0.500000 0.250000
0.750000 0.500000 0.250000
0.875000 0.500000 0.250000
1.000000 0.500000 0.250000
0.000000 0.625000 0.275000
0.118750 0.625000 0.275000
0.237500 0.625000 0.275000
0.356250 0.625000 0.275000
0.500000 0.625000 0.250000
0.625000 0.625000 0.250000
0.750000 0.625000 0.250000
0.875000 0.625000 0.250000
1.000000 0.625000 0.250000
0.000000 0.750000 0.275000
0.118750 0.750000 0.275000
0.237500 0.750000 0.275000
0.356250 0.750000 0.275000
0.500000 0.750000 0.250000
0.625000 0.750000 0.250000
0.750000 0.750000 0.250000
0.875000 0.750000 0.250000
1.000000 0.750000 0.250000
0.000000 0.875000 0.275000
0.118750 0.875000 0.275000
0.237500 0.875000 0.275000
0.356250 0.875000 0.275000
0.500000 0.875000 0.250000
0.625000 0.875000 0.250000
0.750000 0.875000 0.250000
0.875000 0.875000 0.250000
1.000000 0.875000 0.250000
0.000000 1.000000 0.275000
0.118750 1.000000 0.275000
0.237500 1.000000 0.275000
0.356250 1.000000 0.275000
0.500000 1.000000 0.250000
0.625000 1.000000 0.250000
0.750000 1.000000 0.250000
0.875000 1.000000 0.250000
1.000000 1.000000 0.250000
0.000000 0.000000 0.412500
0.118750 0.000000 0.412500
0.237500 0.000000 0.412500
0.356250 0.000000 0.412500
0.500000 0.000000 0.375000
0.625000 0.000000 0.375000
0.750000 0.000000 0.375000
0.875000 0.000000 0.375000
1.000000 0.000000 0.375000
0.000000 0.125000 0.412500
0.118750 0.125000 0.412500
0.237500 0.125000 0.412500
0.356250 0.125000 0.412500
0.500000 0.125000 0.375000
0.625000 0.125000 0.375000
0.750000 0.125000 0.375000
0.875000 0.125000 0.375000
1.000000 0.125000 0.375000
0.000000 0.250000 0.412500
0.118750 0.250000 0.412500
0.237500 0.250000 0.412500
0.356250 0.250000 0.412500
0.500000 0.250000 0.375000
0.625000 0.250000 0.375000
0.750000 0.250000 0.375000
0.875000 0.250000 0.375000
1.000000 0.250000 0.375000
0.000000 0.375000 0.412500
0.118750 0.375000 0.412500
0.237500 0.375000 0.412500
0.356250 0.375000 0.412500
0.500000 0.375000 0.375000
0.625000 0.375000 0.375000
0.750000 0.375000 0.375000
0.875000 0.375000 0.375000
1.000000 0.375000 0.375000
0.000000 0.500000 0.412500
0.118750 0.500000 0.412500
0.237500 0.500000 0.412500
0.356250 0.500000 0.412500
0.500000 0.500000 0.375000
0.625000 0.500000 0.375000
0.750000 0.500000 0.375000
0.875000 0.500000 0.375000
1.000000 0.500000 0.375000
0.000000 0.625000 0.412500
0.118750 0.625000 0.412500
0.237500 0.625000 0.412500
0.356250 0.625000 0.412500
0.500000 0.625000 0.375000
0.625000 0.625000 0.375000
0.750000 0.625000 0.375000
0.875000 0.625000 0.375000
1.000000 0.625000 0.375000
0.000000 0.750000 0.412500
0.118750 0.750000 0.412500
0.237500 0.750000 0.412500
0.356250 0.750000 0.412500
0.500000 0.750000 0.375000
0.625000 0.750000 0.375000
0.750000 0.750000 0.375000
0.875000 0.750000 0.375000
1.000000 0.750000 0.375000
0.000000 0.875000 0.412500
0.118750 0.875000 0.412500
0.237500 0.875000 0.412500
0.356250 0.875000 0.412500
0.500000 0.875000 0.375000
0.625000 0.875000 0.375000
0.750000 0.875000 0.375000
0.875000 0.875000 0.375000
1.000000 0.875000 0.375000
0.000000 1.000000 0.412500
0.118750 1.000000 0.412500
0.237500 1.000000 0.412500
0.356250 1.000000 0.412500
0.500000 1.000000 0.375000
0.625000 1.000000 0.375000
0.750000 1.000000 0.375000
0.875000 1.000000 0.375000
1.000000 1.000000 0.375000
0.000000 0.000000 0.550000
0.118750 0.000000 0.550000
0.237500 0.000000 0.550000
0.356250 0.000000 0.550000
0.500000 0.000000 0.500000
0.625000 0.000000 0.500000
0.750000 0.000000 0.500000
0.875000 0.000000 0.500000
1.000000 0.000000 0.500000
0.000000 0.125000 0.550000
0.118750 0.125000 0.550000
0.237500 0.125000 0.550000
0.356250 0.125000 0.550000
0.500000 0.125000 0.500000
0.625000 0.125000 0.500000
0.750000 0.125000 0.500000
0.875000 0.125000 0.500000
1.000000 0.125000 0.500000
0.000000 0.250000 0.550000
0.118750 0.250000 0.550000
0.237500 0.250000 0.550000
0.356250 0.250000 0.550000
0.500000 0.250000 0.500000
0.625000 0.250000 0.500000
0.750000 0.250000 0.500000
0.875000 0.250000 0.500000
1.000000 0.250000 0.500000
0.000000 0.375000 0.550000
0.118750 0.375000 0.550000
0.237500 0.375000 0.550000
0.356250 0.375000 0.550000
0.500000 0.375000 0.500000
0.625000 0.375000 0.500000
0.750000 0.375000 0.500000
0.875000 0.375000 0.500000
1.000000 0.375000 0.500000
0.000000 0.500000 0.550000
0.118750 0.500000 0.550000
0.237500 0.500000 0.550000
0.356250 0.500000 0.550000
0.500000 0.500000 0.500000
0.625000 0.500000 0.500000
0.750000 0.500000 0.500000
0.875000 0.500000 0.500000
1.000000 0.500000 0.500000
0.000000 0.625000 0.550000
0.118750 0.625000 0.550000
0.237500 0.625000 0.550000
0.356250 0.625000 0.550000
0.500000 0.625000 0.500000
0.625000 0.625000 0.500000
0.750000 0.625000 0.500000
0.875000 0.625000 0.500000
1.000000 0.625000 0.500000
0.000000 0.750000 0.550000
0.118750 0.750000 0.550000
0.237500 0.750000 0.550000
0.356250 0.750000 0.550000
0.500000 0.750000 0.500000
0.625000 0.750000 0.500000
0.750000 0.750000 0.500000
0.875000 0.750000 0.500000
1.000000 0.750000 0.500000
0.000000 0.875000 0.550000
0.118750 0.875000 0.550000
0.237500 0.875000 0.550000
0.356250 0.875000 0.550000
0.500000 0.875000 0.500000
0.625000 0.875000 0.500000
0.750000 0.875000 0.500000
0.875000 0.875000 0.500000
1.000000 0.875000 0.500000
0.000000 1.000000 0.550000
0.118750 1.000000 0.550000
0.237500 1.000000 0.550000
0.356250 1.000000 0.550000
0.500000 1.000000 0.500000
0.625000 1.000000 0.500000
0.750000 1.000000 0.500000
0.875000 1.000000 0.500000
1.000000 1.000000 0.500000
0.000000 0.000000 0.687500
0.118750 0.000000 0.687500
0.237500 0.000000 0.687500
0.356250 0.000000 0.687500
0.500000 0.000000 0.625000
0.625000 0.000000 0.625000
0.750000 0.000000 0.625000
0.875000 0.000000 0.625000
1.000000 0.000000 0.625000
0.000000 0.125000 0.687500
0.118750 0.125000 0.687500
0.237500 0.125000 0.687500
0.356250 0.125000 0.687500
0.500000 0.125000 0.625000
0.625000 0.125000 0.625000
0.750000 0.125000 0.625000
0.875000 0.125000 0.625000
1.000000 0.125000 0.625000
0.000000 0.250000 0.687500
0.118750 0.250000 0.687500
0.237500 0.250000 0.687500
0.356250 0.250000 0.687500
0.500000 0.250000 0.625000
0.625000 0.250000 0.625000
0.750000 0.250000 0.625000
0.875000 0.250000 0.625000
1.000000 0.250000 0.625000
0.000000 0.375000 0.687500
0.118750 0.375000 0.687500
0.237500 0.375000 0.687500
0.356250 0.375000 0.687500
0.500000 0.375000 0.625000
0.625000 0.375000 0.625000
0.750000 0.375000 0.625000
0.875000 0.375000 0.625000
1.000000 0.375000 0.625000
0.000000 0.500000 0.687500
0.118750 0.500000 0.687500
0.237500 0.500000 0.687500
0.356250 0.500000 0.687500
0.500000 0.500000 0.625000
0.625000 0.500000 0.625000
0.750000 0.500000 0.625000
0.875000 0.500000 0.625000
1.000000 0.500000 0.625000
0.000000 0.625000 0.687500
0.118750 0.625000 0.687500
0.237500 0.625000 0.687500
0.356250 0.625000 0.687500
0.500000 0.625000 0.625000
0.625000 0.625000 0.625000
0.750000 0.625000 0.625000
0.875000 0.625000 0.625000
1.000000 0.625000 0.625000
0.000000 0.750000 0.687500
0.118750 0.750000 0.687500
0.237500 0.750000 0.687500
0.356250 0.750000 0.687500
0.500000 0.750000 0.625000
0.625000 0.750000 0.625000
0.750000 0.750000 0.625000
0.875000 0.750000 0.625000
1.000000 0.750000 0.625000
0.000000 0.875000 0.687500
0.118750 0.875000 0.687500
0.237500 0.875000 0.687500
0.356250 0.875000 0.687500
0.500000 0.875000 0.625000
0.625000 0.875000 0.625000
0.750000 0.875000 0.625000
0.875000 0.875000 0.625000
1.000000 0.875000 0.625000
0.000000 1.000000 0.687500
0.118750 1.000000 0.687500
0.237500 1.000000 0.687500
0.356250 1.000000 0.687500
0.500000 1.000000 0.625000
0.625000 1.000000 0.625000
0.750000 1.000000 0.625000
0.875000 1.000000 0.625000
1.000000 1.000000 0.625000
0.000000 0.000000 0.825000
0.118750 0.000000 0.825000
0.237500 0.000000 0.825000
0.356250 0.000000 0.825000
0.500000 0.000000 0.750000
0.625000 0.000000 0.750000
0.750000 0.000000 0.750000
0.875000 0.000000 0.750000
1.000000 0.000000 0.750000
0.000000 0.125000 0.825000
0.118750 0.125000 0.825000
0.237500 0.125000 0.825000
0.356250 0.125000 0.825000
0.500000 0.125000 0.750000
0.625000 0.125000 0.750000
0.750000 0.125000 0.750000
0.875000 0.125000 0.750000
1.000000 0.125000 0.750000
0.000000 0.250000 0.825000
0.118750 0.250000 0.825000
0.237500 0.250000 0.825000
0.356250 0.250000 0.825000
0.500000 0.250000 0.750000
0.625000 0.250000 0.750000
0.750000 0.250000 0.750000
0.875000 0.250000 0.750000
1.000000 0.250000 0.750000
0.000000 0.375000 0.825000
0.118750 0.375000 0.825000
0.237500 0.375000 0.825000
0.356250 0.375000 0.825000
0.500000 0.375000 0.750000
0.625000 0.375000 0.750000
0.750000 0.375000 0.750000
0.875000 0.375000 0.750000
1.000000 0.375000 0.750000
0.000000 0.500000 0.825000
0.118750 0.500000 0.825000
0.237500 0.500000 0.825000
0.356250 0.500000 0.825000
0.500000 0.500000 0.750000
0.625000 0.500000 0.750000
0.750000 0.500000 0.750000
0.875000 0.500000 0.750000
1.000000 0.500000 0.750000
0.000000 0.625000 0.825000
0.118750 0.625000 0.825000
0.237500 0.625000 0.825000
0.356250 0.625000 0.825000
0.500000 0.625000 0.750000
0.625000 0.625000 0.750000
0.750000 0.625000 0.750000
0.875000 0.625000 0.750000
1.000000 0.625000 0.750000
0.000000 0.750000 0.825000
0.118750 0.750000 0.825000
0.237500 0.750000 0.825000
0.356250 0.750000 0.825000
0.500000 0.750000 0.750000
0.625000 0.750000 0.750000
0.750000 0.750000 0.750000
0.875000 0.750000 0.750000
1.000000 0.750000 0.750000
0.000000 0.875000 0.825000
0.118750 0.875000 0.825000
0.237500 0.875000 0.825000
0.356250 0.875000 0.825000
0.500000 0.875000 0.750000
0.625000 0.875000 0.750000
0.750000 0.875000 0.750000
0.875000 0.875000 0.750000
1.000000 0.875000 0.750000
0.000000 1.000000 0.825000
0.118750 1.000000 0.825000
0.237500 1.000000 0.825000
0.356250 1.000000 0.825000
0.500000 1.000000 0.750000
0.625000 1.000000 0.750000
0.750000 1.000000 0.750000
0.875000 1.000000 0.750000
1.000000 1.000000 0.750000
0.000000 0.000000 0.962500
0.118750 0.000000 0.962500
0.237500 0.000000 0.962500
0.356250 0.000000 0.962500
0.500000 0.000000 0.875000
0.625000 0.000000 0.875000
0.750000 0.000000 0.875000
0.875000 0.000000 0.875000
1.000000 0.000000 0.875000
0.000000 0.125000 0.962500
0.118750 0.125000 0.962500
0.237500 0.125000 0.962500
0.356250 0.125000 0.962500
0.500000 0.125000 0.875000
0.625000 0.125000 0.875000
0.750000 0.125000 0.875000
0.875000 0.125000 0.875000
1.000000 0.125000 0.875000
0.000000 0.250000 0.962500
0.118750 0.250000 0.962500
0.237500 0.250000 0.962500
0.356250 0.250000 0.962500
0.500000 0.250000 0.875000
0.625000 0.250000 0.875000
0.750000 0.250000 0.875000
0.875000 0.250000 0.875000
1.000000 0.250000 0.875000
0.000000 0.375000 0.962500
0.118750 0.375000 0.962500
0.237500 0.375000 0.962500
0.356250 0.375000 0.962500
0.500000 0.375000 0.875000
0.625000 0.375000 0.875000
0.750000 0.375000 0.875000
0.875000 0.375000 0.875000
1.000000 0.375000 0.875000
0.000000 0.500000 0.962500
0.118750 0.500000 0.962500
0.237500 0.500000 0.962500
0.356250 0.500000 0.962500
0.500000 0.500000 0.875000
0.625000 0.500000 0.875000
0.750000 0.500000 0.875000
0.875000 0.500000 0.875000
1.000000 0.500000 0.875000
0.000000 0.625000 0.962500
0.118750 0.625000 0.962500
0.237500 0.625000 0.962500
0.356250 0.625000 0.962500
0.500000 0.625000 0.875000
0.625000 0.625000 0.875000
0.750000 0.625000 0.875000
0.875000 0.625000 0.875000
1.000000 0.625000 0.875000
0.000000 0.750000 0.962500
0.118750 0.750000 0.962500
0.237500 0.750000 0.962500
0.356250 0.750000 0.962500
0.500000 0.750000 0.875000
0.625000 0.750000 0.875000
0.750000 0.750000 0.875000
0.875000 0.750000 0.875000
1.000000 0.750000 0.875000
0.000000 0.875000 0.962500
0.118750 0.875000 0.962500
0.237500 0.875000 0.962500
0.356250 0.875000 0.962500
0.500000 0.875000 0.875000
0.625000 0.875000 0.875000
0.750000 0.875000 0.875000
0.875000 0.875000 0.875000
1.000000 0.875000 0.875000
0.000000 1.000000 0.962500
0.118750 1.000000 0.962500
0.237500 1.000000 0.962500
0.356250 1.000000 0.962500
0.500000 1.000000 0.875000
0.625000 1.000000 0.875000
0.750000 1.000000 0.875000
0.875000 1.000000 0.875000
1.000000 1.000000 0.875000
0.000000 0.000000 1.000000
0.118750 0.000000 1.000000
0.237500 0.000000 1.000000
0.356250 0.000000 1.000000
0.500000 0.000000 1.000000
0.625000 0.000000 1.000000
0.750000 0.000000 1.000000
0.875000 0.000000 1.000000
1.000000 0.000000 1.000000
0.000000 0.125000 1.000000
0.118750 0.125000 1.000000
0.237500 0.125000 1.000000
0.356250 0.125000 1.000000
0.500000 0.125000 1.000000
0.625000 0.125000 1.000000
0.750000 0.125000 1.000000
0.875000 0.125000 1.000000
1.000000 0.125000 1.000000
0.000000 0.250000 1.000000
0.118750 0.250000 1.000000
0.237500 0.250000 1.000000
0.356250 0.250000 1.000000
0.500000 0.250000 1.000000
0.625000 0.250000 1.000000
0.750000 0.250000 1.000000
0.875000 0.250000 1.000000
1.000000 0.250000 1.000000
0.000000 0.375000 1.000000
0.118750 0.375000 1.000000
0.237500 0.375000 1.000000
0.356250 0.375000 1.000000
0.500000 0.375000 1.000000
0.625000 0.375000 1.000000
0.750000 0.375000 1.000000
0.875000 0.375000 1.000000
1.000000 0.375000 1.000000
0.000000 0.500000 1.000000
0.118750 0.500000 1.000000
0.237500 0.500000 1.000000
0.356250 0.500000 1.000000
0.500000 0.500000 1.000000
0.625000 0.500000 1.000000
0.750000 0.500000 1.000000
0.875000 0.500000 1.000000
1.000000 0.500000 1.000000
0.000000 0.625000 1.000000
0.118750 0.625000 1.000000
0.237500 0.625000 1.000000
0.356250 0.625000 1.000000
0.500000 0.625000 1.000000
0.625000 0.625000 1.000000
0.750000 0.625000 1.000000
0.875000 0.625000 1.000000
1.000000 0.625000 1.000000
0.000000 0.750000 1.000000
0.118750 0.750000 1.000000
0.237500 0.750000 1.000000
0.356250 0.750000 1.000000
0.500000 0.750000 1.000000
0.625000 0.750000 1.000000
0.750000 0.750000 1.000000
0.875000 0.750000 1.000000
1.000000 0.750000 1.000000
0.000000 0.875000 1.000000
0.118750 0.875000 1.000000
0.237500 0.875000 1.000000
0.356250 0.875000 1.000000
0.500000 0.875000 1.000000
0.625000 0.875000 1.000000
0.750000 0.875000 1.000000
0.875000 0.875000 1.000000
1.000000 0.875000 1.000000
0.000000 1.000000 1.000000
0.118750 1.000000 1.000000
0.237500 1.000000 1.000000
0.356250 1.000000 1.000000
0.500000 1.000000 1.000000
0.625000 1.000000 1.000000
0.750000 1.000000 1.000000
0.875000 1.000000 1.000000
1.000000 1.000000 1.000000
