src/assets/luts/cool_shadows.cube
TITLE "Cool Shadows"
LUT_3D_SIZE 17
0.000000 0.000000 0.000000
0.059375 0.000000 0.000000
0.118750 0.000000 0.000000
0.178125 0.000000 0.000000
0.237500 0.000000 0.000000
0.296875 0.000000 0.000000
0.356250 0.000000 0.000000
0.415625 0.000000 0.000000
0.500000 0.000000 0.000000
0.562500 0.000000 0.000000
0.625000 0.000000 0.000000
0.687500 0.000000 0.000000
0.750000 0.000000 0.000000
0.812500 0.000000 0.000000
0.875000 0.000000 0.000000
0.937500 0.000000 0.000000
1.000000 0.000000 0.000000
0.000000 0.062500 0.000000
0.059375 0.062500 0.000000
0.118750 0.062500 0.000000
0.178125 0.062500 0.000000
0.237500 0.062500 0.000000
0.296875 0.062500 0.000000
0.356250 0.062500 0.000000
0.415625 0.062500 0.000000
0.500000 0.062500 0.000000
0.562500 0.062500 0.000000
0.625000 0.062500 0.000000
0.687500 0.062500 0.000000
0.750000 0.062500 0.000000
0.812500 0.062500 0.000000
0.875000 0.062500 0.000000
0.937500 0.062500 0.000000
1.000000 0.062500 0.000000
0.000000 0.125000 0.000000
0.059375 0.125000 0.000000
0.118750 0.125000 0.000000
0.178125 0.125000 0.000000
0.237500 0.125000 0.000000
0.296875 0.125000 0.000000
0.356250 0.125000 0.000000
0.415625 0.125000 0.000000
0.500000 0.125000 0.000000
0.562500 0.125000 0.000000
0.625000 0.125000 0.000000
0.687500 0.125000 0.000000
0.750000 0.125000 0.000000
0.812500 0.125000 0.000000
0.875000 0.125000 0.000000
0.937500 0.125000 0.000000
1.000000 0.125000 0.000000
0.000000 0.187500 0.000000
0.059375 0.187500 0.000000
0.118750 0.187500 0.000000
0.178125 0.187500 0.000000
0.237500 0.187500 0.000000
0.296875 0.187500 0.000000
0.356250 0.187500 0.000000
0.415625 0.187500 0.000000
0.500000 0.187500 0.000000
0.562500 0.187500 0.000000
0.625000 0.187500 0.000000
0.687500 0.187500 0.000000
0.750000 0.187500 0.000000
0.812500 0.187500 0.000000
0.875000 0.187500 0.000000
0.937500 0.187500 0.000000
1.000000 0.187500 0.000000
0.000000 0.250000 0.000000
0.059375 0.250000 0.000000
0.118750 0.250000 0.000000
0.178125 0.250000 0.000000
0.237500 0.250000 0.000000
0.296875 0.250000 0.000000
0.356250 0.250000 0.000000
0.415625 0.250000 0.000000
0.500000 0.250000 0.000000
0.562500 0.250000 0.000000
0.625000 0.250000 0.000000
0.687500 0.250000 0.000000
0.750000 0.250000 0.000000
0.812500 0.250000 0.000000
0.875000 0.250000 0.000000
0.937500 0.250000 0.000000
1.000000 0.250000 0.000000
0.000000 0.312500 0.000000
0.059375 0.312500 0.000000
0.118750 0.312500 0.000000
0.178125 0.312500 0.000000
0.237500 0.312500 0.000000
0.296875 0.312500 0.000000
0.356250 0.312500 0.000000
0.415625 0.312500 0.000000
0.500000 0.312500 0.000000
0.562500 0.312500 0.000000
0.625000 0.312500 0.000000
0.687500 0.312500 0.000000
0.750000 0.312500 0.000000
0.812500 0.312500 0.000000
0.875000 0.312500 0.000000
0.937500 0.312500 0.000000
1.000000 0.312500 0.000000
0.000000 0.375000 0.000000
0.059375 0.375000 0.000000
0.118750 0.375000 0.000000
0.178125 0.375000 0.000000
0.237500 0.375000 0.000000
0.296875 0.375000 0.000000
0.356250 0.375000 0.000000
0.415625 0.375000 0.000000
0.500000 0.375000 0.000000
0.562500 0.375000 0.000000
0.625000 0.375000 0.000000
0.687500 0.375000 0.000000
0.750000 0.375000 0.000000
0.812500 0.375000 0.000000
0.875000 0.375000 0.000000
0.937500 0.375000 0.000000
1.000000 0.375000 0.000000
0.000000 0.437500 0.000000
0.059375 0.437500 0.000000
0.118750 0.437500 0.000000
0.178125 0.437500 0.000000
0.237500 0.437500 0.000000
0.296875 0.437500 0.000000
0.356250 0.437500 0.000000
0.415625 0.437500 0.000000
0.500000 0.437500 0.000000
0.562500 0.437500 0.000000
0.625000 0.437500 0.000000
0.687500 0.437500 0.000000
0.750000 0.437500 0.000000
0.812500 0.437500 0.000000
0.875000 0.437500 0.000000
0.937500 0.437500 0.000000
1.000000 0.437500 0.000000
0.000000 0.500000 0.000000
0.059375 0.500000 0.000000
0.118750 0.500000 0.000000
0.178125 0.500000 0.000000
0.237500 0.500000 0.000000
0.296875 0.500000 0.000000
0.356250 0.500000 0.000000
0.415625 0.500000 0.000000
0.500000 0.500000 0.000000
0.562500 0.500000 0.000000
0.625000 0.500000 0.000000
0.687500 0.500000 0.000000
0.750000 0.500000 0.000000
0.812500 0.500000 0.000000
0.875000 0.500000 0.000000
0.937500 0.500000 0.000000
1.000000 0.500000 0.000000
0.000000 0.562500 0.000000
0.059375 0.562500 0.000000
0.118750 0.562500 0.000000
0.178125 0.562500 0.000000
0.237500 0.562500 0.000000
0.296875 0.562500 0.000000
0.356250 0.562500 0.000000
0.415625 0.562500 0.000000
0.500000 0.562500 0.000000
0.562500 0.562500 0.000000
0.625000 0.562500 0.000000
0.687500 0.562500 0.000000
0.750000 0.562500 0.000000
0.812500 0.562500 0.000000
0.875000 0.562500 0.000000
0.937500 0.562500 0.000000
1.000000 0.562500 0.000000
0.000000 0.625000 0.000000
0.059375 0.625000 0.000000
0.118750 0.625000 0.000000
0.178125 0.625000 0.000000
0.237500 0.625000 0.000000
0.296875 0.625000 0.000000
0.356250 0.625000 0.000000
0.415625 0.625000 0.000000
0.500000 0.625000 0.000000
0.562500 0.625000 0.000000
0.625000 0.625000 0.000000
0.687500 0.625000 0.000000
0.750000 0.625000 0.000000
0.812500 0.625000 0.000000
0.875000 0.625000 0.000000
0.937500 0.625000 0.000000
1.000000 0.625000 0.000000
0.000000 0.687500 0.000000
0.059375 0.687500 0.000000
0.118750 0.687500 0.000000
0.178125 0.687500 0.000000
0.237500 0.687500 0.000000
0.296875 0.687500 0.000000
0.356250 0.687500 0.000000
0.415625 0.687500 0.000000
0.500000 0.687500 0.000000
0.562500 0.687500 0.000000
0.625000 0.687500 0.000000
0.687500 0.687500 0.000000
0.750000 0.687500 0.000000
0.812500 0.687500 0.000000
0.875000 0.687500 0.000000
0.937500 0.687500 0.000000
1.000000 0.687500 0.000000
0.000000 0.750000 0.000000
0.059375 0.750000 0.000000
0.118750 0.750000 0.000000
0.178125 0.750000 0.000000
0.237500 0.750000 0.000000
0.296875 0.750000 0.000000
0.356250 0.750000 0.000000
0.415625 0.750000 0.000000
0.500000 0.750000 0.000000
0.562500 0.750000 0.000000
0.625000 0.750000 0.000000
0.687500 0.750000 0.000000
0.750000 0.750000 0.000000
0.812500 0.750000 0.000000
0.875000 0.750000 0.000000
0.937500 0.750000 0.000000
1.000000 0.750000 0.000000
0.000000 0.812500 0.000000
0.059375 0.812500 0.000000
0.118750 0.812500 0.000000
0.178125 0.812500 0.000000
0.237500 0.812500 0.000000
0.296875 0.812500 0.000000
0.356250 0.812500 0.000000
0.415625 0.812500 0.000000
0.500000 0.812500 0.000000
0.562500 0.812500 0.000000
0.625000 0.812500 0.000000
0.687500 0.812500 0.000000
0.750000 0.812500 0.000000
0.812500 0.812500 0.000000
0.875000 0.812500 0.000000
0.937500 0.812500 0.000000
1.000000 0.812500 0.000000
0.000000 0.875000 0.000000
0.059375 0.875000 0.000000
0.118750 0.875000 0.000000
0.178125 0.875000 0.000000
0.237500 0.875000 0.000000
0.296875 0.875000 0.000000
0.356250 0.875000 0.000000
0.415625 0.875000 0.000000
0.500000 0.875000 0.000000
0.562500 0.875000 0.000000
0.625000 0.875000 0.000000
0.687500 0.875000 0.000000
0.750000 0.875000 0.000000
0.812500 0.875000 0.000000
0.875000 0.875000 0.000000
0.937500 0.875000 0.000000
1.000000 0.875000 0.000000
0.000000 0.937500 0.000000
0.059375 0.937500 0.000000
0.118750 0.937500 0.000000
0.178125 0.937500 0.000000
0.237500 0.937500 0.000000
0.296875 0.937500 0.000000
0.356250 0.937500 0.000000
0.415625 0.937500 0.000000
0.500000 0.937500 0.000000
0.562500 0.937500 0.000000
0.625000 0.937500 0.000000
0.687500 0.937500 0.000000
0.750000 0.937500 0.000000
0.812500 0.937500 0.000000
0.875000 0.937500 0.000000
0.937500 0.937500 0.000000
1.000000 0.937500 0.000000
0.000000 1.000000 0.000000
0.059375 1.000000 0.000000
0.118750 1.000000 0.000000
0.178125 1.000000 0.000000
0.237500 1.000000 0.000000
0.296875 1.000000 0.000000
0.356250 1.000000 0.000000
0.415625 1.000000 0.000000
0.500000 1.000000 0.000000
0.562500 1.000000 0.000000
0.625000 1.000000 0.000000
0.687500 1.000000 0.000000
0.750000 1.000000 0.000000
0.812500 1.000000 0.000000
0.875000 1.000000 0.000000
0.937500 1.000000 0.000000
1.000000 1.000000 0.000000
0.000000 0.000000 0.068750
0.059375 0.000000 0.068750
0.118750 0.000000 0.068750
0.178125 0.000000 0.068750
0.237500 0.000000 0.068750
0.296875 0.000000 0.068750
0.356250 0.000000 0.068750
0.415625 0.000000 0.068750
0.500000 0.000000 0.062500
0.562500 0.000000 0.062500
0.625000 0.000000 0.062500
0.687500 0.000000 0.062500
0.750000 0.000000 0.062500
0.812500 0.000000 0.062500
0.875000 0.000000 0.062500
0.937500 0.000000 0.062500
1.000000 0.000000 0.062500
0.000000 0.062500 0.068750
0.059375 0.062500 0.068750
0.118750 0.062500 0.068750
0.178125 0.062500 0.068750
0.237500 0.062500 0.068750
0.296875 0.062500 0.068750
0.356250 0.062500 0.068750
0.415625 0.062500 0.068750
0.500000 0.062500 0.062500
0.562500 0.062500 0.062500
0.625000 0.062500 0.062500
0.687500 0.062500 0.062500
0.750000 0.062500 0.062500
0.812500 0.062500 0.062500
0.875000 0.062500 0.062500
0.937500 0.062500 0.062500
1.000000 0.062500 0.062500
0.000000 0.125000 0.068750
0.059375 0.125000 0.068750
0.118750 0.125000 0.068750
0.178125 0.125000 0.068750
0.237500 0.125000 0.068750
0.296875 0.125000 0.068750
0.356250 0.125000 0.068750
0.415625 0.125000 0.068750
0.500000 0.125000 0.062500
0.562500 0.125000 0.062500
0.625000 0.125000 0.062500
0.687500 0.125000 0.062500
0.750000 0.125000 0.062500
0.812500 0.125000 0.062500
0.875000 0.125000 0.062500
0.937500 0.125000 0.062500
1.000000 0.125000 0.062500
0.000000 0.187500 0.068750
0.059375 0.187500 0.068750
0.118750 0.187500 0.068750
0.178125 0.187500 0.068750
0.237500 0.187500 0.068750
0.296875 0.187500 0.068750
0.356250 0.187500 0.068750
0.415625 0.187500 0.068750
0.500000 0.187500 0.062500
0.562500 0.187500 0.062500
0.625000 0.187500 0.062500
0.687500 0.187500 0.062500
0.750000 0.187500 0.062500
0.812500 0.187500 0.062500
0.875000 0.187500 0.062500
0.937500 0.187500 0.062500
1.000000 0.187500 0.062500
0.000000 0.250000 0.068750
0.059375 0.250000 0.068750
0.118750 0.250000 0.068750
0.178125 0.250000 0.068750
0.237500 0.250000 0.068750
0.296875 0.250000 0.068750
0.356250 0.250000 0.068750
0.415625 0.250000 0.068750
0.500000 0.250000 0.062500
0.562500 0.250000 0.062500
0.625000 0.250000 0.062500
0.687500 0.250000 0.062500
0.750000 0.250000 0.062500
0.812500 0.250000 0.062500
0.875000 0.250000 0.062500
0.937500 0.250000 0.062500
1.000000 0.250000 0.062500
0.000000 0.312500 0.068750
0.059375 0.312500 0.068750
0.118750 0.312500 0.068750
0.178125 0.312500 0.068750
0.237500 0.312500 0.068750
0.296875 0.312500 0.068750
0.356250 0.312500 0.068750
0.415625 0.312500 0.068750
0.500000 0.312500 0.062500
0.562500 0.312500 0.062500
0.625000 0.312500 0.062500
0.687500 0.312500 0.062500
0.750000 0.312500 0.062500
0.812500 0.312500 0.062500
0.875000 0.312500 0.062500
0.937500 0.312500 0.062500
1.000000 0.312500 0.062500
0.000000 0.375000 0.068750
0.059375 0.375000 0.068750
0.118750 0.375000 0.068750
0.178125 0.375000 0.068750
0.237500 0.375000 0.068750
0.296875 0.375000 0.068750
0.356250 0.375000 0.068750
0.415625 0.375000 0.068750
0.500000 0.375000 0.062500
0.562500 0.375000 0.062500
0.625000 0.375000 0.062500
0.687500 0.375000 0.062500
0.750000 0.375000 0.062500
0.812500 0.375000 0.062500
0.875000 0.375000 0.062500
0.937500 0.375000 0.062500
1.000000 0.375000 0.062500
0.000000 0.437500 0.068750
0.059375 0.437500 0.068750
0.118750 0.437500 0.068750
0.178125 0.437500 0.068750
0.237500 0.437500 0.068750
0.296875 0.437500 0.068750
0.356250 0.437500 0.068750
0.415625 0.437500 0.068750
0.500000 0.437500 0.062500
0.562500 0.437500 0.062500
0.625000 0.437500 0.062500
0.687500 0.437500 0.062500
0.750000 0.437500 0.062500
0.812500 0.437500 0.062500
0.875000 0.437500 0.062500
0.937500 0.437500 0.062500
1.000000 0.437500 0.062500
0.000000 0.500000 0.068750
0.059375 0.500000 0.068750
0.118750 0.500000 0.068750
0.178125 0.500000 0.068750
0.237500 0.500000 0.068750
0.296875 0.500000 0.068750
0.356250 0.500000 0.068750
0.415625 0.500000 0.068750
0.500000 0.500000 0.062500
0.562500 0.500000 0.062500
0.625000 0.500000 0.062500
0.687500 0.500000 0.062500
0.750000 0.500000 0.062500
0.812500 0.500000 0.062500
0.875000 0.500000 0.062500
0.937500 0.500000 0.062500
1.000000 0.500000 0.062500
0.000000 0.562500 0.068750
0.059375 0.562500 0.068750
0.118750 0.562500 0.068750
0.178125 0.562500 0.068750
0.237500 0.562500 0.068750
0.296875 0.562500 0.068750
0.356250 0.562500 0.068750
0.415625 0.562500 0.068750
0.500000 0.562500 0.062500
0.562500 0.562500 0.062500
0.625000 0.562500 0.062500
0.687500 0.562500 0.062500
0.750000 0.562500 0.062500
0.812500 0.562500 0.062500
0.875000 0.562500 0.062500
0.937500 0.562500 0.062500
1.000000 0.562500 0.062500
0.000000 0.625000 0.068750
0.059375 0.625000 0.068750
0.118750 0.625000 0.068750
0.178125 0.625000 0.068750
0.237500 0.625000 0.068750
0.296875 0.625000 0.068750
0.356250 0.625000 0.068750
0.415625 0.625000 0.068750
0.500000 0.625000 0.062500
0.562500 0.625000 0.062500
0.625000 0.625000 0.062500
0.687500 0.625000 0.062500
0.750000 0.625000 0.062500
0.812500 0.625000 0.062500
0.875000 0.625000 0.062500
0.937500 0.625000 0.062500
1.000000 0.625000 0.062500
0.000000 0.687500 0.068750
0.059375 0.687500 0.068750
0.118750 0.687500 0.068750
0.178125 0.687500 0.068750
0.237500 0.687500 0.068750
0.296875 0.687500 0.068750
0.356250 0.687500 0.068750
0.415625 0.687500 0.068750
0.500000 0.687500 0.062500
0.562500 0.687500 0.062500
0.625000 0.687500 0.062500
0.687500 0.687500 0.062500
0.750000 0.687500 0.062500
0.812500 0.687500 0.062500
0.875000 0.687500 0.062500
0.937500 0.687500 0.062500
1.000000 0.687500 0.062500
0.000000 0.750000 0.068750
0.059375 0.750000 0.068750
0.118750 0.750000 0.068750
0.178125 0.750000 0.068750
0.237500 0.750000 0.068750
0.296875 0.750000 0.068750
0.356250 0.750000 0.068750
0.415625 0.750000 0.068750
0.500000 0.750000 0.062500
0.562500 0.750000 0.062500
0.625000 0.750000 0.062500
0.687500 0.750000 0.062500
0.750000 0.750000 0.062500
0.812500 0.750000 0.062500
0.875000 0.750000 0.062500
0.937500 0.750000 0.062500
1.000000 0.750000 0.062500
0.000000 0.812500 0.068750
0.059375 0.812500 0.068750
0.118750 0.812500 0.068750
0.178125 0.812500 0.068750
0.237500 0.812500 0.068750
0.296875 0.812500 0.068750
0.356250 0.812500 0.068750
0.415625 0.812500 0.068750
0.500000 0.812500 0.062500
0.562500 0.812500 0.062500
0.625000 0.812500 0.062500
0.687500 0.812500 0.062500
0.750000 0.812500 0.062500
0.812500 0.812500 0.062500
0.875000 0.812500 0.062500
0.937500 0.812500 0.062500
1.000000 0.812500 0.062500
0.000000 0.875000 0.068750
0.059375 0.875000 0.068750
0.118750 0.875000 0.068750
0.178125 0.875000 0.068750
0.237500 0.875000 0.068750
0.296875 0.875000 0.068750
0.356250 0.875000 0.068750
0.415625 0.875000 0.068750
0.500000 0.875000 0.062500
0.562500 0.875000 0.062500
0.625000 0.875000 0.062500
0.687500 0.875000 0.062500
0.750000 0.875000 0.062500
0.812500 0.875000 0.062500
0.875000 0.875000 0.062500
0.937500 0.875000 0.062500
1.000000 0.875000 0.062500
0.000000 0.937500 0.068750
0.059375 0.937500 0.068750
0.118750 0.937500 0.068750
0.178125 0.937500 0.068750
0.237500 0.937500 0.068750
0.296875 0.937500 0.068750
0.356250 0.937500 0.068750
0.415625 0.937500 0.068750
0.500000 0.937500 0.062500
0.562500 0.937500 0.062500
0.625000 0.937500 0.062500
0.687500 0.937500 0.062500
0.750000 0.937500 0.062500
0.812500 0.937500 0.062500
0.875000 0.937500 0.062500
0.937500 0.937500 0.062500
1.000000 0.937500 0.062500
0.000000 1.000000 0.068750
0.059375 1.000000 0.068750
0.118750 1.000000 0.068750
0.178125 1.000000 0.068750
0.237500 1.000000 0.068750
0.296875 1.000000 0.068750
0.356250 1.000000 0.068750
0.415625 1.000000 0.068750
0.500000 1.000000 0.062500
0.562500 1.000000 0.062500
0.625000 1.000000 0.062500
0.687500 1.000000 0.062500
0.750000 1.000000 0.062500
0.812500 1.000000 0.062500
0.875000 1.000000 0.062500
0.937500 1.000000 0.062500
1.000000 1.000000 0.062500
0.000000 0.000000 0.137500
0.059375 0.000000 0.137500
0.118750 0.000000 0.137500
0.178125 0.000000 0.137500
0.237500 0.000000 0.137500
0.296875 0.000000 0.137500
0.356250 0.000000 0.137500
0.415625 0.000000 0.137500
0.500000 0.000000 0.125000
0.562500 0.000000 0.125000
0.625000 0.000000 0.125000
0.687500 0.000000 0.125000
0.750000 0.000000 0.125000
0.812500 0.000000 0.125000
0.875000 0.000000 0.125000
0.937500 0.000000 0.125000
1.000000 0.000000 0.125000
0.000000 0.062500 0.137500
0.059375 0.062500 0.137500
0.118750 0.062500 0.137500
0.178125 0.062500 0.137500
0.237500 0.062500 0.137500
0.296875 0.062500 0.137500
0.356250 0.062500 0.137500
0.415625 0.062500 0.137500
0.500000 0.062500 0.125000
0.562500 0.062500 0.125000
0.625000 0.062500 0.125000
0.687500 0.062500 0.125000
0.750000 0.062500 0.125000
0.812500 0.062500 0.125000
0.875000 0.062500 0.125000
0.937500 0.062500 0.125000
1.000000 0.062500 0.125000
0.000000 0.125000 0.137500
0.059375 0.125000 0.137500
0.118750 0.125000 0.137500
0.178125 0.125000 0.137500
0.237500 0.125000 0.137500
0.296875 0.125000 0.137500
0.356250 0.125000 0.137500
0.415625 0.125000 0.137500
0.500000 0.125000 0.125000
0.562500 0.125000 0.125000
0.625000 0.125000 0.125000
0.687500 0.125000 0.125000
0.750000 0.125000 0.125000
0.812500 0.125000 0.125000
0.875000 0.125000 0.125000
0.937500 0.125000 0.125000
1.000000 0.125000 0.125000
0.000000 0.187500 0.137500
0.059375 0.187500 0.137500
0.118750 0.187500 0.137500
0.178125 0.187500 0.137500
0.237500 0.187500 0.137500
0.296875 0.187500 0.137500
0.356250 0.187500 0.137500
0.415625 0.187500 0.137500
0.500000 0.187500 0.125000
0.562500 0.187500 0.125000
0.625000 0.187500 0.125000
0.687500 0.187500 0.125000
0.750000 0.187500 0.125000
0.812500 0.187500 0.125000
0.875000 0.187500 0.125000
0.937500 0.187500 0.125000
1.000000 0.187500 0.125000
0.000000 0.250000 0.137500
0.059375 0.250000 0.137500
0.118750 0.250000 0.137500
0.178125 0.250000 0.137500
0.237500 0.250000 0.137500
0.296875 0.250000 0.137500
0.356250 0.250000 0.137500
0.415625 0.250000 0.137500
0.500000 0.250000 0.125000
0.562500 0.250000 0.125000
0.625000 0.250000 0.125000
0.687500 0.250000 0.125000
0.750000 0.250000 0.125000
0.812500 0.250000 0.125000
0.875000 0.250000 0.125000
0.937500 0.250000 0.125000
1.000000 0.250000 0.125000
0.000000 0.312500 0.137500
0.059375 0.312500 0.137500
0.118750 0.312500 0.137500
0.178125 0.312500 0.137500
0.237500 0.312500 0.137500
0.296875 0.312500 0.137500
0.356250 0.312500 0.137500
0.415625 0.312500 0.137500
0.500000 0.312500 0.125000
0.562500 0.312500 0.125000
0.625000 0.312500 0.125000
0.687500 0.312500 0.125000
0.750000 0.312500 0.125000
0.812500 0.312500 0.125000
0.875000 0.312500 0.125000
0.937500 0.312500 0.125000
1.000000 0.312500 0.125000
0.000000 0.375000 0.137500
0.059375 0.375000 0.137500
0.118750 0.375000 0.137500
0.178125 0.375000 0.137500
0.237500 0.375000 0.137500
0.296875 0.375000 0.137500
0.356250 0.375000 0.137500
0.415625 0.375000 0.137500
0.500000 0.375000 0.125000
0.562500 0.375000 0.125000
0.625000 0.375000 0.125000
0.687500 0.375000 0.125000
0.750000 0.375000 0.125000
0.812500 0.375000 0.125000
0.875000 0.375000 0.125000
0.937500 0.375000 0.125000
1.000000 0.375000 0.125000
0.000000 0.437500 0.137500
0.059375 0.437500 0.137500
0.118750 0.437500 0.137500
0.178125 0.437500 0.137500
0.237500 0.437500 0.137500
0.296875 0.437500 0.137500
0.356250 0.437500 0.137500
0.415625 0.437500 0.137500
0.500000 0.437500 0.125000
0.562500 0.437500 0.125000
0.625000 0.437500 0.125000
0.687500 0.437500 0.125000
0.750000 0.437500 0.125000
0.812500 0.437500 0.125000
0.875000 0.437500 0.125000
0.937500 0.437500 0.125000
1.000000 0.437500 0.125000
0.000000 0.500000 0.137500
0.059375 0.500000 0.137500
0.118750 0.500000 0.137500
0.178125 0.500000 0.137500
0.237500 0.500000 0.137500
0.296875 0.500000 0.137500
0.356250 0.500000 0.137500
0.415625 0.500000 0.137500
0.500000 0.500000 0.125000
0.562500 0.500000 0.125000
0.625000 0.500000 0.125000
0.687500 0.500000 0.125000
0.750000 0.500000 0.125000
0.812500 0.500000 0.125000
0.875000 0.500000 0.125000
0.937500 0.500000 0.125000
1.000000 0.500000 0.125000
0.000000 0.562500 0.137500
0.059375 0.562500 0.137500
0.118750 0.562500 0.137500
0.178125 0.562500 0.137500
0.237500 0.562500 0.137500
0.296875 0.562500 0.137500
0.356250 0.562500 0.137500
0.415625 0.562500 0.137500
0.500000 0.562500 0.125000
0.562500 0.562500 0.125000
0.625000 0.562500 0.125000
0.687500 0.562500 0.125000
0.750000 0.562500 0.125000
0.812500 0.562500 0.125000
0.875000 0.562500 0.125000
0.937500 0.562500 0.125000
1.000000 0.562500 0.125000
0.000000 0.625000 0.137500
0.059375 0.625000 0.137500
0.118750 0.625000 0.137500
0.178125 0.625000 0.137500
0.237500 0.625000 0.137500
0.296875 0.625000 0.137500
0.356250 0.625000 0.137500
0.415625 0.625000 0.137500
0.500000 0.625000 0.125000
0.562500 0.625000 0.125000
0.625000 0.625000 0.125000
0.687500 0.625000 0.125000
0.750000 0.625000 0.125000
0.812500 0.625000 0.125000
0.875000 0.625000 0.125000
0.937500 0.625000 0.125000
1.000000 0.625000 0.125000
0.000000 0.687500 0.137500
0.059375 0.687500 0.137500
0.118750 0.687500 0.137500
0.178125 0.687500 0.137500
0.237500 0.687500 0.137500
0.296875 0.687500 0.137500
0.356250 0.687500 0.137500
0.415625 0.687500 0.137500
0.500000 0.687500 0.125000
0.562500 0.687500 0.125000
0.625000 0.687500 0.125000
0.687500 0.687500 0.125000
0.750000 0.687500 0.125000
0.812500 0.687500 0.125000
0.875000 0.687500 0.125000
0.937500 0.687500 0.125000
1.000000 0.687500 0.125000
0.000000 0.750000 0.137500
0.059375 0.750000 0.137500
0.118750 0.750000 0.137500
0.178125 0.750000 0.137500
0.237500 0.750000 0.137500
0.296875 0.750000 0.137500
0.356250 0.750000 0.137500
0.415625 0.750000 0.137500
0.500000 0.750000 0.125000
0.562500 0.750000 0.125000
0.625000 0.750000 0.125000
0.687500 0.750000 0.125000
0.750000 0.750000 0.125000
0.812500 0.750000 0.125000
0.875000 0.750000 0.125000
0.937500 0.750000 0.125000
1.000000 0.750000 0.125000
0.000000 0.812500 0.137500
0.059375 0.812500 0.137500
0.118750 0.812500 0.137500
0.178125 0.812500 0.137500
0.237500 0.812500 0.137500
0.296875 0.812500 0.137500
0.356250 0.812500 0.137500
0.415625 0.812500 0.137500
0.500000 0.812500 0.125000
0.562500 0.812500 0.125000
0.625000 0.812500 0.125000
0.687500 0.812500 0.125000
0.750000 0.812500 0.125000
0.812500 0.812500 0.125000
0.875000 0.812500 0.125000
0.937500 0.812500 0.125000
1.000000 0.812500 0.125000
0.000000 0.875000 0.137500
0.059375 0.875000 0.137500
0.118750 0.875000 0.137500
0.178125 0.875000 0.137500
0.237500 0.875000 0.137500
0.296875 0.875000 0.137500
0.356250 0.875000 0.137500
0.415625 0.875000 0.137500
0.500000 0.875000 0.125000
0.562500 0.875000 0.125000
0.625000 0.875000 0.125000
0.687500 0.875000 0.125000
0.750000 0.875000 0.125000
0.812500 0.875000 0.125000
0.875000 0.875000 0.125000
0.937500 0.875000 0.125000
1.000000 0.875000 0.125000
0.000000 0.937500 0.137500
0.059375 0.937500 0.137500
0.118750 0.937500 0.137500
0.178125 0.937500 0.137500
0.237500 0.937500 0.137500
0.296875 0.937500 0.137500
0.356250 0.937500 0.137500
0.415625 0.937500 0.137500
0.500000 0.937500 0.125000
0.562500 0.937500 0.125000
0.625000 0.937500 0.125000
0.687500 0.937500 0.125000
0.750000 0.937500 0.125000
0.812500 0.937500 0.125000
0.875000 0.937500 0.125000
0.937500 0.937500 0.125000
1.000000 0.937500 0.125000
0.000000 1.000000 0.137500
0.059375 1.000000 0.137500
0.118750 1.000000 0.137500
0.178125 1.000000 0.137500
0.237500 1.000000 0.137500
0.296875 1.000000 0.137500
0.356250 1.000000 0.137500
0.415625 1.000000 0.137500
0.500000 1.000000 0.125000
0.562500 1.000000 0.125000
0.625000 1.000000 0.125000
0.687500 1.000000 0.125000
0.750000 1.000000 0.125000
0.812500 1.000000 0.125000
0.875000 1.000000 0.125000
0.937500 1.000000 0.125000
1.000000 1.000000 0.125000
0.000000 0.000000 0.206250
0.059375 0.000000 0.206250
0.118750 0.000000 0.206250
0.178125 0.000000 0.206250
0.237500 0.000000 0.206250
0.296875 0.000000 0.206250
0.356250 0.000000 0.206250
0.415625 0.000000 0.206250
0.500000 0.000000 0.187500
0.562500 0.000000 0.187500
0.625000 0.000000 0.187500
0.687500 0.000000 0.187500
0.750000 0.000000 0.187500
0.812500 0.000000 0.187500
0.875000 0.000000 0.187500
0.937500 0.000000 0.187500
1.000000 0.000000 0.187500
0.000000 0.062500 0.206250
0.059375 0.062500 0.206250
0.118750 0.062500 0.206250
