src/assets/luts/dramatic_black.cube
TITLE "Dramatic Black"
LUT_3D_SIZE 17
0.000000 0.000000 0.000000
0.006250 0.000000 0.000000
0.062500 0.000000 0.000000
0.118750 0.000000 0.000000
0.175000 0.000000 0.000000
0.231250 0.000000 0.000000
0.287500 0.000000 0.000000
0.343750 0.000000 0.000000
0.400000 0.000000 0.000000
0.456250 0.000000 0.000000
0.512500 0.000000 0.000000
0.568750 0.000000 0.000000
0.625000 0.000000 0.000000
0.681250 0.000000 0.000000
0.737500 0.000000 0.000000
0.793750 0.000000 0.000000
0.850000 0.000000 0.000000
0.000000 0.006250 0.000000
0.006250 0.006250 0.000000
0.062500 0.006250 0.000000
0.118750 0.006250 0.000000
0.175000 0.006250 0.000000
0.231250 0.006250 0.000000
0.287500 0.006250 0.000000
0.343750 0.006250 0.000000
0.400000 0.006250 0.000000
0.456250 0.006250 0.000000
0.512500 0.006250 0.000000
0.568750 0.006250 0.000000
0.625000 0.006250 0.000000
0.681250 0.006250 0.000000
0.737500 0.006250 0.000000
0.793750 0.006250 0.000000
0.850000 0.006250 0.000000
0.000000 0.062500 0.000000
0.006250 0.062500 0.000000
0.062500 0.062500 0.000000
0.118750 0.062500 0.000000
0.175000 0.062500 0.000000
0.231250 0.062500 0.000000
0.287500 0.062500 0.000000
0.343750 0.062500 0.000000
0.400000 0.062500 0.000000
0.456250 0.062500 0.000000
0.512500 0.062500 0.000000
0.568750 0.062500 0.000000
0.625000 0.062500 0.000000
0.681250 0.062500 0.000000
0.737500 0.062500 0.000000
0.793750 0.062500 0.000000
0.850000 0.062500 0.000000
0.000000 0.118750 0.000000
0.006250 0.118750 0.000000
0.062500 0.118750 0.000000
0.118750 0.118750 0.000000
0.175000 0.118750 0.000000
0.231250 0.118750 0.000000
0.287500 0.118750 0.000000
0.343750 0.118750 0.000000
0.400000 0.118750 0.000000
0.456250 0.118750 0.000000
0.512500 0.118750 0.000000
0.568750 0.118750 0.000000
0.625000 0.118750 0.000000
0.681250 0.118750 0.000000
0.737500 0.118750 0.000000
0.793750 0.118750 0.000000
0.850000 0.118750 0.000000
0.000000 0.175000 0.000000
0.006250 0.175000 0.000000
0.062500 0.175000 0.000000
0.118750 0.175000 0.000000
0.175000 0.175000 0.000000
0.231250 0.175000 0.000000
0.287500 0.175000 0.000000
0.343750 0.175000 0.000000
0.400000 0.175000 0.000000
0.456250 0.175000 0.000000
0.512500 0.175000 0.000000
0.568750 0.175000 0.000000
0.625000 0.175000 0.000000
0.681250 0.175000 0.000000
0.737500 0.175000 0.000000
0.793750 0.175000 0.000000
0.850000 0.175000 0.000000
0.000000 0.231250 0.000000
0.006250 0.231250 0.000000
0.062500 0.231250 0.000000
0.118750 0.231250 0.000000
0.175000 0.231250 0.000000
0.231250 0.231250 0.000000
0.287500 0.231250 0.000000
0.343750 0.231250 0.000000
0.400000 0.231250 0.000000
0.456250 0.231250 0.000000
0.512500 0.231250 0.000000
0.568750 0.231250 0.000000
0.625000 0.231250 0.000000
0.681250 0.231250 0.000000
0.737500 0.231250 0.000000
0.793750 0.231250 0.000000
0.850000 0.231250 0.000000
0.000000 0.287500 0.000000
0.006250 0.287500 0.000000
0.062500 0.287500 0.000000
0.118750 0.287500 0.000000
0.175000 0.287500 0.000000
0.231250 0.287500 0.000000
0.287500 0.287500 0.000000
0.343750 0.287500 0.000000
0.400000 0.287500 0.000000
0.456250 0.287500 0.000000
0.512500 0.287500 0.000000
0.568750 0.287500 0.000000
0.625000 0.287500 0.000000
0.681250 0.287500 0.000000
0.737500 0.287500 0.000000
0.793750 0.287500 0.000000
0.850000 0.287500 0.000000
0.000000 0.343750 0.000000
0.006250 0.343750 0.000000
0.062500 0.343750 0.000000
0.118750 0.343750 0.000000
0.175000 0.343750 0.000000
0.231250 0.343750 0.000000
0.287500 0.343750 0.000000
0.343750 0.343750 0.000000
0.400000 0.343750 0.000000
0.456250 0.343750 0.000000
0.512500 0.343750 0.000000
0.568750 0.343750 0.000000
0.625000 0.343750 0.000000
0.681250 0.343750 0.000000
0.737500 0.343750 0.000000
0.793750 0.343750 0.000000
0.850000 0.343750 0.000000
0.000000 0.400000 0.000000
0.006250 0.400000 0.000000
0.062500 0.400000 0.000000
0.118750 0.400000 0.000000
0.175000 0.400000 0.000000
0.231250 0.400000 0.000000
0.287500 0.400000 0.000000
0.343750 0.400000 0.000000
0.400000 0.400000 0.000000
0.456250 0.400000 0.000000
0.512500 0.400000 0.000000
0.568750 0.400000 0.000000
0.625000 0.400000 0.000000
0.681250 0.400000 0.000000
0.737500 0.400000 0.000000
0.793750 0.400000 0.000000
0.850000 0.400000 0.000000
0.000000 0.456250 0.000000
0.006250 0.456250 0.000000
0.062500 0.456250 0.000000
0.118750 0.456250 0.000000
0.175000 0.456250 0.000000
0.231250 0.456250 0.000000
0.287500 0.456250 0.000000
0.343750 0.456250 0.000000
0.400000 0.456250 0.000000
0.456250 0.456250 0.000000
0.512500 0.456250 0.000000
0.568750 0.456250 0.000000
0.625000 0.456250 0.000000
0.681250 0.456250 0.000000
0.737500 0.456250 0.000000
0.793750 0.456250 0.000000
0.850000 0.456250 0.000000
0.000000 0.512500 0.000000
0.006250 0.512500 0.000000
0.062500 0.512500 0.000000
0.118750 0.512500 0.000000
0.175000 0.512500 0.000000
0.231250 0.512500 0.000000
0.287500 0.512500 0.000000
0.343750 0.512500 0.000000
0.400000 0.512500 0.000000
0.456250 0.512500 0.000000
0.512500 0.512500 0.000000
0.568750 0.512500 0.000000
0.625000 0.512500 0.000000
0.681250 0.512500 0.000000
0.737500 0.512500 0.000000
0.793750 0.512500 0.000000
0.850000 0.512500 0.000000
0.000000 0.568750 0.000000
0.006250 0.568750 0.000000
0.062500 0.568750 0.000000
0.118750 0.568750 0.000000
0.175000 0.568750 0.000000
0.231250 0.568750 0.000000
0.287500 0.568750 0.000000
0.343750 0.568750 0.000000
0.400000 0.568750 0.000000
0.456250 0.568750 0.000000
0.512500 0.568750 0.000000
0.568750 0.568750 0.000000
0.625000 0.568750 0.000000
0.681250 0.568750 0.000000
0.737500 0.568750 0.000000
0.793750 0.568750 0.000000
0.850000 0.568750 0.000000
0.000000 0.625000 0.000000
0.006250 0.625000 0.000000
0.062500 0.625000 0.000000
0.118750 0.625000 0.000000
0.175000 0.625000 0.000000
0.231250 0.625000 0.000000
0.287500 0.625000 0.000000
0.343750 0.625000 0.000000
0.400000 0.625000 0.000000
0.456250 0.625000 0.000000
0.512500 0.625000 0.000000
0.568750 0.625000 0.000000
0.625000 0.625000 0.000000
0.681250 0.625000 0.000000
0.737500 0.625000 0.000000
0.793750 0.625000 0.000000
0.850000 0.625000 0.000000
0.000000 0.681250 0.000000
0.006250 0.681250 0.000000
0.062500 0.681250 0.000000
0.118750 0.681250 0.000000
0.175000 0.681250 0.000000
0.231250 0.681250 0.000000
0.287500 0.681250 0.000000
0.343750 0.681250 0.000000
0.400000 0.681250 0.000000
0.456250 0.681250 0.000000
0.512500 0.681250 0.000000
0.568750 0.681250 0.000000
0.625000 0.681250 0.000000
0.681250 0.681250 0.000000
0.737500 0.681250 0.000000
0.793750 0.681250 0.000000
0.850000 0.681250 0.000000
0.000000 0.737500 0.000000
0.006250 0.737500 0.000000
0.062500 0.737500 0.000000
0.118750 0.737500 0.000000
0.175000 0.737500 0.000000
0.231250 0.737500 0.000000
0.287500 0.737500 0.000000
0.343750 0.737500 0.000000
0.400000 0.737500 0.000000
0.456250 0.737500 0.000000
0.512500 0.737500 0.000000
0.568750 0.737500 0.000000
0.625000 0.737500 0.000000
0.681250 0.737500 0.000000
0.737500 0.737500 0.000000
0.793750 0.737500 0.000000
0.850000 0.737500 0.000000
0.000000 0.793750 0.000000
0.006250 0.793750 0.000000
0.062500 0.793750 0.000000
0.118750 0.793750 0.000000
0.175000 0.793750 0.000000
0.231250 0.793750 0.000000
0.287500 0.793750 0.000000
0.343750 0.793750 0.000000
0.400000 0.793750 0.000000
0.456250 0.793750 0.000000
0.512500 0.793750 0.000000
0.568750 0.793750 0.000000
0.625000 0.793750 0.000000
0.681250 0.793750 0.000000
0.737500 0.793750 0.000000
0.793750 0.793750 0.000000
0.850000 0.793750 0.000000
0.000000 0.850000 0.000000
0.006250 0.850000 0.000000
0.062500 0.850000 0.000000
0.118750 0.850000 0.000000
0.175000 0.850000 0.000000
0.231250 0.850000 0.000000
0.287500 0.850000 0.000000
0.343750 0.850000 0.000000
0.400000 0.850000 0.000000
0.456250 0.850000 0.000000
0.512500 0.850000 0.000000
0.568750 0.850000 0.000000
0.625000 0.850000 0.000000
0.681250 0.850000 0.000000
0.737500 0.850000 0.000000
0.793750 0.850000 0.000000
0.850000 0.850000 0.000000
0.000000 0.000000 0.006250
0.006250 0.000000 0.006250
0.062500 0.000000 0.006250
0.118750 0.000000 0.006250
0.175000 0.000000 0.006250
0.231250 0.000000 0.006250
0.287500 0.000000 0.006250
0.343750 0.000000 0.006250
0.400000 0.000000 0.006250
0.456250 0.000000 0.006250
0.512500 0.000000 0.006250
0.568750 0.000000 0.006250
0.625000 0.000000 0.006250
0.681250 0.000000 0.006250
0.737500 0.000000 0.006250
0.793750 0.000000 0.006250
0.850000 0.000000 0.006250
0.000000 0.006250 0.006250
0.006250 0.006250 0.006250
0.062500 0.006250 0.006250
0.118750 0.006250 0.006250
0.175000 0.006250 0.006250
0.231250 0.006250 0.006250
0.287500 0.006250 0.006250
0.343750 0.006250 0.006250
0.400000 0.006250 0.006250
0.456250 0.006250 0.006250
0.512500 0.006250 0.006250
0.568750 0.006250 0.006250
0.625000 0.006250 0.006250
0.681250 0.006250 0.006250
0.737500 0.006250 0.006250
0.793750 0.006250 0.006250
0.850000 0.006250 0.006250
0.000000 0.062500 0.006250
0.006250 0.062500 0.006250
0.062500 0.062500 0.006250
0.118750 0.062500 0.006250
0.175000 0.062500 0.006250
0.231250 0.062500 0.006250
0.287500 0.062500 0.006250
0.343750 0.062500 0.006250
0.400000 0.062500 0.006250
0.456250 0.062500 0.006250
0.512500 0.062500 0.006250
0.568750 0.062500 0.006250
0.625000 0.062500 0.006250
0.681250 0.062500 0.006250
0.737500 0.062500 0.006250
0.793750 0.062500 0.006250
0.850000 0.062500 0.006250
0.000000 0.118750 0.006250
0.006250 0.118750 0.006250
0.062500 0.118750 0.006250
0.118750 0.118750 0.006250
0.175000 0.118750 0.006250
0.231250 0.118750 0.006250
0.287500 0.118750 0.006250
0.343750 0.118750 0.006250
0.400000 0.118750 0.006250
0.456250 0.118750 0.006250
0.512500 0.118750 0.006250
0.568750 0.118750 0.006250
0.625000 0.118750 0.006250
0.681250 0.118750 0.006250
0.737500 0.118750 0.006250
0.793750 0.118750 0.006250
0.850000 0.118750 0.006250
0.000000 0.175000 0.006250
0.006250 0.175000 0.006250
0.062500 0.175000 0.006250
0.118750 0.175000 0.006250
0.175000 0.175000 0.006250
0.231250 0.175000 0.006250
0.287500 0.175000 0.006250
0.343750 0.175000 0.006250
0.400000 0.175000 0.006250
0.456250 0.175000 0.006250
0.512500 0.175000 0.006250
0.568750 0.175000 0.006250
0.625000 0.175000 0.006250
0.681250 0.175000 0.006250
0.737500 0.175000 0.006250
0.793750 0.175000 0.006250
0.850000 0.175000 0.006250
0.000000 0.231250 0.006250
0.006250 0.231250 0.006250
0.062500 0.231250 0.006250
0.118750 0.231250 0.006250
0.175000 0.231250 0.006250
0.231250 0.231250 0.006250
0.287500 0.231250 0.006250
0.343750 0.231250 0.006250
0.400000 0.231250 0.006250
0.456250 0.231250 0.006250
0.512500 0.231250 0.006250
0.568750 0.231250 0.006250
0.625000 0.231250 0.006250
0.681250 0.231250 0.006250
0.737500 0.231250 0.006250
0.793750 0.231250 0.006250
0.850000 0.231250 0.006250
0.000000 0.287500 0.006250
0.006250 0.287500 0.006250
0.062500 0.287500 0.006250
0.118750 0.287500 0.006250
0.175000 0.287500 0.006250
0.231250 0.287500 0.006250
0.287500 0.287500 0.006250
0.343750 0.287500 0.006250
0.400000 0.287500 0.006250
0.456250 0.287500 0.006250
0.512500 0.287500 0.006250
0.568750 0.287500 0.006250
0.625000 0.287500 0.006250
0.681250 0.287500 0.006250
0.737500 0.287500 0.006250
0.793750 0.287500 0.006250
0.850000 0.287500 0.006250
0.000000 0.343750 0.006250
0.006250 0.343750 0.006250
0.062500 0.343750 0.006250
0.118750 0.343750 0.006250
0.175000 0.343750 0.006250
0.231250 0.343750 0.006250
0.287500 0.343750 0.006250
0.343750 0.343750 0.006250
0.400000 0.343750 0.006250
0.456250 0.343750 0.006250
0.512500 0.343750 0.006250
0.568750 0.343750 0.006250
0.625000 0.343750 0.006250
0.681250 0.343750 0.006250
0.737500 0.343750 0.006250
0.793750 0.343750 0.006250
0.850000 0.343750 0.006250
0.000000 0.400000 0.006250
0.006250 0.400000 0.006250
0.062500 0.400000 0.006250
0.118750 0.400000 0.006250
0.175000 0.400000 0.006250
0.231250 0.400000 0.006250
0.287500 0.400000 0.006250
0.343750 0.400000 0.006250
0.400000 0.400000 0.006250
0.456250 0.400000 0.006250
0.512500 0.400000 0.006250
0.568750 0.400000 0.006250
0.625000 0.400000 0.006250
0.681250 0.400000 0.006250
0.737500 0.400000 0.006250
0.793750 0.400000 0.006250
0.850000 0.400000 0.006250
0.000000 0.456250 0.006250
0.006250 0.456250 0.006250
0.062500 0.456250 0.006250
0.118750 0.456250 0.006250
0.175000 0.456250 0.006250
0.231250 0.456250 0.006250
0.287500 0.456250 0.006250
0.343750 0.456250 0.006250
0.400000 0.456250 0.006250
0.456250 0.456250 0.006250
0.512500 0.456250 0.006250
0.568750 0.456250 0.006250
0.625000 0.456250 0.006250
0.681250 0.456250 0.006250
0.737500 0.456250 0.006250
0.793750 0.456250 0.006250
0.850000 0.456250 0.006250
0.000000 0.512500 0.006250
0.006250 0.512500 0.006250
0.062500 0.512500 0.006250
0.118750 0.512500 0.006250
0.175000 0.512500 0.006250
0.231250 0.512500 0.006250
0.287500 0.512500 0.006250
0.343750 0.512500 0.006250
0.400000 0.512500 0.006250
0.456250 0.512500 0.006250
0.512500 0.512500 0.006250
0.568750 0.512500 0.006250
0.625000 0.512500 0.006250
0.681250 0.512500 0.006250
0.737500 0.512500 0.006250
0.793750 0.512500 0.006250
0.850000 0.512500 0.006250
0.000000 0.568750 0.006250
0.006250 0.568750 0.006250
0.062500 0.568750 0.006250
0.118750 0.568750 0.006250
0.175000 0.568750 0.006250
0.231250 0.568750 0.006250
0.287500 0.568750 0.006250
0.343750 0.568750 0.006250
0.400000 0.568750 0.006250
0.456250 0.568750 0.006250
0.512500 0.568750 0.006250
0.568750 0.568750 0.006250
0.625000 0.568750 0.006250
0.681250 0.568750 0.006250
0.737500 0.568750 0.006250
0.793750 0.568750 0.006250
0.850000 0.568750 0.006250
0.000000 0.625000 0.006250
0.006250 0.625000 0.006250
0.062500 0.625000 0.006250
0.118750 0.625000 0.006250
0.175000 0.625000 0.006250
0.231250 0.625000 0.006250
0.287500 0.625000 0.006250
0.343750 0.625000 0.006250
0.400000 0.625000 0.006250
0.456250 0.625000 0.006250
0.512500 0.625000 0.006250
0.568750 0.625000 0.006250
0.625000 0.625000 0.006250
0.681250 0.625000 0.006250
0.737500 0.625000 0.006250
0.793750 0.625000 0.006250
0.850000 0.625000 0.006250
0.000000 0.681250 0.006250
0.006250 0.681250 0.006250
0.062500 0.681250 0.006250
0.118750 0.681250 0.006250
0.175000 0.681250 0.006250
0.231250 0.681250 0.006250
0.287500 0.681250 0.006250
0.343750 0.681250 0.006250
0.400000 0.681250 0.006250
0.456250 0.681250 0.006250
0.512500 0.681250 0.006250
0.568750 0.681250 0.006250
0.625000 0.681250 0.006250
0.681250 0.681250 0.006250
0.737500 0.681250 0.006250
0.793750 0.681250 0.006250
0.850000 0.681250 0.006250
0.000000 0.737500 0.006250
0.006250 0.737500 0.006250
0.062500 0.737500 0.006250
0.118750 0.737500 0.006250
0.175000 0.737500 0.006250
0.231250 0.737500 0.006250
0.287500 0.737500 0.006250
0.343750 0.737500 0.006250
0.400000 0.737500 0.006250
0.456250 0.737500 0.006250
0.512500 0.737500 0.006250
0.568750 0.737500 0.006250
0.625000 0.737500 0.006250
0.681250 0.737500 0.006250
0.737500 0.737500 0.006250
0.793750 0.737500 0.006250
0.850000 0.737500 0.006250
0.000000 0.793750 0.006250
0.006250 0.793750 0.006250
0.062500 0.793750 0.006250
0.118750 0.793750 0.006250
0.175000 0.793750 0.006250
0.231250 0.793750 0.006250
0.287500 0.793750 0.006250
0.343750 0.793750 0.006250
0.400000 0.793750 0.006250
0.456250 0.793750 0.006250
0.512500 0.793750 0.006250
0.568750 0.793750 0.006250
0.625000 0.793750 0.006250
0.681250 0.793750 0.006250
0.737500 0.793750 0.006250
0.793750 0.793750 0.006250
0.850000 0.793750 0.006250
0.000000 0.850000 0.006250
0.006250 0.850000 0.006250
0.062500 0.850000 0.006250
0.118750 0.850000 0.006250
0.175000 0.850000 0.006250
0.231250 0.850000 0.006250
0.287500 0.850000 0.006250
0.343750 0.850000 0.006250
0.400000 0.850000 0.006250
0.456250 0.850000 0.006250
0.512500 0.850000 0.006250
0.568750 0.850000 0.006250
0.625000 0.850000 0.006250
0.681250 0.850000 0.006250
0.737500 0.850000 0.006250
0.793750 0.850000 0.006250
0.850000 0.850000 0.006250
0.000000 0.000000 0.062500
0.006250 0.000000 0.062500
0.062500 0.000000 0.062500
0.118750 0.000000 0.062500
0.175000 0.000000 0.062500
0.231250 0.000000 0.062500
0.287500 0.000000 0.062500
0.343750 0.000000 0.062500
0.400000 0.000000 0.062500
0.456250 0.000000 0.062500
0.512500 0.000000 0.062500
0.568750 0.000000 0.062500
0.625000 0.000000 0.062500
0.681250 0.000000 0.062500
0.737500 0.000000 0.062500
0.793750 0.000000 0.062500
0.850000 0.000000 0.062500
0.000000 0.006250 0.062500
0.006250 0.006250 0.062500
0.062500 0.006250 0.062500
0.118750 0.006250 0.062500
0.175000 0.006250 0.062500
0.231250 0.006250 0.062500
0.287500 0.006250 0.062500
0.343750 0.006250 0.062500
0.400000 0.006250 0.062500
0.456250 0.006250 0.062500
0.512500 0.006250 0.062500
0.568750 0.006250 0.062500
0.625000 0.006250 0.062500
0.681250 0.006250 0.062500
0.737500 0.006250 0.062500
0.793750 0.006250 0.062500
0.850000 0.006250 0.062500
0.000000 0.062500 0.062500
0.006250 0.062500 0.062500
0.062500 0.062500 0.062500
0.118750 0.062500 0.062500
0.175000 0.062500 0.062500
0.231250 0.062500 0.062500
0.287500 0.062500 0.062500
0.343750 0.062500 0.062500
0.400000 0.062500 0.062500
0.456250 0.062500 0.062500
0.512500 0.062500 0.062500
0.568750 0.062500 0.062500
0.625000 0.062500 0.062500
0.681250 0.062500 0.062500
0.737500 0.062500 0.062500
0.793750 0.062500 0.062500
0.850000 0.062500 0.062500
0.000000 0.118750 0.062500
0.006250 0.118750 0.062500
0.062500 0.118750 0.062500
0.118750 0.118750 0.062500
0.175000 0.118750 0.062500
0.231250 0.118750 0.062500
0.287500 0.118750 0.062500
0.343750 0.118750 0.062500
0.400000 0.118750 0.062500
0.456250 0.118750 0.062500
0.512500 0.118750 0.062500
0.568750 0.118750 0.062500
0.625000 0.118750 0.062500
0.681250 0.118750 0.062500
0.737500 0.118750 0.062500
0.793750 0.118750 0.062500
0.850000 0.118750 0.062500
0.000000 0.175000 0.062500
0.006250 0.175000 0.062500
0.062500 0.175000 0.062500
0.118750 0.175000 0.062500
0.175000 0.175000 0.062500
0.231250 0.175000 0.062500
0.287500 0.175000 0.062500
0.343750 0.175000 0.062500
0.400000 0.175000 0.062500
0.456250 0.175000 0.062500
0.512500 0.175000 0.062500
0.568750 0.175000 0.062500
0.625000 0.175000 0.062500
0.681250 0.175000 0.062500
0.737500 0.175000 0.062500
0.793750 0.175000 0.062500
0.850000 0.175000 0.062500
0.000000 0.231250 0.062500
0.006250 0.231250 0.062500
0.062500 0.231250 0.062500
0.118750 0.231250 0.062500
0.175000 0.231250 0.062500
0.231250 0.231250 0.062500
0.287500 0.231250 0.062500
0.343750 0.231250 0.062500
0.400000 0.231250 0.062500
0.456250 0.231250 0.062500
0.512500 0.231250 0.062500
0.568750 0.231250 0.062500
0.625000 0.231250 0.062500
0.681250 0.231250 0.062500
0.737500 0.231250 0.062500
0.793750 0.231250 0.062500
0.850000 0.231250 0.062500
0.000000 0.287500 0.062500
0.006250 0.287500 0.062500
0.062500 0.287500 0.062500
0.118750 0.287500 0.062500
0.175000 0.287500 0.062500
0.231250 0.287500 0.062500
0.287500 0.287500 0.062500
0.343750 0.287500 0.062500
0.400000 0.287500 0.062500
0.456250 0.287500 0.062500
0.512500 0.287500 0.062500
0.568750 0.287500 0.062500
0.625000 0.287500 0.062500
0.681250 0.287500 0.062500
0.737500 0.287500 0.062500
0.793750 0.287500 0.062500
0.850000 0.287500 0.062500
0.000000 0.343750 0.062500
0.006250 0.343750 0.062500
0.062500 0.343750 0.062500
0.118750 0.343750 0.062500
0.175000 0.343750 0.062500
0.231250 0.343750 0.062500
0.287500 0.343750 0.062500
0.343750 0.343750 0.062500
0.400000 0.343750 0.062500
0.456250 0.343750 0.062500
0.512500 0.343750 0.062500
0.568750 0.343750 0.062500
0.625000 0.343750 0.062500
0.681250 0.343750 0.062500
0.737500 0.343750 0.062500
0.793750 0.343750 0.062500
0.850000 0.343750 0.062500
0.000000 0.400000 0.062500
0.006250 0.400000 0.062500
0.062500 0.400000 0.062500
0.118750 0.400000 0.062500
0.175000 0.400000 0.062500
0.231250 0.400000 0.062500
0.287500 0.400000 0.062500
0.343750 0.400000 0.062500
0.400000 0.400000 0.062500
0.456250 0.400000 0.062500
0.512500 0.400000 0.062500
0.568750 0.400000 0.062500
0.625000 0.400000 0.062500
0.681250 0.400000 0.062500
0.737500 0.400000 0.062500
0.793750 0.400000 0.062500
0.850000 0.400000 0.062500
0.000000 0.456250 0.062500
0.006250 0.456250 0.062500
0.062500 0.456250 0.062500
0.118750 0.456250 0.062500
0.175000 0.456250 0.062500
0.231250 0.456250 0.062500
0.287500 0.456250 0.062500
0.343750 0.456250 0.062500
0.400000 0.456250 0.062500
0.456250 0.456250 0.062500
0.512500 0.456250 0.062500
0.568750 0.456250 0.062500
0.625000 0.456250 0.062500
0.681250 0.456250 0.062500
0.737500 0.456250 0.062500
0.793750 0.456250 0.062500
0.850000 0.456250 0.062500
0.000000 0.512500 0.062500
0.006250 0.512500 0.062500
0.062500 0.512500 0.062500
0.118750 0.512500 0.062500
0.175000 0.512500 0.062500
0.231250 0.512500 0.062500
0.287500 0.512500 0.062500
0.343750 0.512500 0.062500
0.400000 0.512500 0.062500
0.456250 0.512500 0.062500
0.512500 0.512500 0.062500
0.568750 0.512500 0.062500
0.625000 0.512500 0.062500
0.681250 0.512500 0.062500
0.737500 0.512500 0.062500
0.793750 0.512500 0.062500
0.850000 0.512500 0.062500
0.000000 0.568750 0.062500
0.006250 0.568750 0.062500
0.062500 0.568750 0.062500
0.118750 0.568750 0.062500
0.175000 0.568750 0.062500
0.231250 0.568750 0.062500
0.287500 0.568750 0.062500
0.343750 0.568750 0.062500
0.400000 0.568750 0.062500
0.456250 0.568750 0.062500
0.512500 0.568750 0.062500
0.568750 0.568750 0.062500
0.625000 0.568750 0.062500
0.681250 0.568750 0.062500
0.737500 0.568750 0.062500
0.793750 0.568750 0.062500
0.850000 0.568750 0.062500
0.000000 0.625000 0.062500
0.006250 0.625000 0.062500
0.062500 0.625000 0.062500
0.118750 0.625000 0.062500
0.175000 0.625000 0.062500
0.231250 0.625000 0.062500
0.287500 0.625000 0.062500
0.343750 0.625000 0.062500
0.400000 0.625000 0.062500
0.456250 0.625000 0.062500
0.512500 0.625000 0.062500
0.568750 0.625000 0.062500
0.625000 0.625000 0.062500
0.681250 0.625000 0.062500
0.737500 0.625000 0.062500
0.793750 0.625000 0.062500
0.850000 0.625000 0.062500
0.000000 0.681250 0.062500
0.006250 0.681250 0.062500
0.062500 0.681250 0.062500
0.118750 0.681250 0.062500
0.175000 0.681250 0.062500
0.231250 0.681250 0.062500
0.287500 0.681250 0.062500
0.343750 0.681250 0.062500
0.400000 0.681250 0.062500
0.456250 0.681250 0.062500
0.512500 0.681250 0.062500
0.568750 0.681250 0.062500
0.625000 0.681250 0.062500
0.681250 0.681250 0.062500
0.737500 0.681250 0.062500
0.793750 0.681250 0.062500
0.850000 0.681250 0.062500
0.000000 0.737500 0.062500
0.006250 0.737500 0.062500
0.062500 0.737500 0.062500
0.118750 0.737500 0.062500
0.175000 0.737500 0.062500
0.231250 0.737500 0.062500
0.287500 0.737500 0.062500
0.343750 0.737500 0.062500
0.400000 0.737500 0.062500
0.456250 0.737500 0.062500
0.512500 0.737500 0.062500
0.568750 0.737500 0.062500
0.625000 0.737500 0.062500
0.681250 0.737500 0.062500
0.737500 0.737500 0.062500
0.793750 0.737500 0.062500
0.850000 0.737500 0.062500
0.000000 0.793750 0.062500
0.006250 0.793750 0.062500
0.062500 0.793750 0.062500
0.118750 0.793750 0.062500
0.175000 0.793750 0.062500
0.231250 0.793750 0.062500
0.287500 0.793750 0.062500
0.343750 0.793750 0.062500
0.400000 0.793750 0.062500
0.456250 0.793750 0.062500
0.512500 0.793750 0.062500
0.568750 0.793750 0.062500
0.625000 0.793750 0.062500
0.681250 0.793750 0.062500
0.737500 0.793750 0.062500
0.793750 0.793750 0.062500
0.850000 0.793750 0.062500
0.000000 0.850000 0.062500
0.006250 0.850000 0.062500
0.062500 0.850000 0.062500
0.118750 0.850000 0.062500
0.175000 0.850000 0.062500
0.231250 0.850000 0.062500
0.287500 0.850000 0.062500
0.343750 0.850000 0.062500
0.400000 0.850000 0.062500
0.456250 0.850000 0.062500
0.512500 0.850000 0.062500
0.568750 0.850000 0.062500
0.625000 0.850000 0.062500
0.681250 0.850000 0.062500
0.737500 0.850000 0.062500
0.793750 0.850000 0.062500
0.850000 0.850000 0.062500
0.000000 0.000000 0.118750
0.006250 0.000000 0.118750
0.062500 0.000000 0.118750
0.118750 0.000000 0.118750
0.175000 0.000000 0.118750
0.231250 0.000000 0.118750
0.287500 0.000000 0.118750
0.343750 0.000000 0.118750
0.400000 0.000000 0.118750
0.456250 0.000000 0.118750
0.512500 0.000000 0.118750
0.568750 0.000000 0.118750
0.625000 0.000000 0.118750
0.681250 0.000000 0.118750
0.737500 0.000000 0.118750
0.793750 0.000000 0.118750
0.850000 0.000000 0.118750
0.000000 0.006250 0.118750
0.006250 0.006250 0.118750
0.062500 0.006250 0.118750
