src/assets/luts/dramatic_black.cube
TITLE "Dramatic Black"
LUT_3D_SIZE 9
0.000000 0.000000 0.000000
0.062500 0.000000 0.000000
0.175000 0.000000 0.000000
0.287500 0.000000 0.000000
0.400000 0.000000 0.000000
0.512500 0.000000 0.000000
0.625000 0.000000 0.000000
0.737500 0.000000 0.000000
0.850000 0.000000 0.000000
0.000000 0.062500 0.000000
0.062500 0.062500 0.000000
0.175000 0.062500 0.000000
0.287500 0.062500 0.000000
0.400000 0.062500 0.000000
0.512500 0.062500 0.000000
0.625000 0.062500 0.000000
0.737500 0.062500 0.000000
0.850000 0.062500 0.000000
0.000000 0.175000 0.000000
0.062500 0.175000 0.000000
0.175000 0.175000 0.000000
0.287500 0.175000 0.000000
0.400000 0.175000 0.000000
0.512500 0.175000 0.000000
0.625000 0.175000 0.000000
0.737500 0.175000 0.000000
0.850000 0.175000 0.000000
0.000000 0.287500 0.000000
0.062500 0.287500 0.000000
0.175000 0.287500 0.000000
0.287500 0.287500 0.000000
0.400000 0.287500 0.000000
0.512500 0.287500 0.000000
0.625000 0.287500 0.000000
0.737500 0.287500 0.000000
0.850000 0.287500 0.000000
0.000000 0.400000 0.000000
0.062500 0.400000 0.000000
0.175000 0.400000 0.000000
0.287500 0.400000 0.000000
0.400000 0.400000 0.000000
0.512500 0.400000 0.000000
0.625000 0.400000 0.000000
0.737500 0.400000 0.000000
0.850000 0.400000 0.000000
0.000000 0.512500 0.000000
0.062500 0.512500 0.000000
0.175000 0.512500 0.000000
0.287500 0.512500 0.000000
0.400000 0.512500 0.000000
0.512500 0.512500 0.000000
0.625000 0.512500 0.000000
0.737500 0.512500 0.000000
0.850000 0.512500 0.000000
0.000000 0.625000 0.000000
0.062500 0.625000 0.000000
0.175000 0.625000 0.000000
0.287500 0.625000 0.000000
0.400000 0.625000 0.000000
0.512500 0.625000 0.000000
0.625000 0.625000 0.000000
0.737500 0.625000 0.000000
0.850000 0.625000 0.000000
0.000000 0.737500 0.000000
0.062500 0.737500 0.000000
0.175000 0.737500 0.000000
0.287500 0.737500 0.000000
0.400000 0.737500 0.000000
0.512500 0.737500 0.000000
0.625000 0.737500 0.000000
0.737500 0.737500 0.000000
0.850000 0.737500 0.000000
0.000000 0.850000 0.000000
0.062500 0.850000 0.000000
0.175000 0.850000 0.000000
0.287500 0.850000 0.000000
0.400000 0.850000 0.000000
0.512500 0.850000 0.000000
0.625000 0.850000 0.000000
0.737500 0.850000 0.000000
0.850000 0.850000 0.000000
0.000000 0.000000 0.062500
0.062500 0.000000 0.062500
0.175000 0.000000 0.062500
0.287500 0.000000 0.062500
0.400000 0.000000 0.062500
0.512500 0.000000 0.062500
0.625000 0.000000 0.062500
0.737500 0.000000 0.062500
0.850000 0.000000 0.062500
0.000000 0.062500 0.062500
0.062500 0.062500 0.062500
0.175000 0.062500 0.062500
0.287500 0.062500 0.062500
0.400000 0.062500 0.062500
0.512500 0.062500 0.062500
0.625000 0.062500 0.062500
0.737500 0.062500 0.062500
0.850000 0.062500 0.062500
0.000000 0.175000 0.062500
0.062500 0.175000 0.062500
0.175000 0.175000 0.062500
0.287500 0.175000 0.062500
0.400000 0.175000 0.062500
0.512500 0.175000 0.062500
0.625000 0.175000 0.062500
0.737500 0.175000 0.062500
0.850000 0.175000 0.062500
0.000000 0.287500 0.062500
0.062500 0.287500 0.062500
0.175000 0.287500 0.062500
0.287500 0.287500 0.062500
0.400000 0.287500 0.062500
0.512500 0.287500 0.062500
0.625000 0.287500 0.062500
0.737500 0.287500 0.062500
0.850000 0.287500 0.062500
0.000000 0.400000 0.062500
0.062500 0.400000 0.062500
0.175000 0.400000 0.062500
0.287500 0.400000 0.062500
0.400000 0.400000 0.062500
0.512500 0.400000 0.062500
0.625000 0.400000 0.062500
0.737500 0.400000 0.062500
0.850000 0.400000 0.062500
0.000000 0.512500 0.062500
0.062500 0.512500 0.062500
0.175000 0.512500 0.062500
0.287500 0.512500 0.062500
0.400000 0.512500 0.062500
0.512500 0.512500 0.062500
0.625000 0.512500 0.062500
0.737500 0.512500 0.062500
0.850000 0.512500 0.062500
0.000000 0.625000 0.062500
0.062500 0.625000 0.062500
0.175000 0.625000 0.062500
0.287500 0.625000 0.062500
0.400000 0.625000 0.062500
0.512500 0.625000 0.062500
0.625000 0.625000 0.062500
0.737500 0.625000 0.062500
0.850000 0.625000 0.062500
0.000000 0.737500 0.062500
0.062500 0.737500 0.062500
0.175000 0.737500 0.062500
0.287500 0.737500 0.062500
0.400000 0.737500 0.062500
0.512500 0.737500 0.062500
0.625000 0.737500 0.062500
0.737500 0.737500 0.062500
0.850000 0.737500 0.062500
0.000000 0.850000 0.062500
0.062500 0.850000 0.062500
0.175000 0.850000 0.062500
0.287500 0.850000 0.062500
0.400000 0.850000 0.062500
0.512500 0.850000 0.062500
0.625000 0.850000 0.062500
0.737500 0.850000 0.062500
0.850000 0.850000 0.062500
0.000000 0.000000 0.175000
0.062500 0.000000 0.175000
0.175000 0.000000 0.175000
0.287500 0.000000 0.175000
0.400000 0.000000 0.175000
0.512500 0.000000 0.175000
0.625000 0.000000 0.175000
0.737500 0.000000 0.175000
0.850000 0.000000 0.175000
0.000000 0.062500 0.175000
0.062500 0.062500 0.175000
0.175000 0.062500 0.175000
0.287500 0.062500 0.175000
0.400000 0.062500 0.175000
0.512500 0.062500 0.175000
0.625000 0.062500 0.175000
0.737500 0.062500 0.175000
0.850000 0.062500 0.175000
0.000000 0.175000 0.175000
0.062500 0.175000 0.175000
0.175000 0.175000 0.175000
0.287500 0.175000 0.175000
0.400000 0.175000 0.175000
0.512500 0.175000 0.175000
0.625000 0.175000 0.175000
0.737500 0.175000 0.175000
0.850000 0.175000 0.175000
0.000000 0.287500 0.175000
0.062500 0.287500 0.175000
0.175000 0.287500 0.175000
0.287500 0.287500 0.175000
0.400000 0.287500 0.175000
0.512500 0.287500 0.175000
0.625000 0.287500 0.175000
0.737500 0.287500 0.175000
0.850000 0.287500 0.175000
0.000000 0.400000 0.175000
0.062500 0.400000 0.175000
0.175000 0.400000 0.175000
0.287500 0.400000 0.175000
0.400000 0.400000 0.175000
0.512500 0.400000 0.175000
0.625000 0.400000 0.175000
0.737500 0.400000 0.175000
0.850000 0.400000 0.175000
0.000000 0.512500 0.175000
0.062500 0.512500 0.175000
0.175000 0.512500 0.175000
0.287500 0.512500 0.175000
0.400000 0.512500 0.175000
0.512500 0.512500 0.175000
0.625000 0.512500 0.175000
0.737500 0.512500 0.175000
0.850000 0.512500 0.175000
0.000000 0.625000 0.175000
0.062500 0.625000 0.175000
0.175000 0.625000 0.175000
0.287500 0.625000 0.175000
0.400000 0.625000 0.175000
0.512500 0.625000 0.175000
0.625000 0.625000 0.175000
0.737500 0.625000 0.175000
0.850000 0.625000 0.175000
0.000000 0.737500 0.175000
0.062500 0.737500 0.175000
0.175000 0.737500 0.175000
0.287500 0.737500 0.175000
0.400000 0.737500 0.175000
0.512500 0.737500 0.175000
0.625000 0.737500 0.175000
0.737500 0.737500 0.175000
0.850000 0.737500 0.175000
0.000000 0.850000 0.175000
0.062500 0.850000 0.175000
0.175000 0.850000 0.175000
0.287500 0.850000 0.175000
0.400000 0.850000 0.175000
0.512500 0.850000 0.175000
0.625000 0.850000 0.175000
0.737500 0.850000 0.175000
0.850000 0.850000 0.175000
0.000000 0.000000 0.287500
0.062500 0.000000 0.287500
0.175000 0.000000 0.287500
0.287500 0.000000 0.287500
0.400000 0.000000 0.287500
0.512500 0.000000 0.287500
0.625000 0.000000 0.287500
0.737500 0.000000 0.287500
0.850000 0.000000 0.287500
0.000000 0.062500 0.287500
0.062500 0.062500 0.287500
0.175000 0.062500 0.287500
0.287500 0.062500 0.287500
0.400000 0.062500 0.287500
0.512500 0.062500 0.287500
0.625000 0.062500 0.287500
0.737500 0.062500 0.287500
0.850000 0.062500 0.287500
0.000000 0.175000 0.287500
0.062500 0.175000 0.287500
0.175000 0.175000 0.287500
0.287500 0.175000 0.287500
0.400000 0.175000 0.287500
0.512500 0.175000 0.287500
0.625000 0.175000 0.287500
0.737500 0.175000 0.287500
0.850000 0.175000 0.287500
0.000000 0.287500 0.287500
0.062500 0.287500 0.287500
0.175000 0.287500 0.287500
0.287500 0.287500 0.287500
0.400000 0.287500 0.287500
0.512500 0.287500 0.287500
0.625000 0.287500 0.287500
0.737500 0.287500 0.287500
0.850000 0.287500 0.287500
0.000000 0.400000 0.287500
0.062500 0.400000 0.287500
0.175000 0.400000 0.287500
0.287500 0.400000 0.287500
0.400000 0.400000 0.287500
0.512500 0.400000 0.287500
0.625000 0.400000 0.287500
0.737500 0.400000 0.287500
0.850000 0.400000 0.287500
0.000000 0.512500 0.287500
0.062500 0.512500 0.287500
0.175000 0.512500 0.287500
0.287500 0.512500 0.287500
0.400000 0.512500 0.287500
0.512500 0.512500 0.287500
0.625000 0.512500 0.287500
0.737500 0.512500 0.287500
0.850000 0.512500 0.287500
0.000000 0.625000 0.287500
0.062500 0.625000 0.287500
0.175000 0.625000 0.287500
0.287500 0.625000 0.287500
0.400000 0.625000 0.287500
0.512500 0.625000 0.287500
0.625000 0.625000 0.287500
0.737500 0.625000 0.287500
0.850000 0.625000 0.287500
0.000000 0.737500 0.287500
0.062500 0.737500 0.287500
0.175000 0.737500 0.287500
0.287500 0.737500 0.287500
0.400000 0.737500 0.287500
0.512500 0.737500 0.287500
0.625000 0.737500 0.287500
0.737500 0.737500 0.287500
0.850000 0.737500 0.287500
0.000000 0.850000 0.287500
0.062500 0.850000 0.287500
0.175000 0.850000 0.287500
0.287500 0.850000 0.287500
0.400000 0.850000 0.287500
0.512500 0.850000 0.287500
0.625000 0.850000 0.287500
0.737500 0.850000 0.287500
0.850000 0.850000 0.287500
0.000000 0.000000 0.400000
0.062500 0.000000 0.400000
0.175000 0.000000 0.400000
0.287500 0.000000 0.400000
0.400000 0.000000 0.400000
0.512500 0.000000 0.400000
0.625000 0.000000 0.400000
0.737500 0.000000 0.400000
0.850000 0.000000 0.400000
0.000000 0.062500 0.400000
0.062500 0.062500 0.400000
0.175000 0.062500 0.400000
0.287500 0.062500 0.400000
0.400000 0.062500 0.400000
0.512500 0.062500 0.400000
0.625000 0.062500 0.400000
0.737500 0.062500 0.400000
0.850000 0.062500 0.400000
0.000000 0.175000 0.400000
0.062500 0.175000 0.400000
0.175000 0.175000 0.400000
0.287500 0.175000 0.400000
0.400000 0.175000 0.400000
0.512500 0.175000 0.400000
0.625000 0.175000 0.400000
0.737500 0.175000 0.400000
0.850000 0.175000 0.400000
0.000000 0.287500 0.400000
0.062500 0.287500 0.400000
0.175000 0.287500 0.400000
0.287500 0.287500 0.400000
0.400000 0.287500 0.400000
0.512500 0.287500 0.400000
0.625000 0.287500 0.400000
0.737500 0.287500 0.400000
0.850000 0.287500 0.400000
0.000000 0.400000 0.400000
0.062500 0.400000 0.400000
0.175000 0.400000 0.400000
0.287500 0.400000 0.400000
0.400000 0.400000 0.400000
0.512500 0.400000 0.400000
0.625000 0.400000 0.400000
0.737500 0.400000 0.400000
0.850000 0.400000 0.400000
0.000000 0.512500 0.400000
0.062500 0.512500 0.400000
0.175000 0.512500 0.400000
0.287500 0.512500 0.400000
0.400000 0.512500 0.400000
0.512500 0.512500 0.400000
0.625000 0.512500 0.400000
0.737500 0.512500 0.400000
0.850000 0.512500 0.400000
0.000000 0.625000 0.400000
0.062500 0.625000 0.400000
0.175000 0.625000 0.400000
0.287500 0.625000 0.400000
0.400000 0.625000 0.400000
0.512500 0.625000 0.400000
0.625000 0.625000 0.400000
0.737500 0.625000 0.400000
0.850000 0.625000 0.400000
0.000000 0.737500 0.400000
0.062500 0.737500 0.400000
0.175000 0.737500 0.400000
0.287500 0.737500 0.400000
0.400000 0.737500 0.400000
0.512500 0.737500 0.400000
0.625000 0.737500 0.400000
0.737500 0.737500 0.400000
0.850000 0.737500 0.400000
0.000000 0.850000 0.400000
0.062500 0.850000 0.400000
0.175000 0.850000 0.400000
0.287500 0.850000 0.400000
0.400000 0.850000 0.400000
0.512500 0.850000 0.400000
0.625000 0.850000 0.400000
0.737500 0.850000 0.400000
0.850000 0.850000 0.400000
0.000000 0.000000 0.512500
0.062500 0.000000 0.512500
0.175000 0.000000 0.512500
0.287500 0.000000 0.512500
0.400000 0.000000 0.512500
0.512500 0.000000 0.512500
0.625000 0.000000 0.512500
0.737500 0.000000 0.512500
0.850000 0.000000 0.512500
0.000000 0.062500 0.512500
0.062500 0.062500 0.512500
0.175000 0.062500 0.512500
0.287500 0.062500 0.512500
0.400000 0.062500 0.512500
0.512500 0.062500 0.512500
0.625000 0.062500 0.512500
0.737500 0.062500 0.512500
0.850000 0.062500 0.512500
0.000000 0.175000 0.512500
0.062500 0.175000 0.512500
0.175000 0.175000 0.512500
0.287500 0.175000 0.512500
0.400000 0.175000 0.512500
0.512500 0.175000 0.512500
0.625000 0.175000 0.512500
0.737500 0.175000 0.512500
0.850000 0.175000 0.512500
0.000000 0.287500 0.512500
0.062500 0.287500 0.512500
0.175000 0.287500 0.512500
0.287500 0.287500 0.512500
0.400000 0.287500 0.512500
0.512500 0.287500 0.512500
0.625000 0.287500 0.512500
0.737500 0.287500 0.512500
0.850000 0.287500 0.512500
0.000000 0.400000 0.512500
0.062500 0.400000 0.512500
0.175000 0.400000 0.512500
0.287500 0.400000 0.512500
0.400000 0.400000 0.512500
0.512500 0.400000 0.512500
0.625000 0.400000 0.512500
0.737500 0.400000 0.512500
0.850000 0.400000 0.512500
0.000000 0.512500 0.512500
0.062500 0.512500 0.512500
0.175000 0.512500 0.512500
0.287500 0.512500 0.512500
0.400000 0.512500 0.512500
0.512500 0.512500 0.512500
0.625000 0.512500 0.512500
0.737500 0.512500 0.512500
0.850000 0.512500 0.512500
0.000000 0.625000 0.512500
0.062500 0.625000 0.512500
0.175000 0.625000 0.512500
0.287500 0.625000 0.512500
0.400000 0.625000 0.512500
0.512500 0.625000 0.512500
0.625000 0.625000 0.512500
0.737500 0.625000 0.512500
0.850000 0.625000 0.512500
0.000000 0.737500 0.512500
0.062500 0.737500 0.512500
0.175000 0.737500 0.512500
0.287500 0.737500 0.512500
0.400000 0.737500 0.512500
0.512500 0.737500 0.512500
0.625000 0.737500 0.512500
0.737500 0.737500 0.512500
0.850000 0.737500 0.512500
0.000000 0.850000 0.512500
0.062500 0.850000 0.512500
0.175000 0.850000 0.512500
0.287500 0.850000 0.512500
0.400000 0.850000 0.512500
0.512500 0.850000 0.512500
0.625000 0.850000 0.512500
0.737500 0.850000 0.512500
0.850000 0.850000 0.512500
0.000000 0.000000 0.625000
0.062500 0.000000 0.625000
0.175000 0.000000 0.625000
0.287500 0.000000 0.625000
0.400000 0.000000 0.625000
0.512500 0.000000 0.625000
0.625000 0.000000 0.625000
0.737500 0.000000 0.625000
0.850000 0.000000 0.625000
0.000000 0.062500 0.625000
0.062500 0.062500 0.625000
0.175000 0.062500 0.625000
0.287500 0.062500 0.625000
0.400000 0.062500 0.625000
0.512500 0.062500 0.625000
0.625000 0.062500 0.625000
0.737500 0.062500 0.625000
0.850000 0.062500 0.625000
0.000000 0.175000 0.625000
0.062500 0.175000 0.625000
0.175000 0.175000 0.625000
0.287500 0.175000 0.625000
0.400000 0.175000 0.625000
0.512500 0.175000 0.625000
0.625000 0.175000 0.625000
0.737500 0.175000 0.625000
0.850000 0.175000 0.625000
0.000000 0.287500 0.625000
0.062500 0.287500 0.625000
0.175000 0.287500 0.625000
0.287500 0.287500 0.625000
0.400000 0.287500 0.625000
0.512500 0.287500 0.625000
0.625000 0.287500 0.625000
0.737500 0.287500 0.625000
0.850000 0.287500 0.625000
0.000000 0.400000 0.625000
0.062500 0.400000 0.625000
0.175000 0.400000 0.625000
0.287500 0.400000 0.625000
0.400000 0.400000 0.625000
0.512500 0.400000 0.625000
0.625000 0.400000 0.625000
0.737500 0.400000 0.625000
0.850000 0.400000 0.625000
0.000000 0.512500 0.625000
0.062500 0.512500 0.625000
0.175000 0.512500 0.625000
0.287500 0.512500 0.625000
0.400000 0.512500 0.625000
0.512500 0.512500 0.625000
0.625000 0.512500 0.625000
0.737500 0.512500 0.625000
0.850000 0.512500 0.625000
0.000000 0.625000 0.625000
0.062500 0.625000 0.625000
0.175000 0.625000 0.625000
0.287500 0.625000 0.625000
0.400000 0.625000 0.625000
0.512500 0.625000 0.625000
0.625000 0.625000 0.625000
0.737500 0.625000 0.625000
0.850000 0.625000 0.625000
0.000000 0.737500 0.625000
0.062500 0.737500 0.625000
0.175000 0.737500 0.625000
0.287500 0.737500 0.625000
0.400000 0.737500 0.625000
0.512500 0.737500 0.625000
0.625000 0.737500 0.625000
0.737500 0.737500 0.625000
0.850000 0.737500 0.625000
0.000000 0.850000 0.625000
0.062500 0.850000 0.625000
0.175000 0.850000 0.625000
0.287500 0.850000 0.625000
0.400000 0.850000 0.625000
0.512500 0.850000 0.625000
0.625000 0.850000 0.625000
0.737500 0.850000 0.625000
0.850000 0.850000 0.625000
0.000000 0.000000 0.737500
0.062500 0.000000 0.737500
0.175000 0.000000 0.737500
0.287500 0.000000 0.737500
0.400000 0.000000 0.737500
0.512500 0.000000 0.737500
0.625000 0.000000 0.737500
0.737500 0.000000 0.737500
0.850000 0.000000 0.737500
0.000000 0.062500 0.737500
0.062500 0.062500 0.737500
0.175000 0.062500 0.737500
0.287500 0.062500 0.737500
0.400000 0.062500 0.737500
0.512500 0.062500 0.737500
0.625000 0.062500 0.737500
0.737500 0.062500 0.737500
0.850000 0.062500 0.737500
0.000000 0.175000 0.737500
0.062500 0.175000 0.737500
0.175000 0.175000 0.737500
0.287500 0.175000 0.737500
0.400000 0.175000 0.737500
0.512500 0.175000 0.737500
0.625000 0.175000 0.737500
0.737500 0.175000 0.737500
0.850000 0.175000 0.737500
0.000000 0.287500 0.737500
0.062500 0.287500 0.737500
0.175000 0.287500 0.737500
0.287500 0.287500 0.737500
0.400000 0.287500 0.737500
0.512500 0.287500 0.737500
0.625000 0.287500 0.737500
0.737500 0.287500 0.737500
0.850000 0.287500 0.737500
0.000000 0.400000 0.737500
0.062500 0.400000 0.737500
0.175000 0.400000 0.737500
0.287500 0.400000 0.737500
0.400000 0.400000 0.737500
0.512500 0.400000 0.737500
0.625000 0.400000 0.737500
0.737500 0.400000 0.737500
0.850000 0.400000 0.737500
0.000000 0.512500 0.737500
0.062500 0.512500 0.737500
0.175000 0.512500 0.737500
0.287500 0.512500 0.737500
0.400000 0.512500 0.737500
0.512500 0.512500 0.737500
0.625000 0.512500 0.737500
0.737500 0.512500 0.737500
0.850000 0.512500 0.737500
0.000000 0.625000 0.737500
0.062500 0.625000 0.737500
0.175000 0.625000 0.737500
0.287500 0.625000 0.737500
0.400000 0.625000 0.737500
0.512500 0.625000 0.737500
0.625000 0.625000 0.737500
0.737500 0.625000 0.737500
0.850000 0.625000 0.737500
0.000000 0.737500 0.737500
0.062500 0.737500 0.737500
0.175000 0.737500 0.737500
0.287500 0.737500 0.737500
0.400000 0.737500 0.737500
0.512500 0.737500 0.737500
0.625000 0.737500 0.737500
0.737500 0.737500 0.737500
0.850000 0.737500 0.737500
0.000000 0.850000 0.737500
0.062500 0.850000 0.737500
0.175000 0.850000 0.737500
0.287500 0.850000 0.737500
0.400000 0.850000 0.737500
0.512500 0.850000 0.737500
0.625000 0.850000 0.737500
0.737500 0.850000 0.737500
0.850000 0.850000 0.737500
0.000000 0.000000 0.850000
0.062500 0.000000 0.850000
0.175000 0.000000 0.850000
0.287500 0.000000 0.850000
0.400000 0.000000 0.850000
0.512500 0.000000 0.850000
0.625000 0.000000 0.850000
0.737500 0.000000 0.850000
0.850000 0.000000 0.850000
0.000000 0.062500 0.850000
0.062500 0.062500 0.850000
0.175000 0.062500 0.850000
0.287500 0.062500 0.850000
0.400000 0.062500 0.850000
0.512500 0.062500 0.850000
0.625000 0.062500 0.850000
0.737500 0.062500 0.850000
0.850000 0.062500 0.850000
0.000000 0.175000 0.850000
0.062500 0.175000 0.850000
0.175000 0.175000 0.850000
0.287500 0.175000 0.850000
0.400000 0.175000 0.850000
0.512500 0.175000 0.850000
0.625000 0.175000 0.850000
0.737500 0.175000 0.850000
0.850000 0.175000 0.850000
0.000000 0.287500 0.850000
0.062500 0.287500 0.850000
0.175000 0.287500 0.850000
0.287500 0.287500 0.850000
0.400000 0.287500 0.850000
0.512500 0.287500 0.850000
0.625000 0.287500 0.850000
0.737500 0.287500 0.850000
0.850000 0.287500 0.850000
0.000000 0.400000 0.850000
0.062500 0.400000 0.850000
0.175000 0.400000 0.850000
0.287500 0.400000 0.850000
0.400000 0.400000 0.850000
0.512500 0.400000 0.850000
0.625000 0.400000 0.850000
0.737500 0.400000 0.850000
0.850000 0.400000 0.850000
0.000000 0.512500 0.850000
0.062500 0.512500 0.850000
0.175000 0.512500 0.850000
0.287500 0.512500 0.850000
0.400000 0.512500 0.850000
0.512500 0.512500 0.850000
0.625000 0.512500 0.850000
0.737500 0.512500 0.850000
0.850000 0.512500 0.850000
0.000000 0.625000 0.850000
0.062500 0.625000 0.850000
0.175000 0.625000 0.850000
0.287500 0.625000 0.850000
0.400000 0.625000 0.850000
0.512500 0.625000 0.850000
0.625000 0.625000 0.850000
0.737500 0.625000 0.850000
0.850000 0.625000 0.850000
0.000000 0.737500 0.850000
0.062500 0.737500 0.850000
0.175000 0.737500 0.850000
0.287500 0.737500 0.850000
0.400000 0.737500 0.850000
0.512500 0.737500 0.850000
0.625000 0.737500 0.850000
0.737500 0.737500 0.850000
0.850000 0.737500 0.850000
0.000000 0.850000 0.850000
0.062500 0.850000 0.850000
0.175000 0.850000 0.850000
0.287500 0.850000 0.850000
0.400000 0.850000 0.850000
0.512500 0.850000 0.850000
0.625000 0.850000 0.850000
0.737500 0.850000 0.850000
0.850000 0.850000 0.850000
