src/assets/luts/dramatic_black.cube
TITLE "Dramatic Black"
LUT_3D_SIZE 5
0.000000 0.000000 0.000000
0.175000 0.000000 0.000000
0.400000 0.000000 0.000000
0.625000 0.000000 0.000000
0.850000 0.000000 0.000000
0.000000 0.175000 0.000000
0.175000 0.175000 0.000000
0.400000 0.175000 0.000000
0.625000 0.175000 0.000000
0.850000 0.175000 0.000000
0.000000 0.400000 0.000000
0.175000 0.400000 0.000000
0.400000 0.400000 0.000000
0.625000 0.400000 0.000000
0.850000 0.400000 0.000000
0.000000 0.625000 0.000000
0.175000 0.625000 0.000000
0.400000 0.625000 0.000000
0.625000 0.625000 0.000000
0.850000 0.625000 0.000000
0.000000 0.850000 0.000000
0.175000 0.850000 0.000000
0.400000 0.850000 0.000000
0.625000 0.850000 0.000000
0.850000 0.850000 0.000000
0.000000 0.000000 0.175000
0.175000 0.000000 0.175000
0.400000 0.000000 0.175000
0.625000 0.000000 0.175000
0.850000 0.000000 0.175000
0.000000 0.175000 0.175000
0.175000 0.175000 0.175000
0.400000 0.175000 0.175000
0.625000 0.175000 0.175000
0.850000 0.175000 0.175000
0.000000 0.400000 0.175000
0.175000 0.400000 0.175000
0.400000 0.400000 0.175000
0.625000 0.400000 0.175000
0.850000 0.400000 0.175000
0.000000 0.625000 0.175000
0.175000 0.625000 0.175000
0.400000 0.625000 0.175000
0.625000 0.625000 0.175000
0.850000 0.625000 0.175000
0.000000 0.850000 0.175000
0.175000 0.850000 0.175000
0.400000 0.850000 0.175000
0.625000 0.850000 0.175000
0.850000 0.850000 0.175000
0.000000 0.000000 0.400000
0.175000 0.000000 0.400000
0.400000 0.000000 0.400000
0.625000 0.000000 0.400000
0.850000 0.000000 0.400000
0.000000 0.175000 0.400000
0.175000 0.175000 0.400000
0.400000 0.175000 0.400000
0.625000 0.175000 0.400000
0.850000 0.175000 0.400000
0.000000 0.400000 0.400000
0.175000 0.400000 0.400000
0.400000 0.400000 0.400000
0.625000 0.400000 0.400000
0.850000 0.400000 0.400000
0.000000 0.625000 0.400000
0.175000 0.625000 0.400000
0.400000 0.625000 0.400000
0.625000 0.625000 0.400000
0.850000 0.625000 0.400000
0.000000 0.850000 0.400000
0.175000 0.850000 0.400000
0.400000 0.850000 0.400000
0.625000 0.850000 0.400000
0.850000 0.850000 0.400000
0.000000 0.000000 0.625000
0.175000 0.000000 0.625000
0.400000 0.000000 0.625000
0.625000 0.000000 0.625000
0.850000 0.000000 0.625000
0.000000 0.175000 0.625000
0.175000 0.175000 0.625000
0.400000 0.175000 0.625000
0.625000 0.175000 0.625000
0.850000 0.175000 0.625000
0.000000 0.400000 0.625000
0.175000 0.400000 0.625000
0.400000 0.400000 0.625000
0.625000 0.400000 0.625000
0.850000 0.400000 0.625000
0.000000 0.625000 0.625000
0.175000 0.625000 0.625000
0.400000 0.625000 0.625000
0.625000 0.625000 0.625000
0.850000 0.625000 0.625000
0.000000 0.850000 0.625000
0.175000 0.850000 0.625000
0.400000 0.850000 0.625000
0.625000 0.850000 0.625000
0.850000 0.850000 0.625000
0.000000 0.000000 0.850000
0.175000 0.000000 0.850000
0.400000 0.000000 0.850000
0.625000 0.000000 0.850000
0.850000 0.000000 0.850000
0.000000 0.175000 0.850000
0.175000 0.175000 0.850000
0.400000 0.175000 0.850000
0.625000 0.175000 0.850000
0.850000 0.175000 0.850000
0.000000 0.400000 0.850000
0.175000 0.400000 0.850000
0.400000 0.400000 0.850000
0.625000 0.400000 0.850000
0.850000 0.400000 0.850000
0.000000 0.625000 0.850000
0.175000 0.625000 0.850000
0.400000 0.625000 0.850000
0.625000 0.625000 0.850000
0.850000 0.625000 0.850000
0.000000 0.850000 0.850000
0.175000 0.850000 0.850000
0.400000 0.850000 0.850000
0.625000 0.850000 0.850000
0.850000 0.850000 0.850000
