src/assets/luts/film_emulation.cube
TITLE "Film Emulation"
LUT_3D_SIZE 9
0.000000 0.000000 0.000000
0.118750 0.000000 0.000000
0.237500 0.000000 0.000000
0.356250 0.000000 0.000000
0.475000 0.000000 0.000000
0.593750 0.000000 0.000000
0.712500 0.000000 0.000000
0.831250 0.000000 0.000000
0.950000 0.000000 0.000000
0.000000 0.118750 0.000000
0.118750 0.118750 0.000000
0.237500 0.118750 0.000000
0.356250 0.118750 0.000000
0.475000 0.118750 0.000000
0.593750 0.118750 0.000000
0.712500 0.118750 0.000000
0.831250 0.118750 0.000000
0.950000 0.118750 0.000000
0.000000 0.237500 0.000000
0.118750 0.237500 0.000000
0.237500 0.237500 0.000000
0.356250 0.237500 0.000000
0.475000 0.237500 0.000000
0.593750 0.237500 0.000000
0.712500 0.237500 0.000000
0.831250 0.237500 0.000000
0.950000 0.237500 0.000000
0.000000 0.356250 0.000000
0.118750 0.356250 0.000000
0.237500 0.356250 0.000000
0.356250 0.356250 0.000000
0.475000 0.356250 0.000000
0.593750 0.356250 0.000000
0.712500 0.356250 0.000000
0.831250 0.356250 0.000000
0.950000 0.356250 0.000000
0.000000 0.475000 0.000000
0.118750 0.475000 0.000000
0.237500 0.475000 0.000000
0.356250 0.475000 0.000000
0.475000 0.475000 0.000000
0.593750 0.475000 0.000000
0.712500 0.475000 0.000000
0.831250 0.475000 0.000000
0.950000 0.475000 0.000000
0.000000 0.593750 0.000000
0.118750 0.593750 0.000000
0.237500 0.593750 0.000000
0.356250 0.593750 0.000000
0.475000 0.593750 0.000000
0.593750 0.593750 0.000000
0.712500 0.593750 0.000000
0.831250 0.593750 0.000000
0.950000 0.593750 0.000000
0.000000 0.712500 0.000000
0.118750 0.712500 0.000000
0.237500 0.712500 0.000000
0.356250 0.712500 0.000000
0.475000 0.712500 0.000000
0.593750 0.712500 0.000000
0.712500 0.712500 0.000000
0.831250 0.712500 0.000000
0.950000 0.712500 0.000000
0.000000 0.831250 0.000000
0.118750 0.831250 0.000000
0.237500 0.831250 0.000000
0.356250 0.831250 0.000000
0.475000 0.831250 0.000000
0.593750 0.831250 0.000000
0.712500 0.831250 0.000000
0.831250 0.831250 0.000000
0.950000 0.831250 0.000000
0.000000 0.950000 0.000000
0.118750 0.950000 0.000000
0.237500 0.950000 0.000000
0.356250 0.950000 0.000000
0.475000 0.950000 0.000000
0.593750 0.950000 0.000000
0.712500 0.950000 0.000000
0.831250 0.950000 0.000000
0.950000 0.950000 0.000000
0.000000 0.000000 0.118750
0.118750 0.000000 0.118750
0.237500 0.000000 0.118750
0.356250 0.000000 0.118750
0.475000 0.000000 0.118750
0.593750 0.000000 0.118750
0.712500 0.000000 0.118750
0.831250 0.000000 0.118750
0.950000 0.000000 0.118750
0.000000 0.118750 0.118750
0.118750 0.118750 0.118750
0.237500 0.118750 0.118750
0.356250 0.118750 0.118750
0.475000 0.118750 0.118750
0.593750 0.118750 0.118750
0.712500 0.118750 0.118750
0.831250 0.118750 0.118750
0.950000 0.118750 0.118750
0.000000 0.237500 0.118750
0.118750 0.237500 0.118750
0.237500 0.237500 0.118750
0.356250 0.237500 0.118750
0.475000 0.237500 0.118750
0.593750 0.237500 0.118750
0.712500 0.237500 0.118750
0.831250 0.237500 0.118750
0.950000 0.237500 0.118750
0.000000 0.356250 0.118750
0.118750 0.356250 0.118750
0.237500 0.356250 0.118750
0.356250 0.356250 0.118750
0.475000 0.356250 0.118750
0.593750 0.356250 0.118750
0.712500 0.356250 0.118750
0.831250 0.356250 0.118750
0.950000 0.356250 0.118750
0.000000 0.475000 0.118750
0.118750 0.475000 0.118750
0.237500 0.475000 0.118750
0.356250 0.475000 0.118750
0.475000 0.475000 0.118750
0.593750 0.475000 0.118750
0.712500 0.475000 0.118750
0.831250 0.475000 0.118750
0.950000 0.475000 0.118750
0.000000 0.593750 0.118750
0.118750 0.593750 0.118750
0.237500 0.593750 0.118750
0.356250 0.593750 0.118750
0.475000 0.593750 0.118750
0.593750 0.593750 0.118750
0.712500 0.593750 0.118750
0.831250 0.593750 0.118750
0.950000 0.593750 0.118750
0.000000 0.712500 0.118750
0.118750 0.712500 0.118750
0.237500 0.712500 0.118750
0.356250 0.712500 0.118750
0.475000 0.712500 0.118750
0.593750 0.712500 0.118750
0.712500 0.712500 0.118750
0.831250 0.712500 0.118750
0.950000 0.712500 0.118750
0.000000 0.831250 0.118750
0.118750 0.831250 0.118750
0.237500 0.831250 0.118750
0.356250 0.831250 0.118750
0.475000 0.831250 0.118750
0.593750 0.831250 0.118750
0.712500 0.831250 0.118750
0.831250 0.831250 0.118750
0.950000 0.831250 0.118750
0.000000 0.950000 0.118750
0.118750 0.950000 0.118750
0.237500 0.950000 0.118750
0.356250 0.950000 0.118750
0.475000 0.950000 0.118750
0.593750 0.950000 0.118750
0.712500 0.950000 0.118750
0.831250 0.950000 0.118750
0.950000 0.950000 0.118750
0.000000 0.000000 0.237500
0.118750 0.000000 0.237500
0.237500 0.000000 0.237500
0.356250 0.000000 0.237500
0.475000 0.000000 0.237500
0.593750 0.000000 0.237500
0.712500 0.000000 0.237500
0.831250 0.000000 0.237500
0.950000 0.000000 0.237500
0.000000 0.118750 0.237500
0.118750 0.118750 0.237500
0.237500 0.118750 0.237500
0.356250 0.118750 0.237500
0.475000 0.118750 0.237500
0.593750 0.118750 0.237500
0.712500 0.118750 0.237500
0.831250 0.118750 0.237500
0.950000 0.118750 0.237500
0.000000 0.237500 0.237500
0.118750 0.237500 0.237500
0.237500 0.237500 0.237500
0.356250 0.237500 0.237500
0.475000 0.237500 0.237500
0.593750 0.237500 0.237500
0.712500 0.237500 0.237500
0.831250 0.237500 0.237500
0.950000 0.237500 0.237500
0.000000 0.356250 0.237500
0.118750 0.356250 0.237500
0.237500 0.356250 0.237500
0.356250 0.356250 0.237500
0.475000 0.356250 0.237500
0.593750 0.356250 0.237500
0.712500 0.356250 0.237500
0.831250 0.356250 0.237500
0.950000 0.356250 0.237500
0.000000 0.475000 0.237500
0.118750 0.475000 0.237500
0.237500 0.475000 0.237500
0.356250 0.475000 0.237500
0.475000 0.475000 0.237500
0.593750 0.475000 0.237500
0.712500 0.475000 0.237500
0.831250 0.475000 0.237500
0.950000 0.475000 0.237500
0.000000 0.593750 0.237500
0.118750 0.593750 0.237500
0.237500 0.593750 0.237500
0.356250 0.593750 0.237500
0.475000 0.593750 0.237500
0.593750 0.593750 0.237500
0.712500 0.593750 0.237500
0.831250 0.593750 0.237500
0.950000 0.593750 0.237500
0.000000 0.712500 0.237500
0.118750 0.712500 0.237500
0.237500 0.712500 0.237500
0.356250 0.712500 0.237500
0.475000 0.712500 0.237500
0.593750 0.712500 0.237500
0.712500 0.712500 0.237500
0.831250 0.712500 0.237500
0.950000 0.712500 0.237500
0.000000 0.831250 0.237500
0.118750 0.831250 0.237500
0.237500 0.831250 0.237500
0.356250 0.831250 0.237500
0.475000 0.831250 0.237500
0.593750 0.831250 0.237500
0.712500 0.831250 0.237500
0.831250 0.831250 0.237500
0.950000 0.831250 0.237500
0.000000 0.950000 0.237500
0.118750 0.950000 0.237500
0.237500 0.950000 0.237500
0.356250 0.950000 0.237500
0.475000 0.950000 0.237500
0.593750 0.950000 0.237500
0.712500 0.950000 0.237500
0.831250 0.950000 0.237500
0.950000 0.950000 0.237500
0.000000 0.000000 0.356250
0.118750 0.000000 0.356250
0.237500 0.000000 0.356250
0.356250 0.000000 0.356250
0.475000 0.000000 0.356250
0.593750 0.000000 0.356250
0.712500 0.000000 0.356250
0.831250 0.000000 0.356250
0.950000 0.000000 0.356250
0.000000 0.118750 0.356250
0.118750 0.118750 0.356250
0.237500 0.118750 0.356250
0.356250 0.118750 0.356250
0.475000 0.118750 0.356250
0.593750 0.118750 0.356250
0.712500 0.118750 0.356250
0.831250 0.118750 0.356250
0.950000 0.118750 0.356250
0.000000 0.237500 0.356250
0.118750 0.237500 0.356250
0.237500 0.237500 0.356250
0.356250 0.237500 0.356250
0.475000 0.237500 0.356250
0.593750 0.237500 0.356250
0.712500 0.237500 0.356250
0.831250 0.237500 0.356250
0.950000 0.237500 0.356250
0.000000 0.356250 0.356250
0.118750 0.356250 0.356250
0.237500 0.356250 0.356250
0.356250 0.356250 0.356250
0.475000 0.356250 0.356250
0.593750 0.356250 0.356250
0.712500 0.356250 0.356250
0.831250 0.356250 0.356250
0.950000 0.356250 0.356250
0.000000 0.475000 0.356250
0.118750 0.475000 0.356250
0.237500 0.475000 0.356250
0.356250 0.475000 0.356250
0.475000 0.475000 0.356250
0.593750 0.475000 0.356250
0.712500 0.475000 0.356250
0.831250 0.475000 0.356250
0.950000 0.475000 0.356250
0.000000 0.593750 0.356250
0.118750 0.593750 0.356250
0.237500 0.593750 0.356250
0.356250 0.593750 0.356250
0.475000 0.593750 0.356250
0.593750 0.593750 0.356250
0.712500 0.593750 0.356250
0.831250 0.593750 0.356250
0.950000 0.593750 0.356250
0.000000 0.712500 0.356250
0.118750 0.712500 0.356250
0.237500 0.712500 0.356250
0.356250 0.712500 0.356250
0.475000 0.712500 0.356250
0.593750 0.712500 0.356250
0.712500 0.712500 0.356250
0.831250 0.712500 0.356250
0.950000 0.712500 0.356250
0.000000 0.831250 0.356250
0.118750 0.831250 0.356250
0.237500 0.831250 0.356250
0.356250 0.831250 0.356250
0.475000 0.831250 0.356250
0.593750 0.831250 0.356250
0.712500 0.831250 0.356250
0.831250 0.831250 0.356250
0.950000 0.831250 0.356250
0.000000 0.950000 0.356250
0.118750 0.950000 0.356250
0.237500 0.950000 0.356250
0.356250 0.950000 0.356250
0.475000 0.950000 0.356250
0.593750 0.950000 0.356250
0.712500 0.950000 0.356250
0.831250 0.950000 0.356250
0.950000 0.950000 0.356250
0.000000 0.000000 0.475000
0.118750 0.000000 0.475000
0.237500 0.000000 0.475000
0.356250 0.000000 0.475000
0.475000 0.000000 0.475000
0.593750 0.000000 0.475000
0.712500 0.000000 0.475000
0.831250 0.000000 0.475000
0.950000 0.000000 0.475000
0.000000 0.118750 0.475000
0.118750 0.118750 0.475000
0.237500 0.118750 0.475000
0.356250 0.118750 0.475000
0.475000 0.118750 0.475000
0.593750 0.118750 0.475000
0.712500 0.118750 0.475000
0.831250 0.118750 0.475000
0.950000 0.118750 0.475000
0.000000 0.237500 0.475000
0.118750 0.237500 0.475000
0.237500 0.237500 0.475000
0.356250 0.237500 0.475000
0.475000 0.237500 0.475000
0.593750 0.237500 0.475000
0.712500 0.237500 0.475000
0.831250 0.237500 0.475000
0.950000 0.237500 0.475000
0.000000 0.356250 0.475000
0.118750 0.356250 0.475000
0.237500 0.356250 0.475000
0.356250 0.356250 0.475000
0.475000 0.356250 0.475000
0.593750 0.356250 0.475000
0.712500 0.356250 0.475000
0.831250 0.356250 0.475000
0.950000 0.356250 0.475000
0.000000 0.475000 0.475000
0.118750 0.475000 0.475000
0.237500 0.475000 0.475000
0.356250 0.475000 0.475000
0.475000 0.475000 0.475000
0.593750 0.475000 0.475000
0.712500 0.475000 0.475000
0.831250 0.475000 0.475000
0.950000 0.475000 0.475000
0.000000 0.593750 0.475000
0.118750 0.593750 0.475000
0.237500 0.593750 0.475000
0.356250 0.593750 0.475000
0.475000 0.593750 0.475000
0.593750 0.593750 0.475000
0.712500 0.593750 0.475000
0.831250 0.593750 0.475000
0.950000 0.593750 0.475000
0.000000 0.712500 0.475000
0.118750 0.712500 0.475000
0.237500 0.712500 0.475000
0.356250 0.712500 0.475000
0.475000 0.712500 0.475000
0.593750 0.712500 0.475000
0.712500 0.712500 0.475000
0.831250 0.712500 0.475000
0.950000 0.712500 0.475000
0.000000 0.831250 0.475000
0.118750 0.831250 0.475000
0.237500 0.831250 0.475000
0.356250 0.831250 0.475000
0.475000 0.831250 0.475000
0.593750 0.831250 0.475000
0.712500 0.831250 0.475000
0.831250 0.831250 0.475000
0.950000 0.831250 0.475000
0.000000 0.950000 0.475000
0.118750 0.950000 0.475000
0.237500 0.950000 0.475000
0.356250 0.950000 0.475000
0.475000 0.950000 0.475000
0.593750 0.950000 0.475000
0.712500 0.950000 0.475000
0.831250 0.950000 0.475000
0.950000 0.950000 0.475000
0.000000 0.000000 0.593750
0.118750 0.000000 0.593750
0.237500 0.000000 0.593750
0.356250 0.000000 0.593750
0.475000 0.000000 0.593750
0.593750 0.000000 0.593750
0.712500 0.000000 0.593750
0.831250 0.000000 0.593750
0.950000 0.000000 0.593750
0.000000 0.118750 0.593750
0.118750 0.118750 0.593750
0.237500 0.118750 0.593750
0.356250 0.118750 0.593750
0.475000 0.118750 0.593750
0.593750 0.118750 0.593750
0.712500 0.118750 0.593750
0.831250 0.118750 0.593750
0.950000 0.118750 0.593750
0.000000 0.237500 0.593750
0.118750 0.237500 0.593750
0.237500 0.237500 0.593750
0.356250 0.237500 0.593750
0.475000 0.237500 0.593750
0.593750 0.237500 0.593750
0.712500 0.237500 0.593750
0.831250 0.237500 0.593750
0.950000 0.237500 0.593750
0.000000 0.356250 0.593750
0.118750 0.356250 0.593750
0.237500 0.356250 0.593750
0.356250 0.356250 0.593750
0.475000 0.356250 0.593750
0.593750 0.356250 0.593750
0.712500 0.356250 0.593750
0.831250 0.356250 0.593750
0.950000 0.356250 0.593750
0.000000 0.475000 0.593750
0.118750 0.475000 0.593750
0.237500 0.475000 0.593750
0.356250 0.475000 0.593750
0.475000 0.475000 0.593750
0.593750 0.475000 0.593750
0.712500 0.475000 0.593750
0.831250 0.475000 0.593750
0.950000 0.475000 0.593750
0.000000 0.593750 0.593750
0.118750 0.593750 0.593750
0.237500 0.593750 0.593750
0.356250 0.593750 0.593750
0.475000 0.593750 0.593750
0.593750 0.593750 0.593750
0.712500 0.593750 0.593750
0.831250 0.593750 0.593750
0.950000 0.593750 0.593750
0.000000 0.712500 0.593750
0.118750 0.712500 0.593750
0.237500 0.712500 0.593750
0.356250 0.712500 0.593750
0.475000 0.712500 0.593750
0.593750 0.712500 0.593750
0.712500 0.712500 0.593750
0.831250 0.712500 0.593750
0.950000 0.712500 0.593750
0.000000 0.831250 0.593750
0.118750 0.831250 0.593750
0.237500 0.831250 0.593750
0.356250 0.831250 0.593750
0.475000 0.831250 0.593750
0.593750 0.831250 0.593750
0.712500 0.831250 0.593750
0.831250 0.831250 0.593750
0.950000 0.831250 0.593750
0.000000 0.950000 0.593750
0.118750 0.950000 0.593750
0.237500 0.950000 0.593750
0.356250 0.950000 0.593750
0.475000 0.950000 0.593750
0.593750 0.950000 0.593750
0.712500 0.950000 0.593750
0.831250 0.950000 0.593750
0.950000 0.950000 0.593750
0.000000 0.000000 0.712500
0.118750 0.000000 0.712500
0.237500 0.000000 0.712500
0.356250 0.000000 0.712500
0.475000 0.000000 0.712500
0.593750 0.000000 0.712500
0.712500 0.000000 0.712500
0.831250 0.000000 0.712500
0.950000 0.000000 0.712500
0.000000 0.118750 0.712500
0.118750 0.118750 0.712500
0.237500 0.118750 0.712500
0.356250 0.118750 0.712500
0.475000 0.118750 0.712500
0.593750 0.118750 0.712500
0.712500 0.118750 0.712500
0.831250 0.118750 0.712500
0.950000 0.118750 0.712500
0.000000 0.237500 0.712500
0.118750 0.237500 0.712500
0.237500 0.237500 0.712500
0.356250 0.237500 0.712500
0.475000 0.237500 0.712500
0.593750 0.237500 0.712500
0.712500 0.237500 0.712500
0.831250 0.237500 0.712500
0.950000 0.237500 0.712500
0.000000 0.356250 0.712500
0.118750 0.356250 0.712500
0.237500 0.356250 0.712500
0.356250 0.356250 0.712500
0.475000 0.356250 0.712500
0.593750 0.356250 0.712500
0.712500 0.356250 0.712500
0.831250 0.356250 0.712500
0.950000 0.356250 0.712500
0.000000 0.475000 0.712500
0.118750 0.475000 0.712500
0.237500 0.475000 0.712500
0.356250 0.475000 0.712500
0.475000 0.475000 0.712500
0.593750 0.475000 0.712500
0.712500 0.475000 0.712500
0.831250 0.475000 0.712500
0.950000 0.475000 0.712500
0.000000 0.593750 0.712500
0.118750 0.593750 0.712500
0.237500 0.593750 0.712500
0.356250 0.593750 0.712500
0.475000 0.593750 0.712500
0.593750 0.593750 0.712500
0.712500 0.593750 0.712500
0.831250 0.593750 0.712500
0.950000 0.593750 0.712500
0.000000 0.712500 0.712500
0.118750 0.712500 0.712500
0.237500 0.712500 0.712500
0.356250 0.712500 0.712500
0.475000 0.712500 0.712500
0.593750 0.712500 0.712500
0.712500 0.712500 0.712500
0.831250 0.712500 0.712500
0.950000 0.712500 0.712500
0.000000 0.831250 0.712500
0.118750 0.831250 0.712500
0.237500 0.831250 0.712500
0.356250 0.831250 0.712500
0.475000 0.831250 0.712500
0.593750 0.831250 0.712500
0.712500 0.831250 0.712500
0.831250 0.831250 0.712500
0.950000 0.831250 0.712500
0.000000 0.950000 0.712500
0.118750 0.950000 0.712500
0.237500 0.950000 0.712500
0.356250 0.950000 0.712500
0.475000 0.950000 0.712500
0.593750 0.950000 0.712500
0.712500 0.950000 0.712500
0.831250 0.950000 0.712500
0.950000 0.950000 0.712500
0.000000 0.000000 0.831250
0.118750 0.000000 0.831250
0.237500 0.000000 0.831250
0.356250 0.000000 0.831250
0.475000 0.000000 0.831250
0.593750 0.000000 0.831250
0.712500 0.000000 0.831250
0.831250 0.000000 0.831250
0.950000 0.000000 0.831250
0.000000 0.118750 0.831250
0.118750 0.118750 0.831250
0.237500 0.118750 0.831250
0.356250 0.118750 0.831250
0.475000 0.118750 0.831250
0.593750 0.118750 0.831250
0.712500 0.118750 0.831250
0.831250 0.118750 0.831250
0.950000 0.118750 0.831250
0.000000 0.237500 0.831250
0.118750 0.237500 0.831250
0.237500 0.237500 0.831250
0.356250 0.237500 0.831250
0.475000 0.237500 0.831250
0.593750 0.237500 0.831250
0.712500 0.237500 0.831250
0.831250 0.237500 0.831250
0.950000 0.237500 0.831250
0.000000 0.356250 0.831250
0.118750 0.356250 0.831250
0.237500 0.356250 0.831250
0.356250 0.356250 0.831250
0.475000 0.356250 0.831250
0.593750 0.356250 0.831250
0.712500 0.356250 0.831250
0.831250 0.356250 0.831250
0.950000 0.356250 0.831250
0.000000 0.475000 0.831250
0.118750 0.475000 0.831250
0.237500 0.475000 0.831250
0.356250 0.475000 0.831250
0.475000 0.475000 0.831250
0.593750 0.475000 0.831250
0.712500 0.475000 0.831250
0.831250 0.475000 0.831250
0.950000 0.475000 0.831250
0.000000 0.593750 0.831250
0.118750 0.593750 0.831250
0.237500 0.593750 0.831250
0.356250 0.593750 0.831250
0.475000 0.593750 0.831250
0.593750 0.593750 0.831250
0.712500 0.593750 0.831250
0.831250 0.593750 0.831250
0.950000 0.593750 0.831250
0.000000 0.712500 0.831250
0.118750 0.712500 0.831250
0.237500 0.712500 0.831250
0.356250 0.712500 0.831250
0.475000 0.712500 0.831250
0.593750 0.712500 0.831250
0.712500 0.712500 0.831250
0.831250 0.712500 0.831250
0.950000 0.712500 0.831250
0.000000 0.831250 0.831250
0.118750 0.831250 0.831250
0.237500 0.831250 0.831250
0.356250 0.831250 0.831250
0.475000 0.831250 0.831250
0.593750 0.831250 0.831250
0.712500 0.831250 0.831250
0.831250 0.831250 0.831250
0.950000 0.831250 0.831250
0.000000 0.950000 0.831250
0.118750 0.950000 0.831250
0.237500 0.950000 0.831250
0.356250 0.950000 0.831250
0.475000 0.950000 0.831250
0.593750 0.950000 0.831250
0.712500 0.950000 0.831250
0.831250 0.950000 0.831250
0.950000 0.950000 0.831250
0.000000 0.000000 0.950000
0.118750 0.000000 0.950000
0.237500 0.000000 0.950000
0.356250 0.000000 0.950000
0.475000 0.000000 0.950000
0.593750 0.000000 0.950000
0.712500 0.000000 0.950000
0.831250 0.000000 0.950000
0.950000 0.000000 0.950000
0.000000 0.118750 0.950000
0.118750 0.118750 0.950000
0.237500 0.118750 0.950000
0.356250 0.118750 0.950000
0.475000 0.118750 0.950000
0.593750 0.118750 0.950000
0.712500 0.118750 0.950000
0.831250 0.118750 0.950000
0.950000 0.118750 0.950000
0.000000 0.237500 0.950000
0.118750 0.237500 0.950000
0.237500 0.237500 0.950000
0.356250 0.237500 0.950000
0.475000 0.237500 0.950000
0.593750 0.237500 0.950000
0.712500 0.237500 0.950000
0.831250 0.237500 0.950000
0.950000 0.237500 0.950000
0.000000 0.356250 0.950000
0.118750 0.356250 0.950000
0.237500 0.356250 0.950000
0.356250 0.356250 0.950000
0.475000 0.356250 0.950000
0.593750 0.356250 0.950000
0.712500 0.356250 0.950000
0.831250 0.356250 0.950000
0.950000 0.356250 0.950000
0.000000 0.475000 0.950000
0.118750 0.475000 0.950000
0.237500 0.475000 0.950000
0.356250 0.475000 0.950000
0.475000 0.475000 0.950000
0.593750 0.475000 0.950000
0.712500 0.475000 0.950000
0.831250 0.475000 0.950000
0.950000 0.475000 0.950000
0.000000 0.593750 0.950000
0.118750 0.593750 0.950000
0.237500 0.593750 0.950000
0.356250 0.593750 0.950000
0.475000 0.593750 0.950000
0.593750 0.593750 0.950000
0.712500 0.593750 0.950000
0.831250 0.593750 0.950000
0.950000 0.593750 0.950000
0.000000 0.712500 0.950000
0.118750 0.712500 0.950000
0.237500 0.712500 0.950000
0.356250 0.712500 0.950000
0.475000 0.712500 0.950000
0.593750 0.712500 0.950000
0.712500 0.712500 0.950000
0.831250 0.712500 0.950000
0.950000 0.712500 0.950000
0.000000 0.831250 0.950000
0.118750 0.831250 0.950000
0.237500 0.831250 0.950000
0.356250 0.831250 0.950000
0.475000 0.831250 0.950000
0.593750 0.831250 0.950000
0.712500 0.831250 0.950000
0.831250 0.831250 0.950000
0.950000 0.831250 0.950000
0.000000 0.950000 0.950000
0.118750 0.950000 0.950000
0.237500 0.950000 0.950000
0.356250 0.950000 0.950000
0.475000 0.950000 0.950000
0.593750 0.950000 0.950000
0.712500 0.950000 0.950000
0.831250 0.950000 0.950000
0.950000 0.950000 0.950000
