src/assets/luts/film_emulation.cube
TITLE "Film Emulation"
LUT_3D_SIZE 5
0.000000 0.000000 0.000000
0.237500 0.000000 0.000000
0.475000 0.000000 0.000000
0.712500 0.000000 0.000000
0.950000 0.000000 0.000000
0.000000 0.237500 0.000000
0.237500 0.237500 0.000000
0.475000 0.237500 0.000000
0.712500 0.237500 0.000000
0.950000 0.237500 0.000000
0.000000 0.475000 0.000000
0.237500 0.475000 0.000000
0.475000 0.475000 0.000000
0.712500 0.475000 0.000000
0.950000 0.475000 0.000000
0.000000 0.712500 0.000000
0.237500 0.712500 0.000000
0.475000 0.712500 0.000000
0.712500 0.712500 0.000000
0.950000 0.712500 0.000000
0.000000 0.950000 0.000000
0.237500 0.950000 0.000000
0.475000 0.950000 0.000000
0.712500 0.950000 0.000000
0.950000 0.950000 0.000000
0.000000 0.000000 0.237500
0.237500 0.000000 0.237500
0.475000 0.000000 0.237500
0.712500 0.000000 0.237500
0.950000 0.000000 0.237500
0.000000 0.237500 0.237500
0.237500 0.237500 0.237500
0.475000 0.237500 0.237500
0.712500 0.237500 0.237500
0.950000 0.237500 0.237500
0.000000 0.475000 0.237500
0.237500 0.475000 0.237500
0.475000 0.475000 0.237500
0.712500 0.475000 0.237500
0.950000 0.475000 0.237500
0.000000 0.712500 0.237500
0.237500 0.712500 0.237500
0.475000 0.712500 0.237500
0.712500 0.712500 0.237500
0.950000 0.712500 0.237500
0.000000 0.950000 0.237500
0.237500 0.950000 0.237500
0.475000 0.950000 0.237500
0.712500 0.950000 0.237500
0.950000 0.950000 0.237500
0.000000 0.000000 0.475000
0.237500 0.000000 0.475000
0.475000 0.000000 0.475000
0.712500 0.000000 0.475000
0.950000 0.000000 0.475000
0.000000 0.237500 0.475000
0.237500 0.237500 0.475000
0.475000 0.237500 0.475000
0.712500 0.237500 0.475000
0.950000 0.237500 0.475000
0.000000 0.475000 0.475000
0.237500 0.475000 0.475000
0.475000 0.475000 0.475000
0.712500 0.475000 0.475000
0.950000 0.475000 0.475000
0.000000 0.712500 0.475000
0.237500 0.712500 0.475000
0.475000 0.712500 0.475000
0.712500 0.712500 0.475000
0.950000 0.712500 0.475000
0.000000 0.950000 0.475000
0.237500 0.950000 0.475000
0.475000 0.950000 0.475000
0.712500 0.950000 0.475000
0.950000 0.950000 0.475000
0.000000 0.000000 0.712500
0.237500 0.000000 0.712500
0.475000 0.000000 0.712500
0.712500 0.000000 0.712500
0.950000 0.000000 0.712500
0.000000 0.237500 0.712500
0.237500 0.237500 0.712500
0.475000 0.237500 0.712500
0.712500 0.237500 0.712500
0.950000 0.237500 0.712500
0.000000 0.475000 0.712500
0.237500 0.475000 0.712500
0.475000 0.475000 0.712500
0.712500 0.475000 0.712500
0.950000 0.475000 0.712500
0.000000 0.712500 0.712500
0.237500 0.712500 0.712500
0.475000 0.712500 0.712500
0.712500 0.712500 0.712500
0.950000 0.712500 0.712500
0.000000 0.950000 0.712500
0.237500 0.950000 0.712500
0.475000 0.950000 0.712500
0.712500 0.950000 0.712500
0.950000 0.950000 0.712500
0.000000 0.000000 0.950000
0.237500 0.000000 0.950000
0.475000 0.000000 0.950000
0.712500 0.000000 0.950000
0.950000 0.000000 0.950000
0.000000 0.237500 0.950000
0.237500 0.237500 0.950000
0.475000 0.237500 0.950000
0.712500 0.237500 0.950000
0.950000 0.237500 0.950000
0.000000 0.475000 0.950000
0.237500 0.475000 0.950000
0.475000 0.475000 0.950000
0.712500 0.475000 0.950000
0.950000 0.475000 0.950000
0.000000 0.712500 0.950000
0.237500 0.712500 0.950000
0.475000 0.712500 0.950000
0.712500 0.712500 0.950000
0.950000 0.712500 0.950000
0.000000 0.950000 0.950000
0.237500 0.950000 0.950000
0.475000 0.950000 0.950000
0.712500 0.950000 0.950000
0.950000 0.950000 0.950000
