src/assets/luts/film_emulation.cube
TITLE "Film Emulation"
LUT_3D_SIZE 17
0.000000 0.000000 0.000000
0.059375 0.000000 0.000000
0.118750 0.000000 0.000000
0.178125 0.000000 0.000000
0.237500 0.000000 0.000000
0.296875 0.000000 0.000000
0.356250 0.000000 0.000000
0.415625 0.000000 0.000000
0.475000 0.000000 0.000000
0.534375 0.000000 0.000000
0.593750 0.000000 0.000000
0.653125 0.000000 0.000000
0.712500 0.000000 0.000000
0.771875 0.000000 0.000000
0.831250 0.000000 0.000000
0.890625 0.000000 0.000000
0.950000 0.000000 0.000000
0.000000 0.059375 0.000000
0.059375 0.059375 0.000000
0.118750 0.059375 0.000000
0.178125 0.059375 0.000000
0.237500 0.059375 0.000000
0.296875 0.059375 0.000000
0.356250 0.059375 0.000000
0.415625 0.059375 0.000000
0.475000 0.059375 0.000000
0.534375 0.059375 0.000000
0.593750 0.059375 0.000000
0.653125 0.059375 0.000000
0.712500 0.059375 0.000000
0.771875 0.059375 0.000000
0.831250 0.059375 0.000000
0.890625 0.059375 0.000000
0.950000 0.059375 0.000000
0.000000 0.118750 0.000000
0.059375 0.118750 0.000000
0.118750 0.118750 0.000000
0.178125 0.118750 0.000000
0.237500 0.118750 0.000000
0.296875 0.118750 0.000000
0.356250 0.118750 0.000000
0.415625 0.118750 0.000000
0.475000 0.118750 0.000000
0.534375 0.118750 0.000000
0.593750 0.118750 0.000000
0.653125 0.118750 0.000000
0.712500 0.118750 0.000000
0.771875 0.118750 0.000000
0.831250 0.118750 0.000000
0.890625 0.118750 0.000000
0.950000 0.118750 0.000000
0.000000 0.178125 0.000000
0.059375 0.178125 0.000000
0.118750 0.178125 0.000000
0.178125 0.178125 0.000000
0.237500 0.178125 0.000000
0.296875 0.178125 0.000000
0.356250 0.178125 0.000000
0.415625 0.178125 0.000000
0.475000 0.178125 0.000000
0.534375 0.178125 0.000000
0.593750 0.178125 0.000000
0.653125 0.178125 0.000000
0.712500 0.178125 0.000000
0.771875 0.178125 0.000000
0.831250 0.178125 0.000000
0.890625 0.178125 0.000000
0.950000 0.178125 0.000000
0.000000 0.237500 0.000000
0.059375 0.237500 0.000000
0.118750 0.237500 0.000000
0.178125 0.237500 0.000000
0.237500 0.237500 0.000000
0.296875 0.237500 0.000000
0.356250 0.237500 0.000000
0.415625 0.237500 0.000000
0.475000 0.237500 0.000000
0.534375 0.237500 0.000000
0.593750 0.237500 0.000000
0.653125 0.237500 0.000000
0.712500 0.237500 0.000000
0.771875 0.237500 0.000000
0.831250 0.237500 0.000000
0.890625 0.237500 0.000000
0.950000 0.237500 0.000000
0.000000 0.296875 0.000000
0.059375 0.296875 0.000000
0.118750 0.296875 0.000000
0.178125 0.296875 0.000000
0.237500 0.296875 0.000000
0.296875 0.296875 0.000000
0.356250 0.296875 0.000000
0.415625 0.296875 0.000000
0.475000 0.296875 0.000000
0.534375 0.296875 0.000000
0.593750 0.296875 0.000000
0.653125 0.296875 0.000000
0.712500 0.296875 0.000000
0.771875 0.296875 0.000000
0.831250 0.296875 0.000000
0.890625 0.296875 0.000000
0.950000 0.296875 0.000000
0.000000 0.356250 0.000000
0.059375 0.356250 0.000000
0.118750 0.356250 0.000000
0.178125 0.356250 0.000000
0.237500 0.356250 0.000000
0.296875 0.356250 0.000000
0.356250 0.356250 0.000000
0.415625 0.356250 0.000000
0.475000 0.356250 0.000000
0.534375 0.356250 0.000000
0.593750 0.356250 0.000000
0.653125 0.356250 0.000000
0.712500 0.356250 0.000000
0.771875 0.356250 0.000000
0.831250 0.356250 0.000000
0.890625 0.356250 0.000000
0.950000 0.356250 0.000000
0.000000 0.415625 0.000000
0.059375 0.415625 0.000000
0.118750 0.415625 0.000000
0.178125 0.415625 0.000000
0.237500 0.415625 0.000000
0.296875 0.415625 0.000000
0.356250 0.415625 0.000000
0.415625 0.415625 0.000000
0.475000 0.415625 0.000000
0.534375 0.415625 0.000000
0.593750 0.415625 0.000000
0.653125 0.415625 0.000000
0.712500 0.415625 0.000000
0.771875 0.415625 0.000000
0.831250 0.415625 0.000000
0.890625 0.415625 0.000000
0.950000 0.415625 0.000000
0.000000 0.475000 0.000000
0.059375 0.475000 0.000000
0.118750 0.475000 0.000000
0.178125 0.475000 0.000000
0.237500 0.475000 0.000000
0.296875 0.475000 0.000000
0.356250 0.475000 0.000000
0.415625 0.475000 0.000000
0.475000 0.475000 0.000000
0.534375 0.475000 0.000000
0.593750 0.475000 0.000000
0.653125 0.475000 0.000000
0.712500 0.475000 0.000000
0.771875 0.475000 0.000000
0.831250 0.475000 0.000000
0.890625 0.475000 0.000000
0.950000 0.475000 0.000000
0.000000 0.534375 0.000000
0.059375 0.534375 0.000000
0.118750 0.534375 0.000000
0.178125 0.534375 0.000000
0.237500 0.534375 0.000000
0.296875 0.534375 0.000000
0.356250 0.534375 0.000000
0.415625 0.534375 0.000000
0.475000 0.534375 0.000000
0.534375 0.534375 0.000000
0.593750 0.534375 0.000000
0.653125 0.534375 0.000000
0.712500 0.534375 0.000000
0.771875 0.534375 0.000000
0.831250 0.534375 0.000000
0.890625 0.534375 0.000000
0.950000 0.534375 0.000000
0.000000 0.593750 0.000000
0.059375 0.593750 0.000000
0.118750 0.593750 0.000000
0.178125 0.593750 0.000000
0.237500 0.593750 0.000000
0.296875 0.593750 0.000000
0.356250 0.593750 0.000000
0.415625 0.593750 0.000000
0.475000 0.593750 0.000000
0.534375 0.593750 0.000000
0.593750 0.593750 0.000000
0.653125 0.593750 0.000000
0.712500 0.593750 0.000000
0.771875 0.593750 0.000000
0.831250 0.593750 0.000000
0.890625 0.593750 0.000000
0.950000 0.593750 0.000000
0.000000 0.653125 0.000000
0.059375 0.653125 0.000000
0.118750 0.653125 0.000000
0.178125 0.653125 0.000000
0.237500 0.653125 0.000000
0.296875 0.653125 0.000000
0.356250 0.653125 0.000000
0.415625 0.653125 0.000000
0.475000 0.653125 0.000000
0.534375 0.653125 0.000000
0.593750 0.653125 0.000000
0.653125 0.653125 0.000000
0.712500 0.653125 0.000000
0.771875 0.653125 0.000000
0.831250 0.653125 0.000000
0.890625 0.653125 0.000000
0.950000 0.653125 0.000000
0.000000 0.712500 0.000000
0.059375 0.712500 0.000000
0.118750 0.712500 0.000000
0.178125 0.712500 0.000000
0.237500 0.712500 0.000000
0.296875 0.712500 0.000000
0.356250 0.712500 0.000000
0.415625 0.712500 0.000000
0.475000 0.712500 0.000000
0.534375 0.712500 0.000000
0.593750 0.712500 0.000000
0.653125 0.712500 0.000000
0.712500 0.712500 0.000000
0.771875 0.712500 0.000000
0.831250 0.712500 0.000000
0.890625 0.712500 0.000000
0.950000 0.712500 0.000000
0.000000 0.771875 0.000000
0.059375 0.771875 0.000000
0.118750 0.771875 0.000000
0.178125 0.771875 0.000000
0.237500 0.771875 0.000000
0.296875 0.771875 0.000000
0.356250 0.771875 0.000000
0.415625 0.771875 0.000000
0.475000 0.771875 0.000000
0.534375 0.771875 0.000000
0.593750 0.771875 0.000000
0.653125 0.771875 0.000000
0.712500 0.771875 0.000000
0.771875 0.771875 0.000000
0.831250 0.771875 0.000000
0.890625 0.771875 0.000000
0.950000 0.771875 0.000000
0.000000 0.831250 0.000000
0.059375 0.831250 0.000000
0.118750 0.831250 0.000000
0.178125 0.831250 0.000000
0.237500 0.831250 0.000000
0.296875 0.831250 0.000000
0.356250 0.831250 0.000000
0.415625 0.831250 0.000000
0.475000 0.831250 0.000000
0.534375 0.831250 0.000000
0.593750 0.831250 0.000000
0.653125 0.831250 0.000000
0.712500 0.831250 0.000000
0.771875 0.831250 0.000000
0.831250 0.831250 0.000000
0.890625 0.831250 0.000000
0.950000 0.831250 0.000000
0.000000 0.890625 0.000000
0.059375 0.890625 0.000000
0.118750 0.890625 0.000000
0.178125 0.890625 0.000000
0.237500 0.890625 0.000000
0.296875 0.890625 0.000000
0.356250 0.890625 0.000000
0.415625 0.890625 0.000000
0.475000 0.890625 0.000000
0.534375 0.890625 0.000000
0.593750 0.890625 0.000000
0.653125 0.890625 0.000000
0.712500 0.890625 0.000000
0.771875 0.890625 0.000000
0.831250 0.890625 0.000000
0.890625 0.890625 0.000000
0.950000 0.890625 0.000000
0.000000 0.950000 0.000000
0.059375 0.950000 0.000000
0.118750 0.950000 0.000000
0.178125 0.950000 0.000000
0.237500 0.950000 0.000000
0.296875 0.950000 0.000000
0.356250 0.950000 0.000000
0.415625 0.950000 0.000000
0.475000 0.950000 0.000000
0.534375 0.950000 0.000000
0.593750 0.950000 0.000000
0.653125 0.950000 0.000000
0.712500 0.950000 0.000000
0.771875 0.950000 0.000000
0.831250 0.950000 0.000000
0.890625 0.950000 0.000000
0.950000 0.950000 0.000000
0.000000 0.000000 0.059375
0.059375 0.000000 0.059375
0.118750 0.000000 0.059375
0.178125 0.000000 0.059375
0.237500 0.000000 0.059375
0.296875 0.000000 0.059375
0.356250 0.000000 0.059375
0.415625 0.000000 0.059375
0.475000 0.000000 0.059375
0.534375 0.000000 0.059375
0.593750 0.000000 0.059375
0.653125 0.000000 0.059375
0.712500 0.000000 0.059375
0.771875 0.000000 0.059375
0.831250 0.000000 0.059375
0.890625 0.000000 0.059375
0.950000 0.000000 0.059375
0.000000 0.059375 0.059375
0.059375 0.059375 0.059375
0.118750 0.059375 0.059375
0.178125 0.059375 0.059375
0.237500 0.059375 0.059375
0.296875 0.059375 0.059375
0.356250 0.059375 0.059375
0.415625 0.059375 0.059375
0.475000 0.059375 0.059375
0.534375 0.059375 0.059375
0.593750 0.059375 0.059375
0.653125 0.059375 0.059375
0.712500 0.059375 0.059375
0.771875 0.059375 0.059375
0.831250 0.059375 0.059375
0.890625 0.059375 0.059375
0.950000 0.059375 0.059375
0.000000 0.118750 0.059375
0.059375 0.118750 0.059375
0.118750 0.118750 0.059375
0.178125 0.118750 0.059375
0.237500 0.118750 0.059375
0.296875 0.118750 0.059375
0.356250 0.118750 0.059375
0.415625 0.118750 0.059375
0.475000 0.118750 0.059375
0.534375 0.118750 0.059375
0.593750 0.118750 0.059375
0.653125 0.118750 0.059375
0.712500 0.118750 0.059375
0.771875 0.118750 0.059375
0.831250 0.118750 0.059375
0.890625 0.118750 0.059375
0.950000 0.118750 0.059375
0.000000 0.178125 0.059375
0.059375 0.178125 0.059375
0.118750 0.178125 0.059375
0.178125 0.178125 0.059375
0.237500 0.178125 0.059375
0.296875 0.178125 0.059375
0.356250 0.178125 0.059375
0.415625 0.178125 0.059375
0.475000 0.178125 0.059375
0.534375 0.178125 0.059375
0.593750 0.178125 0.059375
0.653125 0.178125 0.059375
0.712500 0.178125 0.059375
0.771875 0.178125 0.059375
0.831250 0.178125 0.059375
0.890625 0.178125 0.059375
0.950000 0.178125 0.059375
0.000000 0.237500 0.059375
0.059375 0.237500 0.059375
0.118750 0.237500 0.059375
0.178125 0.237500 0.059375
0.237500 0.237500 0.059375
0.296875 0.237500 0.059375
0.356250 0.237500 0.059375
0.415625 0.237500 0.059375
0.475000 0.237500 0.059375
0.534375 0.237500 0.059375
0.593750 0.237500 0.059375
0.653125 0.237500 0.059375
0.712500 0.237500 0.059375
0.771875 0.237500 0.059375
0.831250 0.237500 0.059375
0.890625 0.237500 0.059375
0.950000 0.237500 0.059375
0.000000 0.296875 0.059375
0.059375 0.296875 0.059375
0.118750 0.296875 0.059375
0.178125 0.296875 0.059375
0.237500 0.296875 0.059375
0.296875 0.296875 0.059375
0.356250 0.296875 0.059375
0.415625 0.296875 0.059375
0.475000 0.296875 0.059375
0.534375 0.296875 0.059375
0.593750 0.296875 0.059375
0.653125 0.296875 0.059375
0.712500 0.296875 0.059375
0.771875 0.296875 0.059375
0.831250 0.296875 0.059375
0.890625 0.296875 0.059375
0.950000 0.296875 0.059375
0.000000 0.356250 0.059375
0.059375 0.356250 0.059375
0.118750 0.356250 0.059375
0.178125 0.356250 0.059375
0.237500 0.356250 0.059375
0.296875 0.356250 0.059375
0.356250 0.356250 0.059375
0.415625 0.356250 0.059375
0.475000 0.356250 0.059375
0.534375 0.356250 0.059375
0.593750 0.356250 0.059375
0.653125 0.356250 0.059375
0.712500 0.356250 0.059375
0.771875 0.356250 0.059375
0.831250 0.356250 0.059375
0.890625 0.356250 0.059375
0.950000 0.356250 0.059375
0.000000 0.415625 0.059375
0.059375 0.415625 0.059375
0.118750 0.415625 0.059375
0.178125 0.415625 0.059375
0.237500 0.415625 0.059375
0.296875 0.415625 0.059375
0.356250 0.415625 0.059375
0.415625 0.415625 0.059375
0.475000 0.415625 0.059375
0.534375 0.415625 0.059375
0.593750 0.415625 0.059375
0.653125 0.415625 0.059375
0.712500 0.415625 0.059375
0.771875 0.415625 0.059375
0.831250 0.415625 0.059375
0.890625 0.415625 0.059375
0.950000 0.415625 0.059375
0.000000 0.475000 0.059375
0.059375 0.475000 0.059375
0.118750 0.475000 0.059375
0.178125 0.475000 0.059375
0.237500 0.475000 0.059375
0.296875 0.475000 0.059375
0.356250 0.475000 0.059375
0.415625 0.475000 0.059375
0.475000 0.475000 0.059375
0.534375 0.475000 0.059375
0.593750 0.475000 0.059375
0.653125 0.475000 0.059375
0.712500 0.475000 0.059375
0.771875 0.475000 0.059375
0.831250 0.475000 0.059375
0.890625 0.475000 0.059375
0.950000 0.475000 0.059375
0.000000 0.534375 0.059375
0.059375 0.534375 0.059375
0.118750 0.534375 0.059375
0.178125 0.534375 0.059375
0.237500 0.534375 0.059375
0.296875 0.534375 0.059375
0.356250 0.534375 0.059375
0.415625 0.534375 0.059375
0.475000 0.534375 0.059375
0.534375 0.534375 0.059375
0.593750 0.534375 0.059375
0.653125 0.534375 0.059375
0.712500 0.534375 0.059375
0.771875 0.534375 0.059375
0.831250 0.534375 0.059375
0.890625 0.534375 0.059375
0.950000 0.534375 0.059375
0.000000 0.593750 0.059375
0.059375 0.593750 0.059375
0.118750 0.593750 0.059375
0.178125 0.593750 0.059375
0.237500 0.593750 0.059375
0.296875 0.593750 0.059375
0.356250 0.593750 0.059375
0.415625 0.593750 0.059375
0.475000 0.593750 0.059375
0.534375 0.593750 0.059375
0.593750 0.593750 0.059375
0.653125 0.593750 0.059375
0.712500 0.593750 0.059375
0.771875 0.593750 0.059375
0.831250 0.593750 0.059375
0.890625 0.593750 0.059375
0.950000 0.593750 0.059375
0.000000 0.653125 0.059375
0.059375 0.653125 0.059375
0.118750 0.653125 0.059375
0.178125 0.653125 0.059375
0.237500 0.653125 0.059375
0.296875 0.653125 0.059375
0.356250 0.653125 0.059375
0.415625 0.653125 0.059375
0.475000 0.653125 0.059375
0.534375 0.653125 0.059375
0.593750 0.653125 0.059375
0.653125 0.653125 0.059375
0.712500 0.653125 0.059375
0.771875 0.653125 0.059375
0.831250 0.653125 0.059375
0.890625 0.653125 0.059375
0.950000 0.653125 0.059375
0.000000 0.712500 0.059375
0.059375 0.712500 0.059375
0.118750 0.712500 0.059375
0.178125 0.712500 0.059375
0.237500 0.712500 0.059375
0.296875 0.712500 0.059375
0.356250 0.712500 0.059375
0.415625 0.712500 0.059375
0.475000 0.712500 0.059375
0.534375 0.712500 0.059375
0.593750 0.712500 0.059375
0.653125 0.712500 0.059375
0.712500 0.712500 0.059375
0.771875 0.712500 0.059375
0.831250 0.712500 0.059375
0.890625 0.712500 0.059375
0.950000 0.712500 0.059375
0.000000 0.771875 0.059375
0.059375 0.771875 0.059375
0.118750 0.771875 0.059375
0.178125 0.771875 0.059375
0.237500 0.771875 0.059375
0.296875 0.771875 0.059375
0.356250 0.771875 0.059375
0.415625 0.771875 0.059375
0.475000 0.771875 0.059375
0.534375 0.771875 0.059375
0.593750 0.771875 0.059375
0.653125 0.771875 0.059375
0.712500 0.771875 0.059375
0.771875 0.771875 0.059375
0.831250 0.771875 0.059375
0.890625 0.771875 0.059375
0.950000 0.771875 0.059375
0.000000 0.831250 0.059375
0.059375 0.831250 0.059375
0.118750 0.831250 0.059375
0.178125 0.831250 0.059375
0.237500 0.831250 0.059375
0.296875 0.831250 0.059375
0.356250 0.831250 0.059375
0.415625 0.831250 0.059375
0.475000 0.831250 0.059375
0.534375 0.831250 0.059375
0.593750 0.831250 0.059375
0.653125 0.831250 0.059375
0.712500 0.831250 0.059375
0.771875 0.831250 0.059375
0.831250 0.831250 0.059375
0.890625 0.831250 0.059375
0.950000 0.831250 0.059375
0.000000 0.890625 0.059375
0.059375 0.890625 0.059375
0.118750 0.890625 0.059375
0.178125 0.890625 0.059375
0.237500 0.890625 0.059375
0.296875 0.890625 0.059375
0.356250 0.890625 0.059375
0.415625 0.890625 0.059375
0.475000 0.890625 0.059375
0.534375 0.890625 0.059375
0.593750 0.890625 0.059375
0.653125 0.890625 0.059375
0.712500 0.890625 0.059375
0.771875 0.890625 0.059375
0.831250 0.890625 0.059375
0.890625 0.890625 0.059375
0.950000 0.890625 0.059375
0.000000 0.950000 0.059375
0.059375 0.950000 0.059375
0.118750 0.950000 0.059375
0.178125 0.950000 0.059375
0.237500 0.950000 0.059375
0.296875 0.950000 0.059375
0.356250 0.950000 0.059375
0.415625 0.950000 0.059375
0.475000 0.950000 0.059375
0.534375 0.950000 0.059375
0.593750 0.950000 0.059375
0.653125 0.950000 0.059375
0.712500 0.950000 0.059375
0.771875 0.950000 0.059375
0.831250 0.950000 0.059375
0.890625 0.950000 0.059375
0.950000 0.950000 0.059375
0.000000 0.000000 0.118750
0.059375 0.000000 0.118750
0.118750 0.000000 0.118750
0.178125 0.000000 0.118750
0.237500 0.000000 0.118750
0.296875 0.000000 0.118750
0.356250 0.000000 0.118750
0.415625 0.000000 0.118750
0.475000 0.000000 0.118750
0.534375 0.000000 0.118750
0.593750 0.000000 0.118750
0.653125 0.000000 0.118750
0.712500 0.000000 0.118750
0.771875 0.000000 0.118750
0.831250 0.000000 0.118750
0.890625 0.000000 0.118750
0.950000 0.000000 0.118750
0.000000 0.059375 0.118750
0.059375 0.059375 0.118750
0.118750 0.059375 0.118750
0.178125 0.059375 0.118750
0.237500 0.059375 0.118750
0.296875 0.059375 0.118750
0.356250 0.059375 0.118750
0.415625 0.059375 0.118750
0.475000 0.059375 0.118750
0.534375 0.059375 0.118750
0.593750 0.059375 0.118750
0.653125 0.059375 0.118750
0.712500 0.059375 0.118750
0.771875 0.059375 0.118750
0.831250 0.059375 0.118750
0.890625 0.059375 0.118750
0.950000 0.059375 0.118750
0.000000 0.118750 0.118750
0.059375 0.118750 0.118750
0.118750 0.118750 0.118750
0.178125 0.118750 0.118750
0.237500 0.118750 0.118750
0.296875 0.118750 0.118750
0.356250 0.118750 0.118750
0.415625 0.118750 0.118750
0.475000 0.118750 0.118750
0.534375 0.118750 0.118750
0.593750 0.118750 0.118750
0.653125 0.118750 0.118750
0.712500 0.118750 0.118750
0.771875 0.118750 0.118750
0.831250 0.118750 0.118750
0.890625 0.118750 0.118750
0.950000 0.118750 0.118750
0.000000 0.178125 0.118750
0.059375 0.178125 0.118750
0.118750 0.178125 0.118750
0.178125 0.178125 0.118750
0.237500 0.178125 0.118750
0.296875 0.178125 0.118750
0.356250 0.178125 0.118750
0.415625 0.178125 0.118750
0.475000 0.178125 0.118750
0.534375 0.178125 0.118750
0.593750 0.178125 0.118750
0.653125 0.178125 0.118750
0.712500 0.178125 0.118750
0.771875 0.178125 0.118750
0.831250 0.178125 0.118750
0.890625 0.178125 0.118750
0.950000 0.178125 0.118750
0.000000 0.237500 0.118750
0.059375 0.237500 0.118750
0.118750 0.237500 0.118750
0.178125 0.237500 0.118750
0.237500 0.237500 0.118750
0.296875 0.237500 0.118750
0.356250 0.237500 0.118750
0.415625 0.237500 0.118750
0.475000 0.237500 0.118750
0.534375 0.237500 0.118750
0.593750 0.237500 0.118750
0.653125 0.237500 0.118750
0.712500 0.237500 0.118750
0.771875 0.237500 0.118750
0.831250 0.237500 0.118750
0.890625 0.237500 0.118750
0.950000 0.237500 0.118750
0.000000 0.296875 0.118750
0.059375 0.296875 0.118750
0.118750 0.296875 0.118750
0.178125 0.296875 0.118750
0.237500 0.296875 0.118750
0.296875 0.296875 0.118750
0.356250 0.296875 0.118750
0.415625 0.296875 0.118750
0.475000 0.296875 0.118750
0.534375 0.296875 0.118750
0.593750 0.296875 0.118750
0.653125 0.296875 0.118750
0.712500 0.296875 0.118750
0.771875 0.296875 0.118750
0.831250 0.296875 0.118750
0.890625 0.296875 0.118750
0.950000 0.296875 0.118750
0.000000 0.356250 0.118750
0.059375 0.356250 0.118750
0.118750 0.356250 0.118750
0.178125 0.356250 0.118750
0.237500 0.356250 0.118750
0.296875 0.356250 0.118750
0.356250 0.356250 0.118750
0.415625 0.356250 0.118750
0.475000 0.356250 0.118750
0.534375 0.356250 0.118750
0.593750 0.356250 0.118750
0.653125 0.356250 0.118750
0.712500 0.356250 0.118750
0.771875 0.356250 0.118750
0.831250 0.356250 0.118750
0.890625 0.356250 0.118750
0.950000 0.356250 0.118750
0.000000 0.415625 0.118750
0.059375 0.415625 0.118750
0.118750 0.415625 0.118750
0.178125 0.415625 0.118750
0.237500 0.415625 0.118750
0.296875 0.415625 0.118750
0.356250 0.415625 0.118750
0.415625 0.415625 0.118750
0.475000 0.415625 0.118750
0.534375 0.415625 0.118750
0.593750 0.415625 0.118750
0.653125 0.415625 0.118750
0.712500 0.415625 0.118750
0.771875 0.415625 0.118750
0.831250 0.415625 0.118750
0.890625 0.415625 0.118750
0.950000 0.415625 0.118750
0.000000 0.475000 0.118750
0.059375 0.475000 0.118750
0.118750 0.475000 0.118750
0.178125 0.475000 0.118750
0.237500 0.475000 0.118750
0.296875 0.475000 0.118750
0.356250 0.475000 0.118750
0.415625 0.475000 0.118750
0.475000 0.475000 0.118750
0.534375 0.475000 0.118750
0.593750 0.475000 0.118750
0.653125 0.475000 0.118750
0.712500 0.475000 0.118750
0.771875 0.475000 0.118750
0.831250 0.475000 0.118750
0.890625 0.475000 0.118750
0.950000 0.475000 0.118750
0.000000 0.534375 0.118750
0.059375 0.534375 0.118750
0.118750 0.534375 0.118750
0.178125 0.534375 0.118750
0.237500 0.534375 0.118750
0.296875 0.534375 0.118750
0.356250 0.534375 0.118750
0.415625 0.534375 0.118750
0.475000 0.534375 0.118750
0.534375 0.534375 0.118750
0.593750 0.534375 0.118750
0.653125 0.534375 0.118750
0.712500 0.534375 0.118750
0.771875 0.534375 0.118750
0.831250 0.534375 0.118750
0.890625 0.534375 0.118750
0.950000 0.534375 0.118750
0.000000 0.593750 0.118750
0.059375 0.593750 0.118750
0.118750 0.593750 0.118750
0.178125 0.593750 0.118750
0.237500 0.593750 0.118750
0.296875 0.593750 0.118750
0.356250 0.593750 0.118750
0.415625 0.593750 0.118750
0.475000 0.593750 0.118750
0.534375 0.593750 0.118750
0.593750 0.593750 0.118750
0.653125 0.593750 0.118750
0.712500 0.593750 0.118750
0.771875 0.593750 0.118750
0.831250 0.593750 0.118750
0.890625 0.593750 0.118750
0.950000 0.593750 0.118750
0.000000 0.653125 0.118750
0.059375 0.653125 0.118750
0.118750 0.653125 0.118750
0.178125 0.653125 0.118750
0.237500 0.653125 0.118750
0.296875 0.653125 0.118750
0.356250 0.653125 0.118750
0.415625 0.653125 0.118750
0.475000 0.653125 0.118750
0.534375 0.653125 0.118750
0.593750 0.653125 0.118750
0.653125 0.653125 0.118750
0.712500 0.653125 0.118750
0.771875 0.653125 0.118750
0.831250 0.653125 0.118750
0.890625 0.653125 0.118750
0.950000 0.653125 0.118750
0.000000 0.712500 0.118750
0.059375 0.712500 0.118750
0.118750 0.712500 0.118750
0.178125 0.712500 0.118750
0.237500 0.712500 0.118750
0.296875 0.712500 0.118750
0.356250 0.712500 0.118750
0.415625 0.712500 0.118750
0.475000 0.712500 0.118750
0.534375 0.712500 0.118750
0.593750 0.712500 0.118750
0.653125 0.712500 0.118750
0.712500 0.712500 0.118750
0.771875 0.712500 0.118750
0.831250 0.712500 0.118750
0.890625 0.712500 0.118750
0.950000 0.712500 0.118750
0.000000 0.771875 0.118750
0.059375 0.771875 0.118750
0.118750 0.771875 0.118750
0.178125 0.771875 0.118750
0.237500 0.771875 0.118750
0.296875 0.771875 0.118750
0.356250 0.771875 0.118750
0.415625 0.771875 0.118750
0.475000 0.771875 0.118750
0.534375 0.771875 0.118750
0.593750 0.771875 0.118750
0.653125 0.771875 0.118750
0.712500 0.771875 0.118750
0.771875 0.771875 0.118750
0.831250 0.771875 0.118750
0.890625 0.771875 0.118750
0.950000 0.771875 0.118750
0.000000 0.831250 0.118750
0.059375 0.831250 0.118750
0.118750 0.831250 0.118750
0.178125 0.831250 0.118750
0.237500 0.831250 0.118750
0.296875 0.831250 0.118750
0.356250 0.831250 0.118750
0.415625 0.831250 0.118750
0.475000 0.831250 0.118750
0.534375 0.831250 0.118750
0.593750 0.831250 0.118750
0.653125 0.831250 0.118750
0.712500 0.831250 0.118750
0.771875 0.831250 0.118750
0.831250 0.831250 0.118750
0.890625 0.831250 0.118750
0.950000 0.831250 0.118750
0.000000 0.890625 0.118750
0.059375 0.890625 0.118750
0.118750 0.890625 0.118750
0.178125 0.890625 0.118750
0.237500 0.890625 0.118750
0.296875 0.890625 0.118750
0.356250 0.890625 0.118750
0.415625 0.890625 0.118750
0.475000 0.890625 0.118750
0.534375 0.890625 0.118750
0.593750 0.890625 0.118750
0.653125 0.890625 0.118750
0.712500 0.890625 0.118750
0.771875 0.890625 0.118750
0.831250 0.890625 0.118750
0.890625 0.890625 0.118750
0.950000 0.890625 0.118750
0.000000 0.950000 0.118750
0.059375 0.950000 0.118750
0.118750 0.950000 0.118750
0.178125 0.950000 0.118750
0.237500 0.950000 0.118750
0.296875 0.950000 0.118750
0.356250 0.950000 0.118750
0.415625 0.950000 0.118750
0.475000 0.950000 0.118750
0.534375 0.950000 0.118750
0.593750 0.950000 0.118750
0.653125 0.950000 0.118750
0.712500 0.950000 0.118750
0.771875 0.950000 0.118750
0.831250 0.950000 0.118750
0.890625 0.950000 0.118750
0.950000 0.950000 0.118750
0.000000 0.000000 0.178125
0.059375 0.000000 0.178125
0.118750 0.000000 0.178125
0.178125 0.000000 0.178125
0.237500 0.000000 0.178125
0.296875 0.000000 0.178125
0.356250 0.000000 0.178125
0.415625 0.000000 0.178125
0.475000 0.000000 0.178125
0.534375 0.000000 0.178125
0.593750 0.000000 0.178125
0.653125 0.000000 0.178125
0.712500 0.000000 0.178125
0.771875 0.000000 0.178125
0.831250 0.000000 0.178125
0.890625 0.000000 0.178125
0.950000 0.000000 0.178125
0.000000 0.059375 0.178125
0.059375 0.059375 0.178125
0.118750 0.059375 0.178125
