src/assets/luts/golden_hour.cube
TITLE "Golden Hour"
LUT_3D_SIZE 9
0.000000 0.000000 0.000000
0.137500 0.000000 0.000000
0.275000 0.000000 0.000000
0.412500 0.000000 0.000000
0.550000 0.000000 0.000000
0.687500 0.000000 0.000000
0.825000 0.000000 0.000000
0.962500 0.000000 0.000000
1.000000 0.000000 0.000000
0.000000 0.131250 0.000000
0.137500 0.131250 0.000000
0.275000 0.131250 0.000000
0.412500 0.131250 0.000000
0.550000 0.131250 0.000000
0.687500 0.131250 0.000000
0.825000 0.131250 0.000000
0.962500 0.131250 0.000000
1.000000 0.131250 0.000000
0.000000 0.262500 0.000000
0.137500 0.262500 0.000000
0.275000 0.262500 0.000000
0.412500 0.262500 0.000000
0.550000 0.262500 0.000000
0.687500 0.262500 0.000000
0.825000 0.262500 0.000000
0.962500 0.262500 0.000000
1.000000 0.262500 0.000000
0.000000 0.393750 0.000000
0.137500 0.393750 0.000000
0.275000 0.393750 0.000000
0.412500 0.393750 0.000000
0.550000 0.393750 0.000000
0.687500 0.393750 0.000000
0.825000 0.393750 0.000000
0.962500 0.393750 0.000000
1.000000 0.393750 0.000000
0.000000 0.525000 0.000000
0.137500 0.525000 0.000000
0.275000 0.525000 0.000000
0.412500 0.525000 0.000000
0.550000 0.525000 0.000000
0.687500 0.525000 0.000000
0.825000 0.525000 0.000000
0.962500 0.525000 0.000000
1.000000 0.525000 0.000000
0.000000 0.656250 0.000000
0.137500 0.656250 0.000000
0.275000 0.656250 0.000000
0.412500 0.656250 0.000000
0.550000 0.656250 0.000000
0.687500 0.656250 0.000000
0.825000 0.656250 0.000000
0.962500 0.656250 0.000000
1.000000 0.656250 0.000000
0.000000 0.787500 0.000000
0.137500 0.787500 0.000000
0.275000 0.787500 0.000000
0.412500 0.787500 0.000000
0.550000 0.787500 0.000000
0.687500 0.787500 0.000000
0.825000 0.787500 0.000000
0.962500 0.787500 0.000000
1.000000 0.787500 0.000000
0.000000 0.918750 0.000000
0.137500 0.918750 0.000000
0.275000 0.918750 0.000000
0.412500 0.918750 0.000000
0.550000 0.918750 0.000000
0.687500 0.918750 0.000000
0.825000 0.918750 0.000000
0.962500 0.918750 0.000000
1.000000 0.918750 0.000000
0.000000 1.000000 0.000000
0.137500 1.000000 0.000000
0.275000 1.000000 0.000000
0.412500 1.000000 0.000000
0.550000 1.000000 0.000000
0.687500 1.000000 0.000000
0.825000 1.000000 0.000000
0.962500 1.000000 0.000000
1.000000 1.000000 0.000000
0.000000 0.000000 0.112500
0.137500 0.000000 0.112500
0.275000 0.000000 0.112500
0.412500 0.000000 0.112500
0.550000 0.000000 0.112500
0.687500 0.000000 0.112500
0.825000 0.000000 0.112500
0.962500 0.000000 0.112500
1.000000 0.000000 0.112500
0.000000 0.131250 0.112500
0.137500 0.131250 0.112500
0.275000 0.131250 0.112500
0.412500 0.131250 0.112500
0.550000 0.131250 0.112500
0.687500 0.131250 0.112500
0.825000 0.131250 0.112500
0.962500 0.131250 0.112500
1.000000 0.131250 0.112500
0.000000 0.262500 0.112500
0.137500 0.262500 0.112500
0.275000 0.262500 0.112500
0.412500 0.262500 0.112500
0.550000 0.262500 0.112500
0.687500 0.262500 0.112500
0.825000 0.262500 0.112500
0.962500 0.262500 0.112500
1.000000 0.262500 0.112500
0.000000 0.393750 0.112500
0.137500 0.393750 0.112500
0.275000 0.393750 0.112500
0.412500 0.393750 0.112500
0.550000 0.393750 0.112500
0.687500 0.393750 0.112500
0.825000 0.393750 0.112500
0.962500 0.393750 0.112500
1.000000 0.393750 0.112500
0.000000 0.525000 0.112500
0.137500 0.525000 0.112500
0.275000 0.525000 0.112500
0.412500 0.525000 0.112500
0.550000 0.525000 0.112500
0.687500 0.525000 0.112500
0.825000 0.525000 0.112500
0.962500 0.525000 0.112500
1.000000 0.525000 0.112500
0.000000 0.656250 0.112500
0.137500 0.656250 0.112500
0.275000 0.656250 0.112500
0.412500 0.656250 0.112500
0.550000 0.656250 0.112500
0.687500 0.656250 0.112500
0.825000 0.656250 0.112500
0.962500 0.656250 0.112500
1.000000 0.656250 0.112500
0.000000 0.787500 0.112500
0.137500 0.787500 0.112500
0.275000 0.787500 0.112500
0.412500 0.787500 0.112500
0.550000 0.787500 0.112500
0.687500 0.787500 0.112500
0.825000 0.787500 0.112500
0.962500 0.787500 0.112500
1.000000 0.787500 0.112500
0.000000 0.918750 0.112500
0.137500 0.918750 0.112500
0.275000 0.918750 0.112500
0.412500 0.918750 0.112500
0.550000 0.918750 0.112500
0.687500 0.918750 0.112500
0.825000 0.918750 0.112500
0.962500 0.918750 0.112500
1.000000 0.918750 0.112500
0.000000 1.000000 0.112500
0.137500 1.000000 0.112500
0.275000 1.000000 0.112500
0.412500 1.000000 0.112500
0.550000 1.000000 0.112500
0.687500 1.000000 0.112500
0.825000 1.000000 0.112500
0.962500 1.000000 0.112500
1.000000 1.000000 0.112500
0.000000 0.000000 0.225000
0.137500 0.000000 0.225000
0.275000 0.000000 0.225000
0.412500 0.000000 0.225000
0.550000 0.000000 0.225000
0.687500 0.000000 0.225000
0.825000 0.000000 0.225000
0.962500 0.000000 0.225000
1.000000 0.000000 0.225000
0.000000 0.131250 0.225000
0.137500 0.131250 0.225000
0.275000 0.131250 0.225000
0.412500 0.131250 0.225000
0.550000 0.131250 0.225000
0.687500 0.131250 0.225000
0.825000 0.131250 0.225000
0.962500 0.131250 0.225000
1.000000 0.131250 0.225000
0.000000 0.262500 0.225000
0.137500 0.262500 0.225000
0.275000 0.262500 0.225000
0.412500 0.262500 0.225000
0.550000 0.262500 0.225000
0.687500 0.262500 0.225000
0.825000 0.262500 0.225000
0.962500 0.262500 0.225000
1.000000 0.262500 0.225000
0.000000 0.393750 0.225000
0.137500 0.393750 0.225000
0.275000 0.393750 0.225000
0.412500 0.393750 0.225000
0.550000 0.393750 0.225000
0.687500 0.393750 0.225000
0.825000 0.393750 0.225000
0.962500 0.393750 0.225000
1.000000 0.393750 0.225000
0.000000 0.525000 0.225000
0.137500 0.525000 0.225000
0.275000 0.525000 0.225000
0.412500 0.525000 0.225000
0.550000 0.525000 0.225000
0.687500 0.525000 0.225000
0.825000 0.525000 0.225000
0.962500 0.525000 0.225000
1.000000 0.525000 0.225000
0.000000 0.656250 0.225000
0.137500 0.656250 0.225000
0.275000 0.656250 0.225000
0.412500 0.656250 0.225000
0.550000 0.656250 0.225000
0.687500 0.656250 0.225000
0.825000 0.656250 0.225000
0.962500 0.656250 0.225000
1.000000 0.656250 0.225000
0.000000 0.787500 0.225000
0.137500 0.787500 0.225000
0.275000 0.787500 0.225000
0.412500 0.787500 0.225000
0.550000 0.787500 0.225000
0.687500 0.787500 0.225000
0.825000 0.787500 0.225000
0.962500 0.787500 0.225000
1.000000 0.787500 0.225000
0.000000 0.918750 0.225000
0.137500 0.918750 0.225000
0.275000 0.918750 0.225000
0.412500 0.918750 0.225000
0.550000 0.918750 0.225000
0.687500 0.918750 0.225000
0.825000 0.918750 0.225000
0.962500 0.918750 0.225000
1.000000 0.918750 0.225000
0.000000 1.000000 0.225000
0.137500 1.000000 0.225000
0.275000 1.000000 0.225000
0.412500 1.000000 0.225000
0.550000 1.000000 0.225000
0.687500 1.000000 0.225000
0.825000 1.000000 0.225000
0.962500 1.000000 0.225000
1.000000 1.000000 0.225000
0.000000 0.000000 0.337500
0.137500 0.000000 0.337500
0.275000 0.000000 0.337500
0.412500 0.000000 0.337500
0.550000 0.000000 0.337500
0.687500 0.000000 0.337500
0.825000 0.000000 0.337500
0.962500 0.000000 0.337500
1.000000 0.000000 0.337500
0.000000 0.131250 0.337500
0.137500 0.131250 0.337500
0.275000 0.131250 0.337500
0.412500 0.131250 0.337500
0.550000 0.131250 0.337500
0.687500 0.131250 0.337500
0.825000 0.131250 0.337500
0.962500 0.131250 0.337500
1.000000 0.131250 0.337500
0.000000 0.262500 0.337500
0.137500 0.262500 0.337500
0.275000 0.262500 0.337500
0.412500 0.262500 0.337500
0.550000 0.262500 0.337500
0.687500 0.262500 0.337500
0.825000 0.262500 0.337500
0.962500 0.262500 0.337500
1.000000 0.262500 0.337500
0.000000 0.393750 0.337500
0.137500 0.393750 0.337500
0.275000 0.393750 0.337500
0.412500 0.393750 0.337500
0.550000 0.393750 0.337500
0.687500 0.393750 0.337500
0.825000 0.393750 0.337500
0.962500 0.393750 0.337500
1.000000 0.393750 0.337500
0.000000 0.525000 0.337500
0.137500 0.525000 0.337500
0.275000 0.525000 0.337500
0.412500 0.525000 0.337500
0.550000 0.525000 0.337500
0.687500 0.525000 0.337500
0.825000 0.525000 0.337500
0.962500 0.525000 0.337500
1.000000 0.525000 0.337500
0.000000 0.656250 0.337500
0.137500 0.656250 0.337500
0.275000 0.656250 0.337500
0.412500 0.656250 0.337500
0.550000 0.656250 0.337500
0.687500 0.656250 0.337500
0.825000 0.656250 0.337500
0.962500 0.656250 0.337500
1.000000 0.656250 0.337500
0.000000 0.787500 0.337500
0.137500 0.787500 0.337500
0.275000 0.787500 0.337500
0.412500 0.787500 0.337500
0.550000 0.787500 0.337500
0.687500 0.787500 0.337500
0.825000 0.787500 0.337500
0.962500 0.787500 0.337500
1.000000 0.787500 0.337500
0.000000 0.918750 0.337500
0.137500 0.918750 0.337500
0.275000 0.918750 0.337500
0.412500 0.918750 0.337500
0.550000 0.918750 0.337500
0.687500 0.918750 0.337500
0.825000 0.918750 0.337500
0.962500 0.918750 0.337500
1.000000 0.918750 0.337500
0.000000 1.000000 0.337500
0.137500 1.000000 0.337500
0.275000 1.000000 0.337500
0.412500 1.000000 0.337500
0.550000 1.000000 0.337500
0.687500 1.000000 0.337500
0.825000 1.000000 0.337500
0.962500 1.000000 0.337500
1.000000 1.000000 0.337500
0.000000 0.000000 0.450000
0.137500 0.000000 0.450000
0.275000 0.000000 0.450000
0.412500 0.000000 0.450000
0.550000 0.000000 0.450000
0.687500 0.000000 0.450000
0.825000 0.000000 0.450000
0.962500 0.000000 0.450000
1.000000 0.000000 0.450000
0.000000 0.131250 0.450000
0.137500 0.131250 0.450000
0.275000 0.131250 0.450000
0.412500 0.131250 0.450000
0.550000 0.131250 0.450000
0.687500 0.131250 0.450000
0.825000 0.131250 0.450000
0.962500 0.131250 0.450000
1.000000 0.131250 0.450000
0.000000 0.262500 0.450000
0.137500 0.262500 0.450000
0.275000 0.262500 0.450000
0.412500 0.262500 0.450000
0.550000 0.262500 0.450000
0.687500 0.262500 0.450000
0.825000 0.262500 0.450000
0.962500 0.262500 0.450000
1.000000 0.262500 0.450000
0.000000 0.393750 0.450000
0.137500 0.393750 0.450000
0.275000 0.393750 0.450000
0.412500 0.393750 0.450000
0.550000 0.393750 0.450000
0.687500 0.393750 0.450000
0.825000 0.393750 0.450000
0.962500 0.393750 0.450000
1.000000 0.393750 0.450000
0.000000 0.525000 0.450000
0.137500 0.525000 0.450000
0.275000 0.525000 0.450000
0.412500 0.525000 0.450000
0.550000 0.525000 0.450000
0.687500 0.525000 0.450000
0.825000 0.525000 0.450000
0.962500 0.525000 0.450000
1.000000 0.525000 0.450000
0.000000 0.656250 0.450000
0.137500 0.656250 0.450000
0.275000 0.656250 0.450000
0.412500 0.656250 0.450000
0.550000 0.656250 0.450000
0.687500 0.656250 0.450000
0.825000 0.656250 0.450000
0.962500 0.656250 0.450000
1.000000 0.656250 0.450000
0.000000 0.787500 0.450000
0.137500 0.787500 0.450000
0.275000 0.787500 0.450000
0.412500 0.787500 0.450000
0.550000 0.787500 0.450000
0.687500 0.787500 0.450000
0.825000 0.787500 0.450000
0.962500 0.787500 0.450000
1.000000 0.787500 0.450000
0.000000 0.918750 0.450000
0.137500 0.918750 0.450000
0.275000 0.918750 0.450000
0.412500 0.918750 0.450000
0.550000 0.918750 0.450000
0.687500 0.918750 0.450000
0.825000 0.918750 0.450000
0.962500 0.918750 0.450000
1.000000 0.918750 0.450000
0.000000 1.000000 0.450000
0.137500 1.000000 0.450000
0.275000 1.000000 0.450000
0.412500 1.000000 0.450000
0.550000 1.000000 0.450000
0.687500 1.000000 0.450000
0.825000 1.000000 0.450000
0.962500 1.000000 0.450000
1.000000 1.000000 0.450000
0.000000 0.000000 0.562500
0.137500 0.000000 0.562500
0.275000 0.000000 0.562500
0.412500 0.000000 0.562500
0.550000 0.000000 0.562500
0.687500 0.000000 0.562500
0.825000 0.000000 0.562500
0.962500 0.000000 0.562500
1.000000 0.000000 0.562500
0.000000 0.131250 0.562500
0.137500 0.131250 0.562500
0.275000 0.131250 0.562500
0.412500 0.131250 0.562500
0.550000 0.131250 0.562500
0.687500 0.131250 0.562500
0.825000 0.131250 0.562500
0.962500 0.131250 0.562500
1.000000 0.131250 0.562500
0.000000 0.262500 0.562500
0.137500 0.262500 0.562500
0.275000 0.262500 0.562500
0.412500 0.262500 0.562500
0.550000 0.262500 0.562500
0.687500 0.262500 0.562500
0.825000 0.262500 0.562500
0.962500 0.262500 0.562500
1.000000 0.262500 0.562500
0.000000 0.393750 0.562500
0.137500 0.393750 0.562500
0.275000 0.393750 0.562500
0.412500 0.393750 0.562500
0.550000 0.393750 0.562500
0.687500 0.393750 0.562500
0.825000 0.393750 0.562500
0.962500 0.393750 0.562500
1.000000 0.393750 0.562500
0.000000 0.525000 0.562500
0.137500 0.525000 0.562500
0.275000 0.525000 0.562500
0.412500 0.525000 0.562500
0.550000 0.525000 0.562500
0.687500 0.525000 0.562500
0.825000 0.525000 0.562500
0.962500 0.525000 0.562500
1.000000 0.525000 0.562500
0.000000 0.656250 0.562500
0.137500 0.656250 0.562500
0.275000 0.656250 0.562500
0.412500 0.656250 0.562500
0.550000 0.656250 0.562500
0.687500 0.656250 0.562500
0.825000 0.656250 0.562500
0.962500 0.656250 0.562500
1.000000 0.656250 0.562500
0.000000 0.787500 0.562500
0.137500 0.787500 0.562500
0.275000 0.787500 0.562500
0.412500 0.787500 0.562500
0.550000 0.787500 0.562500
0.687500 0.787500 0.562500
0.825000 0.787500 0.562500
0.962500 0.787500 0.562500
1.000000 0.787500 0.562500
0.000000 0.918750 0.562500
0.137500 0.918750 0.562500
0.275000 0.918750 0.562500
0.412500 0.918750 0.562500
0.550000 0.918750 0.562500
0.687500 0.918750 0.562500
0.825000 0.918750 0.562500
0.962500 0.918750 0.562500
1.000000 0.918750 0.562500
0.000000 1.000000 0.562500
0.137500 1.000000 0.562500
0.275000 1.000000 0.562500
0.412500 1.000000 0.562500
0.550000 1.000000 0.562500
0.687500 1.000000 0.562500
0.825000 1.000000 0.562500
0.962500 1.000000 0.562500
1.000000 1.000000 0.562500
0.000000 0.000000 0.675000
0.137500 0.000000 0.675000
0.275000 0.000000 0.675000
0.412500 0.000000 0.675000
0.550000 0.000000 0.675000
0.687500 0.000000 0.675000
0.825000 0.000000 0.675000
0.962500 0.000000 0.675000
1.000000 0.000000 0.675000
0.000000 0.131250 0.675000
0.137500 0.131250 0.675000
0.275000 0.131250 0.675000
0.412500 0.131250 0.675000
0.550000 0.131250 0.675000
0.687500 0.131250 0.675000
0.825000 0.131250 0.675000
0.962500 0.131250 0.675000
1.000000 0.131250 0.675000
0.000000 0.262500 0.675000
0.137500 0.262500 0.675000
0.275000 0.262500 0.675000
0.412500 0.262500 0.675000
0.550000 0.262500 0.675000
0.687500 0.262500 0.675000
0.825000 0.262500 0.675000
0.962500 0.262500 0.675000
1.000000 0.262500 0.675000
0.000000 0.393750 0.675000
0.137500 0.393750 0.675000
0.275000 0.393750 0.675000
0.412500 0.393750 0.675000
0.550000 0.393750 0.675000
0.687500 0.393750 0.675000
0.825000 0.393750 0.675000
0.962500 0.393750 0.675000
1.000000 0.393750 0.675000
0.000000 0.525000 0.675000
0.137500 0.525000 0.675000
0.275000 0.525000 0.675000
0.412500 0.525000 0.675000
0.550000 0.525000 0.675000
0.687500 0.525000 0.675000
0.825000 0.525000 0.675000
0.962500 0.525000 0.675000
1.000000 0.525000 0.675000
0.000000 0.656250 0.675000
0.137500 0.656250 0.675000
0.275000 0.656250 0.675000
0.412500 0.656250 0.675000
0.550000 0.656250 0.675000
0.687500 0.656250 0.675000
0.825000 0.656250 0.675000
0.962500 0.656250 0.675000
1.000000 0.656250 0.675000
0.000000 0.787500 0.675000
0.137500 0.787500 0.675000
0.275000 0.787500 0.675000
0.412500 0.787500 0.675000
0.550000 0.787500 0.675000
0.687500 0.787500 0.675000
0.825000 0.787500 0.675000
0.962500 0.787500 0.675000
1.000000 0.787500 0.675000
0.000000 0.918750 0.675000
0.137500 0.918750 0.675000
0.275000 0.918750 0.675000
0.412500 0.918750 0.675000
0.550000 0.918750 0.675000
0.687500 0.918750 0.675000
0.825000 0.918750 0.675000
0.962500 0.918750 0.675000
1.000000 0.918750 0.675000
0.000000 1.000000 0.675000
0.137500 1.000000 0.675000
0.275000 1.000000 0.675000
0.412500 1.000000 0.675000
0.550000 1.000000 0.675000
0.687500 1.000000 0.675000
0.825000 1.000000 0.675000
0.962500 1.000000 0.675000
1.000000 1.000000 0.675000
0.000000 0.000000 0.787500
0.137500 0.000000 0.787500
0.275000 0.000000 0.787500
0.412500 0.000000 0.787500
0.550000 0.000000 0.787500
0.687500 0.000000 0.787500
0.825000 0.000000 0.787500
0.962500 0.000000 0.787500
1.000000 0.000000 0.787500
0.000000 0.131250 0.787500
0.137500 0.131250 0.787500
0.275000 0.131250 0.787500
0.412500 0.131250 0.787500
0.550000 0.131250 0.787500
0.687500 0.131250 0.787500
0.825000 0.131250 0.787500
0.962500 0.131250 0.787500
1.000000 0.131250 0.787500
0.000000 0.262500 0.787500
0.137500 0.262500 0.787500
0.275000 0.262500 0.787500
0.412500 0.262500 0.787500
0.550000 0.262500 0.787500
0.687500 0.262500 0.787500
0.825000 0.262500 0.787500
0.962500 0.262500 0.787500
1.000000 0.262500 0.787500
0.000000 0.393750 0.787500
0.137500 0.393750 0.787500
0.275000 0.393750 0.787500
0.412500 0.393750 0.787500
0.550000 0.393750 0.787500
0.687500 0.393750 0.787500
0.825000 0.393750 0.787500
0.962500 0.393750 0.787500
1.000000 0.393750 0.787500
0.000000 0.525000 0.787500
0.137500 0.525000 0.787500
0.275000 0.525000 0.787500
0.412500 0.525000 0.787500
0.550000 0.525000 0.787500
0.687500 0.525000 0.787500
0.825000 0.525000 0.787500
0.962500 0.525000 0.787500
1.000000 0.525000 0.787500
0.000000 0.656250 0.787500
0.137500 0.656250 0.787500
0.275000 0.656250 0.787500
0.412500 0.656250 0.787500
0.550000 0.656250 0.787500
0.687500 0.656250 0.787500
0.825000 0.656250 0.787500
0.962500 0.656250 0.787500
1.000000 0.656250 0.787500
0.000000 0.787500 0.787500
0.137500 0.787500 0.787500
0.275000 0.787500 0.787500
0.412500 0.787500 0.787500
0.550000 0.787500 0.787500
0.687500 0.787500 0.787500
0.825000 0.787500 0.787500
0.962500 0.787500 0.787500
1.000000 0.787500 0.787500
0.000000 0.918750 0.787500
0.137500 0.918750 0.787500
0.275000 0.918750 0.787500
0.412500 0.918750 0.787500
0.550000 0.918750 0.787500
0.687500 0.918750 0.787500
0.825000 0.918750 0.787500
0.962500 0.918750 0.787500
1.000000 0.918750 0.787500
0.000000 1.000000 0.787500
0.137500 1.000000 0.787500
0.275000 1.000000 0.787500
0.412500 1.000000 0.787500
0.550000 1.000000 0.787500
0.687500 1.000000 0.787500
0.825000 1.000000 0.787500
0.962500 1.000000 0.787500
1.000000 1.000000 0.787500
0.000000 0.000000 0.900000
0.137500 0.000000 0.900000
0.275000 0.000000 0.900000
0.412500 0.000000 0.900000
0.550000 0.000000 0.900000
0.687500 0.000000 0.900000
0.825000 0.000000 0.900000
0.962500 0.000000 0.900000
1.000000 0.000000 0.900000
0.000000 0.131250 0.900000
0.137500 0.131250 0.900000
0.275000 0.131250 0.900000
0.412500 0.131250 0.900000
0.550000 0.131250 0.900000
0.687500 0.131250 0.900000
0.825000 0.131250 0.900000
0.962500 0.131250 0.900000
1.000000 0.131250 0.900000
0.000000 0.262500 0.900000
0.137500 0.262500 0.900000
0.275000 0.262500 0.900000
0.412500 0.262500 0.900000
0.550000 0.262500 0.900000
0.687500 0.262500 0.900000
0.825000 0.262500 0.900000
0.962500 0.262500 0.900000
1.000000 0.262500 0.900000
0.000000 0.393750 0.900000
0.137500 0.393750 0.900000
0.275000 0.393750 0.900000
0.412500 0.393750 0.900000
0.550000 0.393750 0.900000
0.687500 0.393750 0.900000
0.825000 0.393750 0.900000
0.962500 0.393750 0.900000
1.000000 0.393750 0.900000
0.000000 0.525000 0.900000
0.137500 0.525000 0.900000
0.275000 0.525000 0.900000
0.412500 0.525000 0.900000
0.550000 0.525000 0.900000
0.687500 0.525000 0.900000
0.825000 0.525000 0.900000
0.962500 0.525000 0.900000
1.000000 0.525000 0.900000
0.000000 0.656250 0.900000
0.137500 0.656250 0.900000
0.275000 0.656250 0.900000
0.412500 0.656250 0.900000
0.550000 0.656250 0.900000
0.687500 0.656250 0.900000
0.825000 0.656250 0.900000
0.962500 0.656250 0.900000
1.000000 0.656250 0.900000
0.000000 0.787500 0.900000
0.137500 0.787500 0.900000
0.275000 0.787500 0.900000
0.412500 0.787500 0.900000
0.550000 0.787500 0.900000
0.687500 0.787500 0.900000
0.825000 0.787500 0.900000
0.962500 0.787500 0.900000
1.000000 0.787500 0.900000
0.000000 0.918750 0.900000
0.137500 0.918750 0.900000
0.275000 0.918750 0.900000
0.412500 0.918750 0.900000
0.550000 0.918750 0.900000
0.687500 0.918750 0.900000
0.825000 0.918750 0.900000
0.962500 0.918750 0.900000
1.000000 0.918750 0.900000
0.000000 1.000000 0.900000
0.137500 1.000000 0.900000
0.275000 1.000000 0.900000
0.412500 1.000000 0.900000
0.550000 1.000000 0.900000
0.687500 1.000000 0.900000
0.825000 1.000000 0.900000
0.962500 1.000000 0.900000
1.000000 1.000000 0.900000
