src/assets/luts/golden_hour.cube
TITLE "Golden Hour"
LUT_3D_SIZE 5
0.000000 0.000000 0.000000
0.275000 0.000000 0.000000
0.550000 0.000000 0.000000
0.825000 0.000000 0.000000
1.000000 0.000000 0.000000
0.000000 0.262500 0.000000
0.275000 0.262500 0.000000
0.550000 0.262500 0.000000
0.825000 0.262500 0.000000
1.000000 0.262500 0.000000
0.000000 0.525000 0.000000
0.275000 0.525000 0.000000
0.550000 0.525000 0.000000
0.825000 0.525000 0.000000
1.000000 0.525000 0.000000
0.000000 0.787500 0.000000
0.275000 0.787500 0.000000
0.550000 0.787500 0.000000
0.825000 0.787500 0.000000
1.000000 0.787500 0.000000
0.000000 1.000000 0.000000
0.275000 1.000000 0.000000
0.550000 1.000000 0.000000
0.825000 1.000000 0.000000
1.000000 1.000000 0.000000
0.000000 0.000000 0.225000
0.275000 0.000000 0.225000
0.550000 0.000000 0.225000
0.825000 0.000000 0.225000
1.000000 0.000000 0.225000
0.000000 0.262500 0.225000
0.275000 0.262500 0.225000
0.550000 0.262500 0.225000
0.825000 0.262500 0.225000
1.000000 0.262500 0.225000
0.000000 0.525000 0.225000
0.275000 0.525000 0.225000
0.550000 0.525000 0.225000
0.825000 0.525000 0.225000
1.000000 0.525000 0.225000
0.000000 0.787500 0.225000
0.275000 0.787500 0.225000
0.550000 0.787500 0.225000
0.825000 0.787500 0.225000
1.000000 0.787500 0.225000
0.000000 1.000000 0.225000
0.275000 1.000000 0.225000
0.550000 1.000000 0.225000
0.825000 1.000000 0.225000
1.000000 1.000000 0.225000
0.000000 0.000000 0.450000
0.275000 0.000000 0.450000
0.550000 0.000000 0.450000
0.825000 0.000000 0.450000
1.000000 0.000000 0.450000
0.000000 0.262500 0.450000
0.275000 0.262500 0.450000
0.550000 0.262500 0.450000
0.825000 0.262500 0.450000
1.000000 0.262500 0.450000
0.000000 0.525000 0.450000
0.275000 0.525000 0.450000
0.550000 0.525000 0.450000
0.825000 0.525000 0.450000
1.000000 0.525000 0.450000
0.000000 0.787500 0.450000
0.275000 0.787500 0.450000
0.550000 0.787500 0.450000
0.825000 0.787500 0.450000
1.000000 0.787500 0.450000
0.000000 1.000000 0.450000
0.275000 1.000000 0.450000
0.550000 1.000000 0.450000
0.825000 1.000000 0.450000
1.000000 1.000000 0.450000
0.000000 0.000000 0.675000
0.275000 0.000000 0.675000
0.550000 0.000000 0.675000
0.825000 0.000000 0.675000
1.000000 0.000000 0.675000
0.000000 0.262500 0.675000
0.275000 0.262500 0.675000
0.550000 0.262500 0.675000
0.825000 0.262500 0.675000
1.000000 0.262500 0.675000
0.000000 0.525000 0.675000
0.275000 0.525000 0.675000
0.550000 0.525000 0.675000
0.825000 0.525000 0.675000
1.000000 0.525000 0.675000
0.000000 0.787500 0.675000
0.275000 0.787500 0.675000
0.550000 0.787500 0.675000
0.825000 0.787500 0.675000
1.000000 0.787500 0.675000
0.000000 1.000000 0.675000
0.275000 1.000000 0.675000
0.550000 1.000000 0.675000
0.825000 1.000000 0.675000
1.000000 1.000000 0.675000
0.000000 0.000000 0.900000
0.275000 0.000000 0.900000
0.550000 0.000000 0.900000
0.825000 0.000000 0.900000
1.000000 0.000000 0.900000
0.000000 0.262500 0.900000
0.275000 0.262500 0.900000
0.550000 0.262500 0.900000
0.825000 0.262500 0.900000
1.000000 0.262500 0.900000
0.000000 0.525000 0.900000
0.275000 0.525000 0.900000
0.550000 0.525000 0.900000
0.825000 0.525000 0.900000
1.000000 0.525000 0.900000
0.000000 0.787500 0.900000
0.275000 0.787500 0.900000
0.550000 0.787500 0.900000
0.825000 0.787500 0.900000
1.000000 0.787500 0.900000
0.000000 1.000000 0.900000
0.275000 1.000000 0.900000
0.550000 1.000000 0.900000
0.825000 1.000000 0.900000
1.000000 1.000000 0.900000
