src/assets/luts/golden_hour.cube
TITLE "Golden Hour"
LUT_3D_SIZE 17
0.000000 0.000000 0.000000
0.068750 0.000000 0.000000
0.137500 0.000000 0.000000
0.206250 0.000000 0.000000
0.275000 0.000000 0.000000
0.343750 0.000000 0.000000
0.412500 0.000000 0.000000
0.481250 0.000000 0.000000
0.550000 0.000000 0.000000
0.618750 0.000000 0.000000
0.687500 0.000000 0.000000
0.756250 0.000000 0.000000
0.825000 0.000000 0.000000
0.893750 0.000000 0.000000
0.962500 0.000000 0.000000
1.000000 0.000000 0.000000
1.000000 0.000000 0.000000
0.000000 0.065625 0.000000
0.068750 0.065625 0.000000
0.137500 0.065625 0.000000
0.206250 0.065625 0.000000
0.275000 0.065625 0.000000
0.343750 0.065625 0.000000
0.412500 0.065625 0.000000
0.481250 0.065625 0.000000
0.550000 0.065625 0.000000
0.618750 0.065625 0.000000
0.687500 0.065625 0.000000
0.756250 0.065625 0.000000
0.825000 0.065625 0.000000
0.893750 0.065625 0.000000
0.962500 0.065625 0.000000
1.000000 0.065625 0.000000
1.000000 0.065625 0.000000
0.000000 0.131250 0.000000
0.068750 0.131250 0.000000
0.137500 0.131250 0.000000
0.206250 0.131250 0.000000
0.275000 0.131250 0.000000
0.343750 0.131250 0.000000
0.412500 0.131250 0.000000
0.481250 0.131250 0.000000
0.550000 0.131250 0.000000
0.618750 0.131250 0.000000
0.687500 0.131250 0.000000
0.756250 0.131250 0.000000
0.825000 0.131250 0.000000
0.893750 0.131250 0.000000
0.962500 0.131250 0.000000
1.000000 0.131250 0.000000
1.000000 0.131250 0.000000
0.000000 0.196875 0.000000
0.068750 0.196875 0.000000
0.137500 0.196875 0.000000
0.206250 0.196875 0.000000
0.275000 0.196875 0.000000
0.343750 0.196875 0.000000
0.412500 0.196875 0.000000
0.481250 0.196875 0.000000
0.550000 0.196875 0.000000
0.618750 0.196875 0.000000
0.687500 0.196875 0.000000
0.756250 0.196875 0.000000
0.825000 0.196875 0.000000
0.893750 0.196875 0.000000
0.962500 0.196875 0.000000
1.000000 0.196875 0.000000
1.000000 0.196875 0.000000
0.000000 0.262500 0.000000
0.068750 0.262500 0.000000
0.137500 0.262500 0.000000
0.206250 0.262500 0.000000
0.275000 0.262500 0.000000
0.343750 0.262500 0.000000
0.412500 0.262500 0.000000
0.481250 0.262500 0.000000
0.550000 0.262500 0.000000
0.618750 0.262500 0.000000
0.687500 0.262500 0.000000
0.756250 0.262500 0.000000
0.825000 0.262500 0.000000
0.893750 0.262500 0.000000
0.962500 0.262500 0.000000
1.000000 0.262500 0.000000
1.000000 0.262500 0.000000
0.000000 0.328125 0.000000
0.068750 0.328125 0.000000
0.137500 0.328125 0.000000
0.206250 0.328125 0.000000
0.275000 0.328125 0.000000
0.343750 0.328125 0.000000
0.412500 0.328125 0.000000
0.481250 0.328125 0.000000
0.550000 0.328125 0.000000
0.618750 0.328125 0.000000
0.687500 0.328125 0.000000
0.756250 0.328125 0.000000
0.825000 0.328125 0.000000
0.893750 0.328125 0.000000
0.962500 0.328125 0.000000
1.000000 0.328125 0.000000
1.000000 0.328125 0.000000
0.000000 0.393750 0.000000
0.068750 0.393750 0.000000
0.137500 0.393750 0.000000
0.206250 0.393750 0.000000
0.275000 0.393750 0.000000
0.343750 0.393750 0.000000
0.412500 0.393750 0.000000
0.481250 0.393750 0.000000
0.550000 0.393750 0.000000
0.618750 0.393750 0.000000
0.687500 0.393750 0.000000
0.756250 0.393750 0.000000
0.825000 0.393750 0.000000
0.893750 0.393750 0.000000
0.962500 0.393750 0.000000
1.000000 0.393750 0.000000
1.000000 0.393750 0.000000
0.000000 0.459375 0.000000
0.068750 0.459375 0.000000
0.137500 0.459375 0.000000
0.206250 0.459375 0.000000
0.275000 0.459375 0.000000
0.343750 0.459375 0.000000
0.412500 0.459375 0.000000
0.481250 0.459375 0.000000
0.550000 0.459375 0.000000
0.618750 0.459375 0.000000
0.687500 0.459375 0.000000
0.756250 0.459375 0.000000
0.825000 0.459375 0.000000
0.893750 0.459375 0.000000
0.962500 0.459375 0.000000
1.000000 0.459375 0.000000
1.000000 0.459375 0.000000
0.000000 0.525000 0.000000
0.068750 0.525000 0.000000
0.137500 0.525000 0.000000
0.206250 0.525000 0.000000
0.275000 0.525000 0.000000
0.343750 0.525000 0.000000
0.412500 0.525000 0.000000
0.481250 0.525000 0.000000
0.550000 0.525000 0.000000
0.618750 0.525000 0.000000
0.687500 0.525000 0.000000
0.756250 0.525000 0.000000
0.825000 0.525000 0.000000
0.893750 0.525000 0.000000
0.962500 0.525000 0.000000
1.000000 0.525000 0.000000
1.000000 0.525000 0.000000
0.000000 0.590625 0.000000
0.068750 0.590625 0.000000
0.137500 0.590625 0.000000
0.206250 0.590625 0.000000
0.275000 0.590625 0.000000
0.343750 0.590625 0.000000
0.412500 0.590625 0.000000
0.481250 0.590625 0.000000
0.550000 0.590625 0.000000
0.618750 0.590625 0.000000
0.687500 0.590625 0.000000
0.756250 0.590625 0.000000
0.825000 0.590625 0.000000
0.893750 0.590625 0.000000
0.962500 0.590625 0.000000
1.000000 0.590625 0.000000
1.000000 0.590625 0.000000
0.000000 0.656250 0.000000
0.068750 0.656250 0.000000
0.137500 0.656250 0.000000
0.206250 0.656250 0.000000
0.275000 0.656250 0.000000
0.343750 0.656250 0.000000
0.412500 0.656250 0.000000
0.481250 0.656250 0.000000
0.550000 0.656250 0.000000
0.618750 0.656250 0.000000
0.687500 0.656250 0.000000
0.756250 0.656250 0.000000
0.825000 0.656250 0.000000
0.893750 0.656250 0.000000
0.962500 0.656250 0.000000
1.000000 0.656250 0.000000
1.000000 0.656250 0.000000
0.000000 0.721875 0.000000
0.068750 0.721875 0.000000
0.137500 0.721875 0.000000
0.206250 0.721875 0.000000
0.275000 0.721875 0.000000
0.343750 0.721875 0.000000
0.412500 0.721875 0.000000
0.481250 0.721875 0.000000
0.550000 0.721875 0.000000
0.618750 0.721875 0.000000
0.687500 0.721875 0.000000
0.756250 0.721875 0.000000
0.825000 0.721875 0.000000
0.893750 0.721875 0.000000
0.962500 0.721875 0.000000
1.000000 0.721875 0.000000
1.000000 0.721875 0.000000
0.000000 0.787500 0.000000
0.068750 0.787500 0.000000
0.137500 0.787500 0.000000
0.206250 0.787500 0.000000
0.275000 0.787500 0.000000
0.343750 0.787500 0.000000
0.412500 0.787500 0.000000
0.481250 0.787500 0.000000
0.550000 0.787500 0.000000
0.618750 0.787500 0.000000
0.687500 0.787500 0.000000
0.756250 0.787500 0.000000
0.825000 0.787500 0.000000
0.893750 0.787500 0.000000
0.962500 0.787500 0.000000
1.000000 0.787500 0.000000
1.000000 0.787500 0.000000
0.000000 0.853125 0.000000
0.068750 0.853125 0.000000
0.137500 0.853125 0.000000
0.206250 0.853125 0.000000
0.275000 0.853125 0.000000
0.343750 0.853125 0.000000
0.412500 0.853125 0.000000
0.481250 0.853125 0.000000
0.550000 0.853125 0.000000
0.618750 0.853125 0.000000
0.687500 0.853125 0.000000
0.756250 0.853125 0.000000
0.825000 0.853125 0.000000
0.893750 0.853125 0.000000
0.962500 0.853125 0.000000
1.000000 0.853125 0.000000
1.000000 0.853125 0.000000
0.000000 0.918750 0.000000
0.068750 0.918750 0.000000
0.137500 0.918750 0.000000
0.206250 0.918750 0.000000
0.275000 0.918750 0.000000
0.343750 0.918750 0.000000
0.412500 0.918750 0.000000
0.481250 0.918750 0.000000
0.550000 0.918750 0.000000
0.618750 0.918750 0.000000
0.687500 0.918750 0.000000
0.756250 0.918750 0.000000
0.825000 0.918750 0.000000
0.893750 0.918750 0.000000
0.962500 0.918750 0.000000
1.000000 0.918750 0.000000
1.000000 0.918750 0.000000
0.000000 0.984375 0.000000
0.068750 0.984375 0.000000
0.137500 0.984375 0.000000
0.206250 0.984375 0.000000
0.275000 0.984375 0.000000
0.343750 0.984375 0.000000
0.412500 0.984375 0.000000
0.481250 0.984375 0.000000
0.550000 0.984375 0.000000
0.618750 0.984375 0.000000
0.687500 0.984375 0.000000
0.756250 0.984375 0.000000
0.825000 0.984375 0.000000
0.893750 0.984375 0.000000
0.962500 0.984375 0.000000
1.000000 0.984375 0.000000
1.000000 0.984375 0.000000
0.000000 1.000000 0.000000
0.068750 1.000000 0.000000
0.137500 1.000000 0.000000
0.206250 1.000000 0.000000
0.275000 1.000000 0.000000
0.343750 1.000000 0.000000
0.412500 1.000000 0.000000
0.481250 1.000000 0.000000
0.550000 1.000000 0.000000
0.618750 1.000000 0.000000
0.687500 1.000000 0.000000
0.756250 1.000000 0.000000
0.825000 1.000000 0.000000
0.893750 1.000000 0.000000
0.962500 1.000000 0.000000
1.000000 1.000000 0.000000
1.000000 1.000000 0.000000
0.000000 0.000000 0.056250
0.068750 0.000000 0.056250
0.137500 0.000000 0.056250
0.206250 0.000000 0.056250
0.275000 0.000000 0.056250
0.343750 0.000000 0.056250
0.412500 0.000000 0.056250
0.481250 0.000000 0.056250
0.550000 0.000000 0.056250
0.618750 0.000000 0.056250
0.687500 0.000000 0.056250
0.756250 0.000000 0.056250
0.825000 0.000000 0.056250
0.893750 0.000000 0.056250
0.962500 0.000000 0.056250
1.000000 0.000000 0.056250
1.000000 0.000000 0.056250
0.000000 0.065625 0.056250
0.068750 0.065625 0.056250
0.137500 0.065625 0.056250
0.206250 0.065625 0.056250
0.275000 0.065625 0.056250
0.343750 0.065625 0.056250
0.412500 0.065625 0.056250
0.481250 0.065625 0.056250
0.550000 0.065625 0.056250
0.618750 0.065625 0.056250
0.687500 0.065625 0.056250
0.756250 0.065625 0.056250
0.825000 0.065625 0.056250
0.893750 0.065625 0.056250
0.962500 0.065625 0.056250
1.000000 0.065625 0.056250
1.000000 0.065625 0.056250
0.000000 0.131250 0.056250
0.068750 0.131250 0.056250
0.137500 0.131250 0.056250
0.206250 0.131250 0.056250
0.275000 0.131250 0.056250
0.343750 0.131250 0.056250
0.412500 0.131250 0.056250
0.481250 0.131250 0.056250
0.550000 0.131250 0.056250
0.618750 0.131250 0.056250
0.687500 0.131250 0.056250
0.756250 0.131250 0.056250
0.825000 0.131250 0.056250
0.893750 0.131250 0.056250
0.962500 0.131250 0.056250
1.000000 0.131250 0.056250
1.000000 0.131250 0.056250
0.000000 0.196875 0.056250
0.068750 0.196875 0.056250
0.137500 0.196875 0.056250
0.206250 0.196875 0.056250
0.275000 0.196875 0.056250
0.343750 0.196875 0.056250
0.412500 0.196875 0.056250
0.481250 0.196875 0.056250
0.550000 0.196875 0.056250
0.618750 0.196875 0.056250
0.687500 0.196875 0.056250
0.756250 0.196875 0.056250
0.825000 0.196875 0.056250
0.893750 0.196875 0.056250
0.962500 0.196875 0.056250
1.000000 0.196875 0.056250
1.000000 0.196875 0.056250
0.000000 0.262500 0.056250
0.068750 0.262500 0.056250
0.137500 0.262500 0.056250
0.206250 0.262500 0.056250
0.275000 0.262500 0.056250
0.343750 0.262500 0.056250
0.412500 0.262500 0.056250
0.481250 0.262500 0.056250
0.550000 0.262500 0.056250
0.618750 0.262500 0.056250
0.687500 0.262500 0.056250
0.756250 0.262500 0.056250
0.825000 0.262500 0.056250
0.893750 0.262500 0.056250
0.962500 0.262500 0.056250
1.000000 0.262500 0.056250
1.000000 0.262500 0.056250
0.000000 0.328125 0.056250
0.068750 0.328125 0.056250
0.137500 0.328125 0.056250
0.206250 0.328125 0.056250
0.275000 0.328125 0.056250
0.343750 0.328125 0.056250
0.412500 0.328125 0.056250
0.481250 0.328125 0.056250
0.550000 0.328125 0.056250
0.618750 0.328125 0.056250
0.687500 0.328125 0.056250
0.756250 0.328125 0.056250
0.825000 0.328125 0.056250
0.893750 0.328125 0.056250
0.962500 0.328125 0.056250
1.000000 0.328125 0.056250
1.000000 0.328125 0.056250
0.000000 0.393750 0.056250
0.068750 0.393750 0.056250
0.137500 0.393750 0.056250
0.206250 0.393750 0.056250
0.275000 0.393750 0.056250
0.343750 0.393750 0.056250
0.412500 0.393750 0.056250
0.481250 0.393750 0.056250
0.550000 0.393750 0.056250
0.618750 0.393750 0.056250
0.687500 0.393750 0.056250
0.756250 0.393750 0.056250
0.825000 0.393750 0.056250
0.893750 0.393750 0.056250
0.962500 0.393750 0.056250
1.000000 0.393750 0.056250
1.000000 0.393750 0.056250
0.000000 0.459375 0.056250
0.068750 0.459375 0.056250
0.137500 0.459375 0.056250
0.206250 0.459375 0.056250
0.275000 0.459375 0.056250
0.343750 0.459375 0.056250
0.412500 0.459375 0.056250
0.481250 0.459375 0.056250
0.550000 0.459375 0.056250
0.618750 0.459375 0.056250
0.687500 0.459375 0.056250
0.756250 0.459375 0.056250
0.825000 0.459375 0.056250
0.893750 0.459375 0.056250
0.962500 0.459375 0.056250
1.000000 0.459375 0.056250
1.000000 0.459375 0.056250
0.000000 0.525000 0.056250
0.068750 0.525000 0.056250
0.137500 0.525000 0.056250
0.206250 0.525000 0.056250
0.275000 0.525000 0.056250
0.343750 0.525000 0.056250
0.412500 0.525000 0.056250
0.481250 0.525000 0.056250
0.550000 0.525000 0.056250
0.618750 0.525000 0.056250
0.687500 0.525000 0.056250
0.756250 0.525000 0.056250
0.825000 0.525000 0.056250
0.893750 0.525000 0.056250
0.962500 0.525000 0.056250
1.000000 0.525000 0.056250
1.000000 0.525000 0.056250
0.000000 0.590625 0.056250
0.068750 0.590625 0.056250
0.137500 0.590625 0.056250
0.206250 0.590625 0.056250
0.275000 0.590625 0.056250
0.343750 0.590625 0.056250
0.412500 0.590625 0.056250
0.481250 0.590625 0.056250
0.550000 0.590625 0.056250
0.618750 0.590625 0.056250
0.687500 0.590625 0.056250
0.756250 0.590625 0.056250
0.825000 0.590625 0.056250
0.893750 0.590625 0.056250
0.962500 0.590625 0.056250
1.000000 0.590625 0.056250
1.000000 0.590625 0.056250
0.000000 0.656250 0.056250
0.068750 0.656250 0.056250
0.137500 0.656250 0.056250
0.206250 0.656250 0.056250
0.275000 0.656250 0.056250
0.343750 0.656250 0.056250
0.412500 0.656250 0.056250
0.481250 0.656250 0.056250
0.550000 0.656250 0.056250
0.618750 0.656250 0.056250
0.687500 0.656250 0.056250
0.756250 0.656250 0.056250
0.825000 0.656250 0.056250
0.893750 0.656250 0.056250
0.962500 0.656250 0.056250
1.000000 0.656250 0.056250
1.000000 0.656250 0.056250
0.000000 0.721875 0.056250
0.068750 0.721875 0.056250
0.137500 0.721875 0.056250
0.206250 0.721875 0.056250
0.275000 0.721875 0.056250
0.343750 0.721875 0.056250
0.412500 0.721875 0.056250
0.481250 0.721875 0.056250
0.550000 0.721875 0.056250
0.618750 0.721875 0.056250
0.687500 0.721875 0.056250
0.756250 0.721875 0.056250
0.825000 0.721875 0.056250
0.893750 0.721875 0.056250
0.962500 0.721875 0.056250
1.000000 0.721875 0.056250
1.000000 0.721875 0.056250
0.000000 0.787500 0.056250
0.068750 0.787500 0.056250
0.137500 0.787500 0.056250
0.206250 0.787500 0.056250
0.275000 0.787500 0.056250
0.343750 0.787500 0.056250
0.412500 0.787500 0.056250
0.481250 0.787500 0.056250
0.550000 0.787500 0.056250
0.618750 0.787500 0.056250
0.687500 0.787500 0.056250
0.756250 0.787500 0.056250
0.825000 0.787500 0.056250
0.893750 0.787500 0.056250
0.962500 0.787500 0.056250
1.000000 0.787500 0.056250
1.000000 0.787500 0.056250
0.000000 0.853125 0.056250
0.068750 0.853125 0.056250
0.137500 0.853125 0.056250
0.206250 0.853125 0.056250
0.275000 0.853125 0.056250
0.343750 0.853125 0.056250
0.412500 0.853125 0.056250
0.481250 0.853125 0.056250
0.550000 0.853125 0.056250
0.618750 0.853125 0.056250
0.687500 0.853125 0.056250
0.756250 0.853125 0.056250
0.825000 0.853125 0.056250
0.893750 0.853125 0.056250
0.962500 0.853125 0.056250
1.000000 0.853125 0.056250
1.000000 0.853125 0.056250
0.000000 0.918750 0.056250
0.068750 0.918750 0.056250
0.137500 0.918750 0.056250
0.206250 0.918750 0.056250
0.275000 0.918750 0.056250
0.343750 0.918750 0.056250
0.412500 0.918750 0.056250
0.481250 0.918750 0.056250
0.550000 0.918750 0.056250
0.618750 0.918750 0.056250
0.687500 0.918750 0.056250
0.756250 0.918750 0.056250
0.825000 0.918750 0.056250
0.893750 0.918750 0.056250
0.962500 0.918750 0.056250
1.000000 0.918750 0.056250
1.000000 0.918750 0.056250
0.000000 0.984375 0.056250
0.068750 0.984375 0.056250
0.137500 0.984375 0.056250
0.206250 0.984375 0.056250
0.275000 0.984375 0.056250
0.343750 0.984375 0.056250
0.412500 0.984375 0.056250
0.481250 0.984375 0.056250
0.550000 0.984375 0.056250
0.618750 0.984375 0.056250
0.687500 0.984375 0.056250
0.756250 0.984375 0.056250
0.825000 0.984375 0.056250
0.893750 0.984375 0.056250
0.962500 0.984375 0.056250
1.000000 0.984375 0.056250
1.000000 0.984375 0.056250
0.000000 1.000000 0.056250
0.068750 1.000000 0.056250
0.137500 1.000000 0.056250
0.206250 1.000000 0.056250
0.275000 1.000000 0.056250
0.343750 1.000000 0.056250
0.412500 1.000000 0.056250
0.481250 1.000000 0.056250
0.550000 1.000000 0.056250
0.618750 1.000000 0.056250
0.687500 1.000000 0.056250
0.756250 1.000000 0.056250
0.825000 1.000000 0.056250
0.893750 1.000000 0.056250
0.962500 1.000000 0.056250
1.000000 1.000000 0.056250
1.000000 1.000000 0.056250
0.000000 0.000000 0.112500
0.068750 0.000000 0.112500
0.137500 0.000000 0.112500
0.206250 0.000000 0.112500
0.275000 0.000000 0.112500
0.343750 0.000000 0.112500
0.412500 0.000000 0.112500
0.481250 0.000000 0.112500
0.550000 0.000000 0.112500
0.618750 0.000000 0.112500
0.687500 0.000000 0.112500
0.756250 0.000000 0.112500
0.825000 0.000000 0.112500
0.893750 0.000000 0.112500
0.962500 0.000000 0.112500
1.000000 0.000000 0.112500
1.000000 0.000000 0.112500
0.000000 0.065625 0.112500
0.068750 0.065625 0.112500
0.137500 0.065625 0.112500
0.206250 0.065625 0.112500
0.275000 0.065625 0.112500
0.343750 0.065625 0.112500
0.412500 0.065625 0.112500
0.481250 0.065625 0.112500
0.550000 0.065625 0.112500
0.618750 0.065625 0.112500
0.687500 0.065625 0.112500
0.756250 0.065625 0.112500
0.825000 0.065625 0.112500
0.893750 0.065625 0.112500
0.962500 0.065625 0.112500
1.000000 0.065625 0.112500
1.000000 0.065625 0.112500
0.000000 0.131250 0.112500
0.068750 0.131250 0.112500
0.137500 0.131250 0.112500
0.206250 0.131250 0.112500
0.275000 0.131250 0.112500
0.343750 0.131250 0.112500
0.412500 0.131250 0.112500
0.481250 0.131250 0.112500
0.550000 0.131250 0.112500
0.618750 0.131250 0.112500
0.687500 0.131250 0.112500
0.756250 0.131250 0.112500
0.825000 0.131250 0.112500
0.893750 0.131250 0.112500
0.962500 0.131250 0.112500
1.000000 0.131250 0.112500
1.000000 0.131250 0.112500
0.000000 0.196875 0.112500
0.068750 0.196875 0.112500
0.137500 0.196875 0.112500
0.206250 0.196875 0.112500
0.275000 0.196875 0.112500
0.343750 0.196875 0.112500
0.412500 0.196875 0.112500
0.481250 0.196875 0.112500
0.550000 0.196875 0.112500
0.618750 0.196875 0.112500
0.687500 0.196875 0.112500
0.756250 0.196875 0.112500
0.825000 0.196875 0.112500
0.893750 0.196875 0.112500
0.962500 0.196875 0.112500
1.000000 0.196875 0.112500
1.000000 0.196875 0.112500
0.000000 0.262500 0.112500
0.068750 0.262500 0.112500
0.137500 0.262500 0.112500
0.206250 0.262500 0.112500
0.275000 0.262500 0.112500
0.343750 0.262500 0.112500
0.412500 0.262500 0.112500
0.481250 0.262500 0.112500
0.550000 0.262500 0.112500
0.618750 0.262500 0.112500
0.687500 0.262500 0.112500
0.756250 0.262500 0.112500
0.825000 0.262500 0.112500
0.893750 0.262500 0.112500
0.962500 0.262500 0.112500
1.000000 0.262500 0.112500
1.000000 0.262500 0.112500
0.000000 0.328125 0.112500
0.068750 0.328125 0.112500
0.137500 0.328125 0.112500
0.206250 0.328125 0.112500
0.275000 0.328125 0.112500
0.343750 0.328125 0.112500
0.412500 0.328125 0.112500
0.481250 0.328125 0.112500
0.550000 0.328125 0.112500
0.618750 0.328125 0.112500
0.687500 0.328125 0.112500
0.756250 0.328125 0.112500
0.825000 0.328125 0.112500
0.893750 0.328125 0.112500
0.962500 0.328125 0.112500
1.000000 0.328125 0.112500
1.000000 0.328125 0.112500
0.000000 0.393750 0.112500
0.068750 0.393750 0.112500
0.137500 0.393750 0.112500
0.206250 0.393750 0.112500
0.275000 0.393750 0.112500
0.343750 0.393750 0.112500
0.412500 0.393750 0.112500
0.481250 0.393750 0.112500
0.550000 0.393750 0.112500
0.618750 0.393750 0.112500
0.687500 0.393750 0.112500
0.756250 0.393750 0.112500
0.825000 0.393750 0.112500
0.893750 0.393750 0.112500
0.962500 0.393750 0.112500
1.000000 0.393750 0.112500
1.000000 0.393750 0.112500
0.000000 0.459375 0.112500
0.068750 0.459375 0.112500
0.137500 0.459375 0.112500
0.206250 0.459375 0.112500
0.275000 0.459375 0.112500
0.343750 0.459375 0.112500
0.412500 0.459375 0.112500
0.481250 0.459375 0.112500
0.550000 0.459375 0.112500
0.618750 0.459375 0.112500
0.687500 0.459375 0.112500
0.756250 0.459375 0.112500
0.825000 0.459375 0.112500
0.893750 0.459375 0.112500
0.962500 0.459375 0.112500
1.000000 0.459375 0.112500
1.000000 0.459375 0.112500
0.000000 0.525000 0.112500
0.068750 0.525000 0.112500
0.137500 0.525000 0.112500
0.206250 0.525000 0.112500
0.275000 0.525000 0.112500
0.343750 0.525000 0.112500
0.412500 0.525000 0.112500
0.481250 0.525000 0.112500
0.550000 0.525000 0.112500
0.618750 0.525000 0.112500
0.687500 0.525000 0.112500
0.756250 0.525000 0.112500
0.825000 0.525000 0.112500
0.893750 0.525000 0.112500
0.962500 0.525000 0.112500
1.000000 0.525000 0.112500
1.000000 0.525000 0.112500
0.000000 0.590625 0.112500
0.068750 0.590625 0.112500
0.137500 0.590625 0.112500
0.206250 0.590625 0.112500
0.275000 0.590625 0.112500
0.343750 0.590625 0.112500
0.412500 0.590625 0.112500
0.481250 0.590625 0.112500
0.550000 0.590625 0.112500
0.618750 0.590625 0.112500
0.687500 0.590625 0.112500
0.756250 0.590625 0.112500
0.825000 0.590625 0.112500
0.893750 0.590625 0.112500
0.962500 0.590625 0.112500
1.000000 0.590625 0.112500
1.000000 0.590625 0.112500
0.000000 0.656250 0.112500
0.068750 0.656250 0.112500
0.137500 0.656250 0.112500
0.206250 0.656250 0.112500
0.275000 0.656250 0.112500
0.343750 0.656250 0.112500
0.412500 0.656250 0.112500
0.481250 0.656250 0.112500
0.550000 0.656250 0.112500
0.618750 0.656250 0.112500
0.687500 0.656250 0.112500
0.756250 0.656250 0.112500
0.825000 0.656250 0.112500
0.893750 0.656250 0.112500
0.962500 0.656250 0.112500
1.000000 0.656250 0.112500
1.000000 0.656250 0.112500
0.000000 0.721875 0.112500
0.068750 0.721875 0.112500
0.137500 0.721875 0.112500
0.206250 0.721875 0.112500
0.275000 0.721875 0.112500
0.343750 0.721875 0.112500
0.412500 0.721875 0.112500
0.481250 0.721875 0.112500
0.550000 0.721875 0.112500
0.618750 0.721875 0.112500
0.687500 0.721875 0.112500
0.756250 0.721875 0.112500
0.825000 0.721875 0.112500
0.893750 0.721875 0.112500
0.962500 0.721875 0.112500
1.000000 0.721875 0.112500
1.000000 0.721875 0.112500
0.000000 0.787500 0.112500
0.068750 0.787500 0.112500
0.137500 0.787500 0.112500
0.206250 0.787500 0.112500
0.275000 0.787500 0.112500
0.343750 0.787500 0.112500
0.412500 0.787500 0.112500
0.481250 0.787500 0.112500
0.550000 0.787500 0.112500
0.618750 0.787500 0.112500
0.687500 0.787500 0.112500
0.756250 0.787500 0.112500
0.825000 0.787500 0.112500
0.893750 0.787500 0.112500
0.962500 0.787500 0.112500
1.000000 0.787500 0.112500
1.000000 0.787500 0.112500
0.000000 0.853125 0.112500
0.068750 0.853125 0.112500
0.137500 0.853125 0.112500
0.206250 0.853125 0.112500
0.275000 0.853125 0.112500
0.343750 0.853125 0.112500
0.412500 0.853125 0.112500
0.481250 0.853125 0.112500
0.550000 0.853125 0.112500
0.618750 0.853125 0.112500
0.687500 0.853125 0.112500
0.756250 0.853125 0.112500
0.825000 0.853125 0.112500
0.893750 0.853125 0.112500
0.962500 0.853125 0.112500
1.000000 0.853125 0.112500
1.000000 0.853125 0.112500
0.000000 0.918750 0.112500
0.068750 0.918750 0.112500
0.137500 0.918750 0.112500
0.206250 0.918750 0.112500
0.275000 0.918750 0.112500
0.343750 0.918750 0.112500
0.412500 0.918750 0.112500
0.481250 0.918750 0.112500
0.550000 0.918750 0.112500
0.618750 0.918750 0.112500
0.687500 0.918750 0.112500
0.756250 0.918750 0.112500
0.825000 0.918750 0.112500
0.893750 0.918750 0.112500
0.962500 0.918750 0.112500
1.000000 0.918750 0.112500
1.000000 0.918750 0.112500
0.000000 0.984375 0.112500
0.068750 0.984375 0.112500
0.137500 0.984375 0.112500
0.206250 0.984375 0.112500
0.275000 0.984375 0.112500
0.343750 0.984375 0.112500
0.412500 0.984375 0.112500
0.481250 0.984375 0.112500
0.550000 0.984375 0.112500
0.618750 0.984375 0.112500
0.687500 0.984375 0.112500
0.756250 0.984375 0.112500
0.825000 0.984375 0.112500
0.893750 0.984375 0.112500
0.962500 0.984375 0.112500
1.000000 0.984375 0.112500
1.000000 0.984375 0.112500
0.000000 1.000000 0.112500
0.068750 1.000000 0.112500
0.137500 1.000000 0.112500
0.206250 1.000000 0.112500
0.275000 1.000000 0.112500
0.343750 1.000000 0.112500
0.412500 1.000000 0.112500
0.481250 1.000000 0.112500
0.550000 1.000000 0.112500
0.618750 1.000000 0.112500
0.687500 1.000000 0.112500
0.756250 1.000000 0.112500
0.825000 1.000000 0.112500
0.893750 1.000000 0.112500
0.962500 1.000000 0.112500
1.000000 1.000000 0.112500
1.000000 1.000000 0.112500
0.000000 0.000000 0.168750
0.068750 0.000000 0.168750
0.137500 0.000000 0.168750
0.206250 0.000000 0.168750
0.275000 0.000000 0.168750
0.343750 0.000000 0.168750
0.412500 0.000000 0.168750
0.481250 0.000000 0.168750
0.550000 0.000000 0.168750
0.618750 0.000000 0.168750
0.687500 0.000000 0.168750
0.756250 0.000000 0.168750
0.825000 0.000000 0.168750
0.893750 0.000000 0.168750
0.962500 0.000000 0.168750
1.000000 0.000000 0.168750
1.000000 0.000000 0.168750
0.000000 0.065625 0.168750
0.068750 0.065625 0.168750
0.137500 0.065625 0.168750
