src/assets/luts/high_contrast.cube
TITLE "High Contrast"
LUT_3D_SIZE 17
0.000000 0.000000 0.000000
0.000000 0.000000 0.000000
0.050000 0.000000 0.000000
0.125000 0.000000 0.000000
0.200000 0.000000 0.000000
0.275000 0.000000 0.000000
0.350000 0.000000 0.000000
0.425000 0.000000 0.000000
0.500000 0.000000 0.000000
0.575000 0.000000 0.000000
0.650000 0.000000 0.000000
0.725000 0.000000 0.000000
0.800000 0.000000 0.000000
0.875000 0.000000 0.000000
0.950000 0.000000 0.000000
1.000000 0.000000 0.000000
1.000000 0.000000 0.000000
0.000000 0.000000 0.000000
0.000000 0.000000 0.000000
0.050000 0.000000 0.000000
0.125000 0.000000 0.000000
0.200000 0.000000 0.000000
0.275000 0.000000 0.000000
0.350000 0.000000 0.000000
0.425000 0.000000 0.000000
0.500000 0.000000 0.000000
0.575000 0.000000 0.000000
0.650000 0.000000 0.000000
0.725000 0.000000 0.000000
0.800000 0.000000 0.000000
0.875000 0.000000 0.000000
0.950000 0.000000 0.000000
1.000000 0.000000 0.000000
1.000000 0.000000 0.000000
0.000000 0.050000 0.000000
0.000000 0.050000 0.000000
0.050000 0.050000 0.000000
0.125000 0.050000 0.000000
0.200000 0.050000 0.000000
0.275000 0.050000 0.000000
0.350000 0.050000 0.000000
0.425000 0.050000 0.000000
0.500000 0.050000 0.000000
0.575000 0.050000 0.000000
0.650000 0.050000 0.000000
0.725000 0.050000 0.000000
0.800000 0.050000 0.000000
0.875000 0.050000 0.000000
0.950000 0.050000 0.000000
1.000000 0.050000 0.000000
1.000000 0.050000 0.000000
0.000000 0.125000 0.000000
0.000000 0.125000 0.000000
0.050000 0.125000 0.000000
0.125000 0.125000 0.000000
0.200000 0.125000 0.000000
0.275000 0.125000 0.000000
0.350000 0.125000 0.000000
0.425000 0.125000 0.000000
0.500000 0.125000 0.000000
0.575000 0.125000 0.000000
0.650000 0.125000 0.000000
0.725000 0.125000 0.000000
0.800000 0.125000 0.000000
0.875000 0.125000 0.000000
0.950000 0.125000 0.000000
1.000000 0.125000 0.000000
1.000000 0.125000 0.000000
0.000000 0.200000 0.000000
0.000000 0.200000 0.000000
0.050000 0.200000 0.000000
0.125000 0.200000 0.000000
0.200000 0.200000 0.000000
0.275000 0.200000 0.000000
0.350000 0.200000 0.000000
0.425000 0.200000 0.000000
0.500000 0.200000 0.000000
0.575000 0.200000 0.000000
0.650000 0.200000 0.000000
0.725000 0.200000 0.000000
0.800000 0.200000 0.000000
0.875000 0.200000 0.000000
0.950000 0.200000 0.000000
1.000000 0.200000 0.000000
1.000000 0.200000 0.000000
0.000000 0.275000 0.000000
0.000000 0.275000 0.000000
0.050000 0.275000 0.000000
0.125000 0.275000 0.000000
0.200000 0.275000 0.000000
0.275000 0.275000 0.000000
0.350000 0.275000 0.000000
0.425000 0.275000 0.000000
0.500000 0.275000 0.000000
0.575000 0.275000 0.000000
0.650000 0.275000 0.000000
0.725000 0.275000 0.000000
0.800000 0.275000 0.000000
0.875000 0.275000 0.000000
0.950000 0.275000 0.000000
1.000000 0.275000 0.000000
1.000000 0.275000 0.000000
0.000000 0.350000 0.000000
0.000000 0.350000 0.000000
0.050000 0.350000 0.000000
0.125000 0.350000 0.000000
0.200000 0.350000 0.000000
0.275000 0.350000 0.000000
0.350000 0.350000 0.000000
0.425000 0.350000 0.000000
0.500000 0.350000 0.000000
0.575000 0.350000 0.000000
0.650000 0.350000 0.000000
0.725000 0.350000 0.000000
0.800000 0.350000 0.000000
0.875000 0.350000 0.000000
0.950000 0.350000 0.000000
1.000000 0.350000 0.000000
1.000000 0.350000 0.000000
0.000000 0.425000 0.000000
0.000000 0.425000 0.000000
0.050000 0.425000 0.000000
0.125000 0.425000 0.000000
0.200000 0.425000 0.000000
0.275000 0.425000 0.000000
0.350000 0.425000 0.000000
0.425000 0.425000 0.000000
0.500000 0.425000 0.000000
0.575000 0.425000 0.000000
0.650000 0.425000 0.000000
0.725000 0.425000 0.000000
0.800000 0.425000 0.000000
0.875000 0.425000 0.000000
0.950000 0.425000 0.000000
1.000000 0.425000 0.000000
1.000000 0.425000 0.000000
0.000000 0.500000 0.000000
0.000000 0.500000 0.000000
0.050000 0.500000 0.000000
0.125000 0.500000 0.000000
0.200000 0.500000 0.000000
0.275000 0.500000 0.000000
0.350000 0.500000 0.000000
0.425000 0.500000 0.000000
0.500000 0.500000 0.000000
0.575000 0.500000 0.000000
0.650000 0.500000 0.000000
0.725000 0.500000 0.000000
0.800000 0.500000 0.000000
0.875000 0.500000 0.000000
0.950000 0.500000 0.000000
1.000000 0.500000 0.000000
1.000000 0.500000 0.000000
0.000000 0.575000 0.000000
0.000000 0.575000 0.000000
0.050000 0.575000 0.000000
0.125000 0.575000 0.000000
0.200000 0.575000 0.000000
0.275000 0.575000 0.000000
0.350000 0.575000 0.000000
0.425000 0.575000 0.000000
0.500000 0.575000 0.000000
0.575000 0.575000 0.000000
0.650000 0.575000 0.000000
0.725000 0.575000 0.000000
0.800000 0.575000 0.000000
0.875000 0.575000 0.000000
0.950000 0.575000 0.000000
1.000000 0.575000 0.000000
1.000000 0.575000 0.000000
0.000000 0.650000 0.000000
0.000000 0.650000 0.000000
0.050000 0.650000 0.000000
0.125000 0.650000 0.000000
0.200000 0.650000 0.000000
0.275000 0.650000 0.000000
0.350000 0.650000 0.000000
0.425000 0.650000 0.000000
0.500000 0.650000 0.000000
0.575000 0.650000 0.000000
0.650000 0.650000 0.000000
0.725000 0.650000 0.000000
0.800000 0.650000 0.000000
0.875000 0.650000 0.000000
0.950000 0.650000 0.000000
1.000000 0.650000 0.000000
1.000000 0.650000 0.000000
0.000000 0.725000 0.000000
0.000000 0.725000 0.000000
0.050000 0.725000 0.000000
0.125000 0.725000 0.000000
0.200000 0.725000 0.000000
0.275000 0.725000 0.000000
0.350000 0.725000 0.000000
0.425000 0.725000 0.000000
0.500000 0.725000 0.000000
0.575000 0.725000 0.000000
0.650000 0.725000 0.000000
0.725000 0.725000 0.000000
0.800000 0.725000 0.000000
0.875000 0.725000 0.000000
0.950000 0.725000 0.000000
1.000000 0.725000 0.000000
1.000000 0.725000 0.000000
0.000000 0.800000 0.000000
0.000000 0.800000 0.000000
0.050000 0.800000 0.000000
0.125000 0.800000 0.000000
0.200000 0.800000 0.000000
0.275000 0.800000 0.000000
0.350000 0.800000 0.000000
0.425000 0.800000 0.000000
0.500000 0.800000 0.000000
0.575000 0.800000 0.000000
0.650000 0.800000 0.000000
0.725000 0.800000 0.000000
0.800000 0.800000 0.000000
0.875000 0.800000 0.000000
0.950000 0.800000 0.000000
1.000000 0.800000 0.000000
1.000000 0.800000 0.000000
0.000000 0.875000 0.000000
0.000000 0.875000 0.000000
0.050000 0.875000 0.000000
0.125000 0.875000 0.000000
0.200000 0.875000 0.000000
0.275000 0.875000 0.000000
0.350000 0.875000 0.000000
0.425000 0.875000 0.000000
0.500000 0.875000 0.000000
0.575000 0.875000 0.000000
0.650000 0.875000 0.000000
0.725000 0.875000 0.000000
0.800000 0.875000 0.000000
0.875000 0.875000 0.000000
0.950000 0.875000 0.000000
1.000000 0.875000 0.000000
1.000000 0.875000 0.000000
0.000000 0.950000 0.000000
0.000000 0.950000 0.000000
0.050000 0.950000 0.000000
0.125000 0.950000 0.000000
0.200000 0.950000 0.000000
0.275000 0.950000 0.000000
0.350000 0.950000 0.000000
0.425000 0.950000 0.000000
0.500000 0.950000 0.000000
0.575000 0.950000 0.000000
0.650000 0.950000 0.000000
0.725000 0.950000 0.000000
0.800000 0.950000 0.000000
0.875000 0.950000 0.000000
0.950000 0.950000 0.000000
1.000000 0.950000 0.000000
1.000000 0.950000 0.000000
0.000000 1.000000 0.000000
0.000000 1.000000 0.000000
0.050000 1.000000 0.000000
0.125000 1.000000 0.000000
0.200000 1.000000 0.000000
0.275000 1.000000 0.000000
0.350000 1.000000 0.000000
0.425000 1.000000 0.000000
0.500000 1.000000 0.000000
0.575000 1.000000 0.000000
0.650000 1.000000 0.000000
0.725000 1.000000 0.000000
0.800000 1.000000 0.000000
0.875000 1.000000 0.000000
0.950000 1.000000 0.000000
1.000000 1.000000 0.000000
1.000000 1.000000 0.000000
0.000000 1.000000 0.000000
0.000000 1.000000 0.000000
0.050000 1.000000 0.000000
0.125000 1.000000 0.000000
0.200000 1.000000 0.000000
0.275000 1.000000 0.000000
0.350000 1.000000 0.000000
0.425000 1.000000 0.000000
0.500000 1.000000 0.000000
0.575000 1.000000 0.000000
0.650000 1.000000 0.000000
0.725000 1.000000 0.000000
0.800000 1.000000 0.000000
0.875000 1.000000 0.000000
0.950000 1.000000 0.000000
1.000000 1.000000 0.000000
1.000000 1.000000 0.000000
0.000000 0.000000 0.000000
0.000000 0.000000 0.000000
0.050000 0.000000 0.000000
0.125000 0.000000 0.000000
0.200000 0.000000 0.000000
0.275000 0.000000 0.000000
0.350000 0.000000 0.000000
0.425000 0.000000 0.000000
0.500000 0.000000 0.000000
0.575000 0.000000 0.000000
0.650000 0.000000 0.000000
0.725000 0.000000 0.000000
0.800000 0.000000 0.000000
0.875000 0.000000 0.000000
0.950000 0.000000 0.000000
1.000000 0.000000 0.000000
1.000000 0.000000 0.000000
0.000000 0.000000 0.000000
0.000000 0.000000 0.000000
0.050000 0.000000 0.000000
0.125000 0.000000 0.000000
0.200000 0.000000 0.000000
0.275000 0.000000 0.000000
0.350000 0.000000 0.000000
0.425000 0.000000 0.000000
0.500000 0.000000 0.000000
0.575000 0.000000 0.000000
0.650000 0.000000 0.000000
0.725000 0.000000 0.000000
0.800000 0.000000 0.000000
0.875000 0.000000 0.000000
0.950000 0.000000 0.000000
1.000000 0.000000 0.000000
1.000000 0.000000 0.000000
0.000000 0.050000 0.000000
0.000000 0.050000 0.000000
0.050000 0.050000 0.000000
0.125000 0.050000 0.000000
0.200000 0.050000 0.000000
0.275000 0.050000 0.000000
0.350000 0.050000 0.000000
0.425000 0.050000 0.000000
0.500000 0.050000 0.000000
0.575000 0.050000 0.000000
0.650000 0.050000 0.000000
0.725000 0.050000 0.000000
0.800000 0.050000 0.000000
0.875000 0.050000 0.000000
0.950000 0.050000 0.000000
1.000000 0.050000 0.000000
1.000000 0.050000 0.000000
0.000000 0.125000 0.000000
0.000000 0.125000 0.000000
0.050000 0.125000 0.000000
0.125000 0.125000 0.000000
0.200000 0.125000 0.000000
0.275000 0.125000 0.000000
0.350000 0.125000 0.000000
0.425000 0.125000 0.000000
0.500000 0.125000 0.000000
0.575000 0.125000 0.000000
0.650000 0.125000 0.000000
0.725000 0.125000 0.000000
0.800000 0.125000 0.000000
0.875000 0.125000 0.000000
0.950000 0.125000 0.000000
1.000000 0.125000 0.000000
1.000000 0.125000 0.000000
0.000000 0.200000 0.000000
0.000000 0.200000 0.000000
0.050000 0.200000 0.000000
0.125000 0.200000 0.000000
0.200000 0.200000 0.000000
0.275000 0.200000 0.000000
0.350000 0.200000 0.000000
0.425000 0.200000 0.000000
0.500000 0.200000 0.000000
0.575000 0.200000 0.000000
0.650000 0.200000 0.000000
0.725000 0.200000 0.000000
0.800000 0.200000 0.000000
0.875000 0.200000 0.000000
0.950000 0.200000 0.000000
1.000000 0.200000 0.000000
1.000000 0.200000 0.000000
0.000000 0.275000 0.000000
0.000000 0.275000 0.000000
0.050000 0.275000 0.000000
0.125000 0.275000 0.000000
0.200000 0.275000 0.000000
0.275000 0.275000 0.000000
0.350000 0.275000 0.000000
0.425000 0.275000 0.000000
0.500000 0.275000 0.000000
0.575000 0.275000 0.000000
0.650000 0.275000 0.000000
0.725000 0.275000 0.000000
0.800000 0.275000 0.000000
0.875000 0.275000 0.000000
0.950000 0.275000 0.000000
1.000000 0.275000 0.000000
1.000000 0.275000 0.000000
0.000000 0.350000 0.000000
0.000000 0.350000 0.000000
0.050000 0.350000 0.000000
0.125000 0.350000 0.000000
0.200000 0.350000 0.000000
0.275000 0.350000 0.000000
0.350000 0.350000 0.000000
0.425000 0.350000 0.000000
0.500000 0.350000 0.000000
0.575000 0.350000 0.000000
0.650000 0.350000 0.000000
0.725000 0.350000 0.000000
0.800000 0.350000 0.000000
0.875000 0.350000 0.000000
0.950000 0.350000 0.000000
1.000000 0.350000 0.000000
1.000000 0.350000 0.000000
0.000000 0.425000 0.000000
0.000000 0.425000 0.000000
0.050000 0.425000 0.000000
0.125000 0.425000 0.000000
0.200000 0.425000 0.000000
0.275000 0.425000 0.000000
0.350000 0.425000 0.000000
0.425000 0.425000 0.000000
0.500000 0.425000 0.000000
0.575000 0.425000 0.000000
0.650000 0.425000 0.000000
0.725000 0.425000 0.000000
0.800000 0.425000 0.000000
0.875000 0.425000 0.000000
0.950000 0.425000 0.000000
1.000000 0.425000 0.000000
1.000000 0.425000 0.000000
0.000000 0.500000 0.000000
0.000000 0.500000 0.000000
0.050000 0.500000 0.000000
0.125000 0.500000 0.000000
0.200000 0.500000 0.000000
0.275000 0.500000 0.000000
0.350000 0.500000 0.000000
0.425000 0.500000 0.000000
0.500000 0.500000 0.000000
0.575000 0.500000 0.000000
0.650000 0.500000 0.000000
0.725000 0.500000 0.000000
0.800000 0.500000 0.000000
0.875000 0.500000 0.000000
0.950000 0.500000 0.000000
1.000000 0.500000 0.000000
1.000000 0.500000 0.000000
0.000000 0.575000 0.000000
0.000000 0.575000 0.000000
0.050000 0.575000 0.000000
0.125000 0.575000 0.000000
0.200000 0.575000 0.000000
0.275000 0.575000 0.000000
0.350000 0.575000 0.000000
0.425000 0.575000 0.000000
0.500000 0.575000 0.000000
0.575000 0.575000 0.000000
0.650000 0.575000 0.000000
0.725000 0.575000 0.000000
0.800000 0.575000 0.000000
0.875000 0.575000 0.000000
0.950000 0.575000 0.000000
1.000000 0.575000 0.000000
1.000000 0.575000 0.000000
0.000000 0.650000 0.000000
0.000000 0.650000 0.000000
0.050000 0.650000 0.000000
0.125000 0.650000 0.000000
0.200000 0.650000 0.000000
0.275000 0.650000 0.000000
0.350000 0.650000 0.000000
0.425000 0.650000 0.000000
0.500000 0.650000 0.000000
0.575000 0.650000 0.000000
0.650000 0.650000 0.000000
0.725000 0.650000 0.000000
0.800000 0.650000 0.000000
0.875000 0.650000 0.000000
0.950000 0.650000 0.000000
1.000000 0.650000 0.000000
1.000000 0.650000 0.000000
0.000000 0.725000 0.000000
0.000000 0.725000 0.000000
0.050000 0.725000 0.000000
0.125000 0.725000 0.000000
0.200000 0.725000 0.000000
0.275000 0.725000 0.000000
0.350000 0.725000 0.000000
0.425000 0.725000 0.000000
0.500000 0.725000 0.000000
0.575000 0.725000 0.000000
0.650000 0.725000 0.000000
0.725000 0.725000 0.000000
0.800000 0.725000 0.000000
0.875000 0.725000 0.000000
0.950000 0.725000 0.000000
1.000000 0.725000 0.000000
1.000000 0.725000 0.000000
0.000000 0.800000 0.000000
0.000000 0.800000 0.000000
0.050000 0.800000 0.000000
0.125000 0.800000 0.000000
0.200000 0.800000 0.000000
0.275000 0.800000 0.000000
0.350000 0.800000 0.000000
0.425000 0.800000 0.000000
0.500000 0.800000 0.000000
0.575000 0.800000 0.000000
0.650000 0.800000 0.000000
0.725000 0.800000 0.000000
0.800000 0.800000 0.000000
0.875000 0.800000 0.000000
0.950000 0.800000 0.000000
1.000000 0.800000 0.000000
1.000000 0.800000 0.000000
0.000000 0.875000 0.000000
0.000000 0.875000 0.000000
0.050000 0.875000 0.000000
0.125000 0.875000 0.000000
0.200000 0.875000 0.000000
0.275000 0.875000 0.000000
0.350000 0.875000 0.000000
0.425000 0.875000 0.000000
0.500000 0.875000 0.000000
0.575000 0.875000 0.000000
0.650000 0.875000 0.000000
0.725000 0.875000 0.000000
0.800000 0.875000 0.000000
0.875000 0.875000 0.000000
0.950000 0.875000 0.000000
1.000000 0.875000 0.000000
1.000000 0.875000 0.000000
0.000000 0.950000 0.000000
0.000000 0.950000 0.000000
0.050000 0.950000 0.000000
0.125000 0.950000 0.000000
0.200000 0.950000 0.000000
0.275000 0.950000 0.000000
0.350000 0.950000 0.000000
0.425000 0.950000 0.000000
0.500000 0.950000 0.000000
0.575000 0.950000 0.000000
0.650000 0.950000 0.000000
0.725000 0.950000 0.000000
0.800000 0.950000 0.000000
0.875000 0.950000 0.000000
0.950000 0.950000 0.000000
1.000000 0.950000 0.000000
1.000000 0.950000 0.000000
0.000000 1.000000 0.000000
0.000000 1.000000 0.000000
0.050000 1.000000 0.000000
0.125000 1.000000 0.000000
0.200000 1.000000 0.000000
0.275000 1.000000 0.000000
0.350000 1.000000 0.000000
0.425000 1.000000 0.000000
0.500000 1.000000 0.000000
0.575000 1.000000 0.000000
0.650000 1.000000 0.000000
0.725000 1.000000 0.000000
0.800000 1.000000 0.000000
0.875000 1.000000 0.000000
0.950000 1.000000 0.000000
1.000000 1.000000 0.000000
1.000000 1.000000 0.000000
0.000000 1.000000 0.000000
0.000000 1.000000 0.000000
0.050000 1.000000 0.000000
0.125000 1.000000 0.000000
0.200000 1.000000 0.000000
0.275000 1.000000 0.000000
0.350000 1.000000 0.000000
0.425000 1.000000 0.000000
0.500000 1.000000 0.000000
0.575000 1.000000 0.000000
0.650000 1.000000 0.000000
0.725000 1.000000 0.000000
0.800000 1.000000 0.000000
0.875000 1.000000 0.000000
0.950000 1.000000 0.000000
1.000000 1.000000 0.000000
1.000000 1.000000 0.000000
0.000000 0.000000 0.050000
0.000000 0.000000 0.050000
0.050000 0.000000 0.050000
0.125000 0.000000 0.050000
0.200000 0.000000 0.050000
0.275000 0.000000 0.050000
0.350000 0.000000 0.050000
0.425000 0.000000 0.050000
0.500000 0.000000 0.050000
0.575000 0.000000 0.050000
0.650000 0.000000 0.050000
0.725000 0.000000 0.050000
0.800000 0.000000 0.050000
0.875000 0.000000 0.050000
0.950000 0.000000 0.050000
1.000000 0.000000 0.050000
1.000000 0.000000 0.050000
0.000000 0.000000 0.050000
0.000000 0.000000 0.050000
0.050000 0.000000 0.050000
0.125000 0.000000 0.050000
0.200000 0.000000 0.050000
0.275000 0.000000 0.050000
0.350000 0.000000 0.050000
0.425000 0.000000 0.050000
0.500000 0.000000 0.050000
0.575000 0.000000 0.050000
0.650000 0.000000 0.050000
0.725000 0.000000 0.050000
0.800000 0.000000 0.050000
0.875000 0.000000 0.050000
0.950000 0.000000 0.050000
1.000000 0.000000 0.050000
1.000000 0.000000 0.050000
0.000000 0.050000 0.050000
0.000000 0.050000 0.050000
0.050000 0.050000 0.050000
0.125000 0.050000 0.050000
0.200000 0.050000 0.050000
0.275000 0.050000 0.050000
0.350000 0.050000 0.050000
0.425000 0.050000 0.050000
0.500000 0.050000 0.050000
0.575000 0.050000 0.050000
0.650000 0.050000 0.050000
0.725000 0.050000 0.050000
0.800000 0.050000 0.050000
0.875000 0.050000 0.050000
0.950000 0.050000 0.050000
1.000000 0.050000 0.050000
1.000000 0.050000 0.050000
0.000000 0.125000 0.050000
0.000000 0.125000 0.050000
0.050000 0.125000 0.050000
0.125000 0.125000 0.050000
0.200000 0.125000 0.050000
0.275000 0.125000 0.050000
0.350000 0.125000 0.050000
0.425000 0.125000 0.050000
0.500000 0.125000 0.050000
0.575000 0.125000 0.050000
0.650000 0.125000 0.050000
0.725000 0.125000 0.050000
0.800000 0.125000 0.050000
0.875000 0.125000 0.050000
0.950000 0.125000 0.050000
1.000000 0.125000 0.050000
1.000000 0.125000 0.050000
0.000000 0.200000 0.050000
0.000000 0.200000 0.050000
0.050000 0.200000 0.050000
0.125000 0.200000 0.050000
0.200000 0.200000 0.050000
0.275000 0.200000 0.050000
0.350000 0.200000 0.050000
0.425000 0.200000 0.050000
0.500000 0.200000 0.050000
0.575000 0.200000 0.050000
0.650000 0.200000 0.050000
0.725000 0.200000 0.050000
0.800000 0.200000 0.050000
0.875000 0.200000 0.050000
0.950000 0.200000 0.050000
1.000000 0.200000 0.050000
1.000000 0.200000 0.050000
0.000000 0.275000 0.050000
0.000000 0.275000 0.050000
0.050000 0.275000 0.050000
0.125000 0.275000 0.050000
0.200000 0.275000 0.050000
0.275000 0.275000 0.050000
0.350000 0.275000 0.050000
0.425000 0.275000 0.050000
0.500000 0.275000 0.050000
0.575000 0.275000 0.050000
0.650000 0.275000 0.050000
0.725000 0.275000 0.050000
0.800000 0.275000 0.050000
0.875000 0.275000 0.050000
0.950000 0.275000 0.050000
1.000000 0.275000 0.050000
1.000000 0.275000 0.050000
0.000000 0.350000 0.050000
0.000000 0.350000 0.050000
0.050000 0.350000 0.050000
0.125000 0.350000 0.050000
0.200000 0.350000 0.050000
0.275000 0.350000 0.050000
0.350000 0.350000 0.050000
0.425000 0.350000 0.050000
0.500000 0.350000 0.050000
0.575000 0.350000 0.050000
0.650000 0.350000 0.050000
0.725000 0.350000 0.050000
0.800000 0.350000 0.050000
0.875000 0.350000 0.050000
0.950000 0.350000 0.050000
1.000000 0.350000 0.050000
1.000000 0.350000 0.050000
0.000000 0.425000 0.050000
0.000000 0.425000 0.050000
0.050000 0.425000 0.050000
0.125000 0.425000 0.050000
0.200000 0.425000 0.050000
0.275000 0.425000 0.050000
0.350000 0.425000 0.050000
0.425000 0.425000 0.050000
0.500000 0.425000 0.050000
0.575000 0.425000 0.050000
0.650000 0.425000 0.050000
0.725000 0.425000 0.050000
0.800000 0.425000 0.050000
0.875000 0.425000 0.050000
0.950000 0.425000 0.050000
1.000000 0.425000 0.050000
1.000000 0.425000 0.050000
0.000000 0.500000 0.050000
0.000000 0.500000 0.050000
0.050000 0.500000 0.050000
0.125000 0.500000 0.050000
0.200000 0.500000 0.050000
0.275000 0.500000 0.050000
0.350000 0.500000 0.050000
0.425000 0.500000 0.050000
0.500000 0.500000 0.050000
0.575000 0.500000 0.050000
0.650000 0.500000 0.050000
0.725000 0.500000 0.050000
0.800000 0.500000 0.050000
0.875000 0.500000 0.050000
0.950000 0.500000 0.050000
1.000000 0.500000 0.050000
1.000000 0.500000 0.050000
0.000000 0.575000 0.050000
0.000000 0.575000 0.050000
0.050000 0.575000 0.050000
0.125000 0.575000 0.050000
0.200000 0.575000 0.050000
0.275000 0.575000 0.050000
0.350000 0.575000 0.050000
0.425000 0.575000 0.050000
0.500000 0.575000 0.050000
0.575000 0.575000 0.050000
0.650000 0.575000 0.050000
0.725000 0.575000 0.050000
0.800000 0.575000 0.050000
0.875000 0.575000 0.050000
0.950000 0.575000 0.050000
1.000000 0.575000 0.050000
1.000000 0.575000 0.050000
0.000000 0.650000 0.050000
0.000000 0.650000 0.050000
0.050000 0.650000 0.050000
0.125000 0.650000 0.050000
0.200000 0.650000 0.050000
0.275000 0.650000 0.050000
0.350000 0.650000 0.050000
0.425000 0.650000 0.050000
0.500000 0.650000 0.050000
0.575000 0.650000 0.050000
0.650000 0.650000 0.050000
0.725000 0.650000 0.050000
0.800000 0.650000 0.050000
0.875000 0.650000 0.050000
0.950000 0.650000 0.050000
1.000000 0.650000 0.050000
1.000000 0.650000 0.050000
0.000000 0.725000 0.050000
0.000000 0.725000 0.050000
0.050000 0.725000 0.050000
0.125000 0.725000 0.050000
0.200000 0.725000 0.050000
0.275000 0.725000 0.050000
0.350000 0.725000 0.050000
0.425000 0.725000 0.050000
0.500000 0.725000 0.050000
0.575000 0.725000 0.050000
0.650000 0.725000 0.050000
0.725000 0.725000 0.050000
0.800000 0.725000 0.050000
0.875000 0.725000 0.050000
0.950000 0.725000 0.050000
1.000000 0.725000 0.050000
1.000000 0.725000 0.050000
0.000000 0.800000 0.050000
0.000000 0.800000 0.050000
0.050000 0.800000 0.050000
0.125000 0.800000 0.050000
0.200000 0.800000 0.050000
0.275000 0.800000 0.050000
0.350000 0.800000 0.050000
0.425000 0.800000 0.050000
0.500000 0.800000 0.050000
0.575000 0.800000 0.050000
0.650000 0.800000 0.050000
0.725000 0.800000 0.050000
0.800000 0.800000 0.050000
0.875000 0.800000 0.050000
0.950000 0.800000 0.050000
1.000000 0.800000 0.050000
1.000000 0.800000 0.050000
0.000000 0.875000 0.050000
0.000000 0.875000 0.050000
0.050000 0.875000 0.050000
0.125000 0.875000 0.050000
0.200000 0.875000 0.050000
0.275000 0.875000 0.050000
0.350000 0.875000 0.050000
0.425000 0.875000 0.050000
0.500000 0.875000 0.050000
0.575000 0.875000 0.050000
0.650000 0.875000 0.050000
0.725000 0.875000 0.050000
0.800000 0.875000 0.050000
0.875000 0.875000 0.050000
0.950000 0.875000 0.050000
1.000000 0.875000 0.050000
1.000000 0.875000 0.050000
0.000000 0.950000 0.050000
0.000000 0.950000 0.050000
0.050000 0.950000 0.050000
0.125000 0.950000 0.050000
0.200000 0.950000 0.050000
0.275000 0.950000 0.050000
0.350000 0.950000 0.050000
0.425000 0.950000 0.050000
0.500000 0.950000 0.050000
0.575000 0.950000 0.050000
0.650000 0.950000 0.050000
0.725000 0.950000 0.050000
0.800000 0.950000 0.050000
0.875000 0.950000 0.050000
0.950000 0.950000 0.050000
1.000000 0.950000 0.050000
1.000000 0.950000 0.050000
0.000000 1.000000 0.050000
0.000000 1.000000 0.050000
0.050000 1.000000 0.050000
0.125000 1.000000 0.050000
0.200000 1.000000 0.050000
0.275000 1.000000 0.050000
0.350000 1.000000 0.050000
0.425000 1.000000 0.050000
0.500000 1.000000 0.050000
0.575000 1.000000 0.050000
0.650000 1.000000 0.050000
0.725000 1.000000 0.050000
0.800000 1.000000 0.050000
0.875000 1.000000 0.050000
0.950000 1.000000 0.050000
1.000000 1.000000 0.050000
1.000000 1.000000 0.050000
0.000000 1.000000 0.050000
0.000000 1.000000 0.050000
0.050000 1.000000 0.050000
0.125000 1.000000 0.050000
0.200000 1.000000 0.050000
0.275000 1.000000 0.050000
0.350000 1.000000 0.050000
0.425000 1.000000 0.050000
0.500000 1.000000 0.050000
0.575000 1.000000 0.050000
0.650000 1.000000 0.050000
0.725000 1.000000 0.050000
0.800000 1.000000 0.050000
0.875000 1.000000 0.050000
0.950000 1.000000 0.050000
1.000000 1.000000 0.050000
1.000000 1.000000 0.050000
0.000000 0.000000 0.125000
0.000000 0.000000 0.125000
0.050000 0.000000 0.125000
0.125000 0.000000 0.125000
0.200000 0.000000 0.125000
0.275000 0.000000 0.125000
0.350000 0.000000 0.125000
0.425000 0.000000 0.125000
0.500000 0.000000 0.125000
0.575000 0.000000 0.125000
0.650000 0.000000 0.125000
0.725000 0.000000 0.125000
0.800000 0.000000 0.125000
0.875000 0.000000 0.125000
0.950000 0.000000 0.125000
1.000000 0.000000 0.125000
1.000000 0.000000 0.125000
0.000000 0.000000 0.125000
0.000000 0.000000 0.125000
0.050000 0.000000 0.125000
