src/assets/luts/high_contrast.cube
TITLE "High Contrast"
LUT_3D_SIZE 5
0.000000 0.000000 0.000000
0.200000 0.000000 0.000000
0.500000 0.000000 0.000000
0.800000 0.000000 0.000000
1.000000 0.000000 0.000000
0.000000 0.200000 0.000000
0.200000 0.200000 0.000000
0.500000 0.200000 0.000000
0.800000 0.200000 0.000000
1.000000 0.200000 0.000000
0.000000 0.500000 0.000000
0.200000 0.500000 0.000000
0.500000 0.500000 0.000000
0.800000 0.500000 0.000000
1.000000 0.500000 0.000000
0.000000 0.800000 0.000000
0.200000 0.800000 0.000000
0.500000 0.800000 0.000000
0.800000 0.800000 0.000000
1.000000 0.800000 0.000000
0.000000 1.000000 0.000000
0.200000 1.000000 0.000000
0.500000 1.000000 0.000000
0.800000 1.000000 0.000000
1.000000 1.000000 0.000000
0.000000 0.000000 0.200000
0.200000 0.000000 0.200000
0.500000 0.000000 0.200000
0.800000 0.000000 0.200000
1.000000 0.000000 0.200000
0.000000 0.200000 0.200000
0.200000 0.200000 0.200000
0.500000 0.200000 0.200000
0.800000 0.200000 0.200000
1.000000 0.200000 0.200000
0.000000 0.500000 0.200000
0.200000 0.500000 0.200000
0.500000 0.500000 0.200000
0.800000 0.500000 0.200000
1.000000 0.500000 0.200000
0.000000 0.800000 0.200000
0.200000 0.800000 0.200000
0.500000 0.800000 0.200000
0.800000 0.800000 0.200000
1.000000 0.800000 0.200000
0.000000 1.000000 0.200000
0.200000 1.000000 0.200000
0.500000 1.000000 0.200000
0.800000 1.000000 0.200000
1.000000 1.000000 0.200000
0.000000 0.000000 0.500000
0.200000 0.000000 0.500000
0.500000 0.000000 0.500000
0.800000 0.000000 0.500000
1.000000 0.000000 0.500000
0.000000 0.200000 0.500000
0.200000 0.200000 0.500000
0.500000 0.200000 0.500000
0.800000 0.200000 0.500000
1.000000 0.200000 0.500000
0.000000 0.500000 0.500000
0.200000 0.500000 0.500000
0.500000 0.500000 0.500000
0.800000 0.500000 0.500000
1.000000 0.500000 0.500000
0.000000 0.800000 0.500000
0.200000 0.800000 0.500000
0.500000 0.800000 0.500000
0.800000 0.800000 0.500000
1.000000 0.800000 0.500000
0.000000 1.000000 0.500000
0.200000 1.000000 0.500000
0.500000 1.000000 0.500000
0.800000 1.000000 0.500000
1.000000 1.000000 0.500000
0.000000 0.000000 0.800000
0.200000 0.000000 0.800000
0.500000 0.000000 0.800000
0.800000 0.000000 0.800000
1.000000 0.000000 0.800000
0.000000 0.200000 0.800000
0.200000 0.200000 0.800000
0.500000 0.200000 0.800000
0.800000 0.200000 0.800000
1.000000 0.200000 0.800000
0.000000 0.500000 0.800000
0.200000 0.500000 0.800000
0.500000 0.500000 0.800000
0.800000 0.500000 0.800000
1.000000 0.500000 0.800000
0.000000 0.800000 0.800000
0.200000 0.800000 0.800000
0.500000 0.800000 0.800000
0.800000 0.800000 0.800000
1.000000 0.800000 0.800000
0.000000 1.000000 0.800000
0.200000 1.000000 0.800000
0.500000 1.000000 0.800000
0.800000 1.000000 0.800000
1.000000 1.000000 0.800000
0.000000 0.000000 1.000000
0.200000 0.000000 1.000000
0.500000 0.000000 1.000000
0.800000 0.000000 1.000000
1.000000 0.000000 1.000000
0.000000 0.200000 1.000000
0.200000 0.200000 1.000000
0.500000 0.200000 1.000000
0.800000 0.200000 1.000000
1.000000 0.200000 1.000000
0.000000 0.500000 1.000000
0.200000 0.500000 1.000000
0.500000 0.500000 1.000000
0.800000 0.500000 1.000000
1.000000 0.500000 1.000000
0.000000 0.800000 1.000000
0.200000 0.800000 1.000000
0.500000 0.800000 1.000000
0.800000 0.800000 1.000000
1.000000 0.800000 1.000000
0.000000 1.000000 1.000000
0.200000 1.000000 1.000000
0.500000 1.000000 1.000000
0.800000 1.000000 1.000000
1.000000 1.000000 1.000000
