src/assets/luts/natural_boost.cube
TITLE "Natural Boost"
LUT_3D_SIZE 9
0.000000 0.000000 0.000000
0.131250 0.000000 0.000000
0.262500 0.000000 0.000000
0.393750 0.000000 0.000000
0.525000 0.000000 0.000000
0.656250 0.000000 0.000000
0.787500 0.000000 0.000000
0.918750 0.000000 0.000000
1.000000 0.000000 0.000000
0.000000 0.131250 0.000000
0.131250 0.131250 0.000000
0.262500 0.131250 0.000000
0.393750 0.131250 0.000000
0.525000 0.131250 0.000000
0.656250 0.131250 0.000000
0.787500 0.131250 0.000000
0.918750 0.131250 0.000000
1.000000 0.131250 0.000000
0.000000 0.262500 0.000000
0.131250 0.262500 0.000000
0.262500 0.262500 0.000000
0.393750 0.262500 0.000000
0.525000 0.262500 0.000000
0.656250 0.262500 0.000000
0.787500 0.262500 0.000000
0.918750 0.262500 0.000000
1.000000 0.262500 0.000000
0.000000 0.393750 0.000000
0.131250 0.393750 0.000000
0.262500 0.393750 0.000000
0.393750 0.393750 0.000000
0.525000 0.393750 0.000000
0.656250 0.393750 0.000000
0.787500 0.393750 0.000000
0.918750 0.393750 0.000000
1.000000 0.393750 0.000000
0.000000 0.525000 0.000000
0.131250 0.525000 0.000000
0.262500 0.525000 0.000000
0.393750 0.525000 0.000000
0.525000 0.525000 0.000000
0.656250 0.525000 0.000000
0.787500 0.525000 0.000000
0.918750 0.525000 0.000000
1.000000 0.525000 0.000000
0.000000 0.656250 0.000000
0.131250 0.656250 0.000000
0.262500 0.656250 0.000000
0.393750 0.656250 0.000000
0.525000 0.656250 0.000000
0.656250 0.656250 0.000000
0.787500 0.656250 0.000000
0.918750 0.656250 0.000000
1.000000 0.656250 0.000000
0.000000 0.787500 0.000000
0.131250 0.787500 0.000000
0.262500 0.787500 0.000000
0.393750 0.787500 0.000000
0.525000 0.787500 0.000000
0.656250 0.787500 0.000000
0.787500 0.787500 0.000000
0.918750 0.787500 0.000000
1.000000 0.787500 0.000000
0.000000 0.918750 0.000000
0.131250 0.918750 0.000000
0.262500 0.918750 0.000000
0.393750 0.918750 0.000000
0.525000 0.918750 0.000000
0.656250 0.918750 0.000000
0.787500 0.918750 0.000000
0.918750 0.918750 0.000000
1.000000 0.918750 0.000000
0.000000 1.000000 0.000000
0.131250 1.000000 0.000000
0.262500 1.000000 0.000000
0.393750 1.000000 0.000000
0.525000 1.000000 0.000000
0.656250 1.000000 0.000000
0.787500 1.000000 0.000000
0.918750 1.000000 0.000000
1.000000 1.000000 0.000000
0.000000 0.000000 0.131250
0.131250 0.000000 0.131250
0.262500 0.000000 0.131250
0.393750 0.000000 0.131250
0.525000 0.000000 0.131250
0.656250 0.000000 0.131250
0.787500 0.000000 0.131250
0.918750 0.000000 0.131250
1.000000 0.000000 0.131250
0.000000 0.131250 0.131250
0.131250 0.131250 0.131250
0.262500 0.131250 0.131250
0.393750 0.131250 0.131250
0.525000 0.131250 0.131250
0.656250 0.131250 0.131250
0.787500 0.131250 0.131250
0.918750 0.131250 0.131250
1.000000 0.131250 0.131250
0.000000 0.262500 0.131250
0.131250 0.262500 0.131250
0.262500 0.262500 0.131250
0.393750 0.262500 0.131250
0.525000 0.262500 0.131250
0.656250 0.262500 0.131250
0.787500 0.262500 0.131250
0.918750 0.262500 0.131250
1.000000 0.262500 0.131250
0.000000 0.393750 0.131250
0.131250 0.393750 0.131250
0.262500 0.393750 0.131250
0.393750 0.393750 0.131250
0.525000 0.393750 0.131250
0.656250 0.393750 0.131250
0.787500 0.393750 0.131250
0.918750 0.393750 0.131250
1.000000 0.393750 0.131250
0.000000 0.525000 0.131250
0.131250 0.525000 0.131250
0.262500 0.525000 0.131250
0.393750 0.525000 0.131250
0.525000 0.525000 0.131250
0.656250 0.525000 0.131250
0.787500 0.525000 0.131250
0.918750 0.525000 0.131250
1.000000 0.525000 0.131250
0.000000 0.656250 0.131250
0.131250 0.656250 0.131250
0.262500 0.656250 0.131250
0.393750 0.656250 0.131250
0.525000 0.656250 0.131250
0.656250 0.656250 0.131250
0.787500 0.656250 0.131250
0.918750 0.656250 0.131250
1.000000 0.656250 0.131250
0.000000 0.787500 0.131250
0.131250 0.787500 0.131250
0.262500 0.787500 0.131250
0.393750 0.787500 0.131250
0.525000 0.787500 0.131250
0.656250 0.787500 0.131250
0.787500 0.787500 0.131250
0.918750 0.787500 0.131250
1.000000 0.787500 0.131250
0.000000 0.918750 0.131250
0.131250 0.918750 0.131250
0.262500 0.918750 0.131250
0.393750 0.918750 0.131250
0.525000 0.918750 0.131250
0.656250 0.918750 0.131250
0.787500 0.918750 0.131250
0.918750 0.918750 0.131250
1.000000 0.918750 0.131250
0.000000 1.000000 0.131250
0.131250 1.000000 0.131250
0.262500 1.000000 0.131250
0.393750 1.000000 0.131250
0.525000 1.000000 0.131250
0.656250 1.000000 0.131250
0.787500 1.000000 0.131250
0.918750 1.000000 0.131250
1.000000 1.000000 0.131250
0.000000 0.000000 0.262500
0.131250 0.000000 0.262500
0.262500 0.000000 0.262500
0.393750 0.000000 0.262500
0.525000 0.000000 0.262500
0.656250 0.000000 0.262500
0.787500 0.000000 0.262500
0.918750 0.000000 0.262500
1.000000 0.000000 0.262500
0.000000 0.131250 0.262500
0.131250 0.131250 0.262500
0.262500 0.131250 0.262500
0.393750 0.131250 0.262500
0.525000 0.131250 0.262500
0.656250 0.131250 0.262500
0.787500 0.131250 0.262500
0.918750 0.131250 0.262500
1.000000 0.131250 0.262500
0.000000 0.262500 0.262500
0.131250 0.262500 0.262500
0.262500 0.262500 0.262500
0.393750 0.262500 0.262500
0.525000 0.262500 0.262500
0.656250 0.262500 0.262500
0.787500 0.262500 0.262500
0.918750 0.262500 0.262500
1.000000 0.262500 0.262500
0.000000 0.393750 0.262500
0.131250 0.393750 0.262500
0.262500 0.393750 0.262500
0.393750 0.393750 0.262500
0.525000 0.393750 0.262500
0.656250 0.393750 0.262500
0.787500 0.393750 0.262500
0.918750 0.393750 0.262500
1.000000 0.393750 0.262500
0.000000 0.525000 0.262500
0.131250 0.525000 0.262500
0.262500 0.525000 0.262500
0.393750 0.525000 0.262500
0.525000 0.525000 0.262500
0.656250 0.525000 0.262500
0.787500 0.525000 0.262500
0.918750 0.525000 0.262500
1.000000 0.525000 0.262500
0.000000 0.656250 0.262500
0.131250 0.656250 0.262500
0.262500 0.656250 0.262500
0.393750 0.656250 0.262500
0.525000 0.656250 0.262500
0.656250 0.656250 0.262500
0.787500 0.656250 0.262500
0.918750 0.656250 0.262500
1.000000 0.656250 0.262500
0.000000 0.787500 0.262500
0.131250 0.787500 0.262500
0.262500 0.787500 0.262500
0.393750 0.787500 0.262500
0.525000 0.787500 0.262500
0.656250 0.787500 0.262500
0.787500 0.787500 0.262500
0.918750 0.787500 0.262500
1.000000 0.787500 0.262500
0.000000 0.918750 0.262500
0.131250 0.918750 0.262500
0.262500 0.918750 0.262500
0.393750 0.918750 0.262500
0.525000 0.918750 0.262500
0.656250 0.918750 0.262500
0.787500 0.918750 0.262500
0.918750 0.918750 0.262500
1.000000 0.918750 0.262500
0.000000 1.000000 0.262500
0.131250 1.000000 0.262500
0.262500 1.000000 0.262500
0.393750 1.000000 0.262500
0.525000 1.000000 0.262500
0.656250 1.000000 0.262500
0.787500 1.000000 0.262500
0.918750 1.000000 0.262500
1.000000 1.000000 0.262500
0.000000 0.000000 0.393750
0.131250 0.000000 0.393750
0.262500 0.000000 0.393750
0.393750 0.000000 0.393750
0.525000 0.000000 0.393750
0.656250 0.000000 0.393750
0.787500 0.000000 0.393750
0.918750 0.000000 0.393750
1.000000 0.000000 0.393750
0.000000 0.131250 0.393750
0.131250 0.131250 0.393750
0.262500 0.131250 0.393750
0.393750 0.131250 0.393750
0.525000 0.131250 0.393750
0.656250 0.131250 0.393750
0.787500 0.131250 0.393750
0.918750 0.131250 0.393750
1.000000 0.131250 0.393750
0.000000 0.262500 0.393750
0.131250 0.262500 0.393750
0.262500 0.262500 0.393750
0.393750 0.262500 0.393750
0.525000 0.262500 0.393750
0.656250 0.262500 0.393750
0.787500 0.262500 0.393750
0.918750 0.262500 0.393750
1.000000 0.262500 0.393750
0.000000 0.393750 0.393750
0.131250 0.393750 0.393750
0.262500 0.393750 0.393750
0.393750 0.393750 0.393750
0.525000 0.393750 0.393750
0.656250 0.393750 0.393750
0.787500 0.393750 0.393750
0.918750 0.393750 0.393750
1.000000 0.393750 0.393750
0.000000 0.525000 0.393750
0.131250 0.525000 0.393750
0.262500 0.525000 0.393750
0.393750 0.525000 0.393750
0.525000 0.525000 0.393750
0.656250 0.525000 0.393750
0.787500 0.525000 0.393750
0.918750 0.525000 0.393750
1.000000 0.525000 0.393750
0.000000 0.656250 0.393750
0.131250 0.656250 0.393750
0.262500 0.656250 0.393750
0.393750 0.656250 0.393750
0.525000 0.656250 0.393750
0.656250 0.656250 0.393750
0.787500 0.656250 0.393750
0.918750 0.656250 0.393750
1.000000 0.656250 0.393750
0.000000 0.787500 0.393750
0.131250 0.787500 0.393750
0.262500 0.787500 0.393750
0.393750 0.787500 0.393750
0.525000 0.787500 0.393750
0.656250 0.787500 0.393750
0.787500 0.787500 0.393750
0.918750 0.787500 0.393750
1.000000 0.787500 0.393750
0.000000 0.918750 0.393750
0.131250 0.918750 0.393750
0.262500 0.918750 0.393750
0.393750 0.918750 0.393750
0.525000 0.918750 0.393750
0.656250 0.918750 0.393750
0.787500 0.918750 0.393750
0.918750 0.918750 0.393750
1.000000 0.918750 0.393750
0.000000 1.000000 0.393750
0.131250 1.000000 0.393750
0.262500 1.000000 0.393750
0.393750 1.000000 0.393750
0.525000 1.000000 0.393750
0.656250 1.000000 0.393750
0.787500 1.000000 0.393750
0.918750 1.000000 0.393750
1.000000 1.000000 0.393750
0.000000 0.000000 0.525000
0.131250 0.000000 0.525000
0.262500 0.000000 0.525000
0.393750 0.000000 0.525000
0.525000 0.000000 0.525000
0.656250 0.000000 0.525000
0.787500 0.000000 0.525000
0.918750 0.000000 0.525000
1.000000 0.000000 0.525000
0.000000 0.131250 0.525000
0.131250 0.131250 0.525000
0.262500 0.131250 0.525000
0.393750 0.131250 0.525000
0.525000 0.131250 0.525000
0.656250 0.131250 0.525000
0.787500 0.131250 0.525000
0.918750 0.131250 0.525000
1.000000 0.131250 0.525000
0.000000 0.262500 0.525000
0.131250 0.262500 0.525000
0.262500 0.262500 0.525000
0.393750 0.262500 0.525000
0.525000 0.262500 0.525000
0.656250 0.262500 0.525000
0.787500 0.262500 0.525000
0.918750 0.262500 0.525000
1.000000 0.262500 0.525000
0.000000 0.393750 0.525000
0.131250 0.393750 0.525000
0.262500 0.393750 0.525000
0.393750 0.393750 0.525000
0.525000 0.393750 0.525000
0.656250 0.393750 0.525000
0.787500 0.393750 0.525000
0.918750 0.393750 0.525000
1.000000 0.393750 0.525000
0.000000 0.525000 0.525000
0.131250 0.525000 0.525000
0.262500 0.525000 0.525000
0.393750 0.525000 0.525000
0.525000 0.525000 0.525000
0.656250 0.525000 0.525000
0.787500 0.525000 0.525000
0.918750 0.525000 0.525000
1.000000 0.525000 0.525000
0.000000 0.656250 0.525000
0.131250 0.656250 0.525000
0.262500 0.656250 0.525000
0.393750 0.656250 0.525000
0.525000 0.656250 0.525000
0.656250 0.656250 0.525000
0.787500 0.656250 0.525000
0.918750 0.656250 0.525000
1.000000 0.656250 0.525000
0.000000 0.787500 0.525000
0.131250 0.787500 0.525000
0.262500 0.787500 0.525000
0.393750 0.787500 0.525000
0.525000 0.787500 0.525000
0.656250 0.787500 0.525000
0.787500 0.787500 0.525000
0.918750 0.787500 0.525000
1.000000 0.787500 0.525000
0.000000 0.918750 0.525000
0.131250 0.918750 0.525000
0.262500 0.918750 0.525000
0.393750 0.918750 0.525000
0.525000 0.918750 0.525000
0.656250 0.918750 0.525000
0.787500 0.918750 0.525000
0.918750 0.918750 0.525000
1.000000 0.918750 0.525000
0.000000 1.000000 0.525000
0.131250 1.000000 0.525000
0.262500 1.000000 0.525000
0.393750 1.000000 0.525000
0.525000 1.000000 0.525000
0.656250 1.000000 0.525000
0.787500 1.000000 0.525000
0.918750 1.000000 0.525000
1.000000 1.000000 0.525000
0.000000 0.000000 0.656250
0.131250 0.000000 0.656250
0.262500 0.000000 0.656250
0.393750 0.000000 0.656250
0.525000 0.000000 0.656250
0.656250 0.000000 0.656250
0.787500 0.000000 0.656250
0.918750 0.000000 0.656250
1.000000 0.000000 0.656250
0.000000 0.131250 0.656250
0.131250 0.131250 0.656250
0.262500 0.131250 0.656250
0.393750 0.131250 0.656250
0.525000 0.131250 0.656250
0.656250 0.131250 0.656250
0.787500 0.131250 0.656250
0.918750 0.131250 0.656250
1.000000 0.131250 0.656250
0.000000 0.262500 0.656250
0.131250 0.262500 0.656250
0.262500 0.262500 0.656250
0.393750 0.262500 0.656250
0.525000 0.262500 0.656250
0.656250 0.262500 0.656250
0.787500 0.262500 0.656250
0.918750 0.262500 0.656250
1.000000 0.262500 0.656250
0.000000 0.393750 0.656250
0.131250 0.393750 0.656250
0.262500 0.393750 0.656250
0.393750 0.393750 0.656250
0.525000 0.393750 0.656250
0.656250 0.393750 0.656250
0.787500 0.393750 0.656250
0.918750 0.393750 0.656250
1.000000 0.393750 0.656250
0.000000 0.525000 0.656250
0.131250 0.525000 0.656250
0.262500 0.525000 0.656250
0.393750 0.525000 0.656250
0.525000 0.525000 0.656250
0.656250 0.525000 0.656250
0.787500 0.525000 0.656250
0.918750 0.525000 0.656250
1.000000 0.525000 0.656250
0.000000 0.656250 0.656250
0.131250 0.656250 0.656250
0.262500 0.656250 0.656250
0.393750 0.656250 0.656250
0.525000 0.656250 0.656250
0.656250 0.656250 0.656250
0.787500 0.656250 0.656250
0.918750 0.656250 0.656250
1.000000 0.656250 0.656250
0.000000 0.787500 0.656250
0.131250 0.787500 0.656250
0.262500 0.787500 0.656250
0.393750 0.787500 0.656250
0.525000 0.787500 0.656250
0.656250 0.787500 0.656250
0.787500 0.787500 0.656250
0.918750 0.787500 0.656250
1.000000 0.787500 0.656250
0.000000 0.918750 0.656250
0.131250 0.918750 0.656250
0.262500 0.918750 0.656250
0.393750 0.918750 0.656250
0.525000 0.918750 0.656250
0.656250 0.918750 0.656250
0.787500 0.918750 0.656250
0.918750 0.918750 0.656250
1.000000 0.918750 0.656250
0.000000 1.000000 0.656250
0.131250 1.000000 0.656250
0.262500 1.000000 0.656250
0.393750 1.000000 0.656250
0.525000 1.000000 0.656250
0.656250 1.000000 0.656250
0.787500 1.000000 0.656250
0.918750 1.000000 0.656250
1.000000 1.000000 0.656250
0.000000 0.000000 0.787500
0.131250 0.000000 0.787500
0.262500 0.000000 0.787500
0.393750 0.000000 0.787500
0.525000 0.000000 0.787500
0.656250 0.000000 0.787500
0.787500 0.000000 0.787500
0.918750 0.000000 0.787500
1.000000 0.000000 0.787500
0.000000 0.131250 0.787500
0.131250 0.131250 0.787500
0.262500 0.131250 0.787500
0.393750 0.131250 0.787500
0.525000 0.131250 0.787500
0.656250 0.131250 0.787500
0.787500 0.131250 0.787500
0.918750 0.131250 0.787500
1.000000 0.131250 0.787500
0.000000 0.262500 0.787500
0.131250 0.262500 0.787500
0.262500 0.262500 0.787500
0.393750 0.262500 0.787500
0.525000 0.262500 0.787500
0.656250 0.262500 0.787500
0.787500 0.262500 0.787500
0.918750 0.262500 0.787500
1.000000 0.262500 0.787500
0.000000 0.393750 0.787500
0.131250 0.393750 0.787500
0.262500 0.393750 0.787500
0.393750 0.393750 0.787500
0.525000 0.393750 0.787500
0.656250 0.393750 0.787500
0.787500 0.393750 0.787500
0.918750 0.393750 0.787500
1.000000 0.393750 0.787500
0.000000 0.525000 0.787500
0.131250 0.525000 0.787500
0.262500 0.525000 0.787500
0.393750 0.525000 0.787500
0.525000 0.525000 0.787500
0.656250 0.525000 0.787500
0.787500 0.525000 0.787500
0.918750 0.525000 0.787500
1.000000 0.525000 0.787500
0.000000 0.656250 0.787500
0.131250 0.656250 0.787500
0.262500 0.656250 0.787500
0.393750 0.656250 0.787500
0.525000 0.656250 0.787500
0.656250 0.656250 0.787500
0.787500 0.656250 0.787500
0.918750 0.656250 0.787500
1.000000 0.656250 0.787500
0.000000 0.787500 0.787500
0.131250 0.787500 0.787500
0.262500 0.787500 0.787500
0.393750 0.787500 0.787500
0.525000 0.787500 0.787500
0.656250 0.787500 0.787500
0.787500 0.787500 0.787500
0.918750 0.787500 0.787500
1.000000 0.787500 0.787500
0.000000 0.918750 0.787500
0.131250 0.918750 0.787500
0.262500 0.918750 0.787500
0.393750 0.918750 0.787500
0.525000 0.918750 0.787500
0.656250 0.918750 0.787500
0.787500 0.918750 0.787500
0.918750 0.918750 0.787500
1.000000 0.918750 0.787500
0.000000 1.000000 0.787500
0.131250 1.000000 0.787500
0.262500 1.000000 0.787500
0.393750 1.000000 0.787500
0.525000 1.000000 0.787500
0.656250 1.000000 0.787500
0.787500 1.000000 0.787500
0.918750 1.000000 0.787500
1.000000 1.000000 0.787500
0.000000 0.000000 0.918750
0.131250 0.000000 0.918750
0.262500 0.000000 0.918750
0.393750 0.000000 0.918750
0.525000 0.000000 0.918750
0.656250 0.000000 0.918750
0.787500 0.000000 0.918750
0.918750 0.000000 0.918750
1.000000 0.000000 0.918750
0.000000 0.131250 0.918750
0.131250 0.131250 0.918750
0.262500 0.131250 0.918750
0.393750 0.131250 0.918750
0.525000 0.131250 0.918750
0.656250 0.131250 0.918750
0.787500 0.131250 0.918750
0.918750 0.131250 0.918750
1.000000 0.131250 0.918750
0.000000 0.262500 0.918750
0.131250 0.262500 0.918750
0.262500 0.262500 0.918750
0.393750 0.262500 0.918750
0.525000 0.262500 0.918750
0.656250 0.262500 0.918750
0.787500 0.262500 0.918750
0.918750 0.262500 0.918750
1.000000 0.262500 0.918750
0.000000 0.393750 0.918750
0.131250 0.393750 0.918750
0.262500 0.393750 0.918750
0.393750 0.393750 0.918750
0.525000 0.393750 0.918750
0.656250 0.393750 0.918750
0.787500 0.393750 0.918750
0.918750 0.393750 0.918750
1.000000 0.393750 0.918750
0.000000 0.525000 0.918750
0.131250 0.525000 0.918750
0.262500 0.525000 0.918750
0.393750 0.525000 0.918750
0.525000 0.525000 0.918750
0.656250 0.525000 0.918750
0.787500 0.525000 0.918750
0.918750 0.525000 0.918750
1.000000 0.525000 0.918750
0.000000 0.656250 0.918750
0.131250 0.656250 0.918750
0.262500 0.656250 0.918750
0.393750 0.656250 0.918750
0.525000 0.656250 0.918750
0.656250 0.656250 0.918750
0.787500 0.656250 0.918750
0.918750 0.656250 0.918750
1.000000 0.656250 0.918750
0.000000 0.787500 0.918750
0.131250 0.787500 0.918750
0.262500 0.787500 0.918750
0.393750 0.787500 0.918750
0.525000 0.787500 0.918750
0.656250 0.787500 0.918750
0.787500 0.787500 0.918750
0.918750 0.787500 0.918750
1.000000 0.787500 0.918750
0.000000 0.918750 0.918750
0.131250 0.918750 0.918750
0.262500 0.918750 0.918750
0.393750 0.918750 0.918750
0.525000 0.918750 0.918750
0.656250 0.918750 0.918750
0.787500 0.918750 0.918750
0.918750 0.918750 0.918750
1.000000 0.918750 0.918750
0.000000 1.000000 0.918750
0.131250 1.000000 0.918750
0.262500 1.000000 0.918750
0.393750 1.000000 0.918750
0.525000 1.000000 0.918750
0.656250 1.000000 0.918750
0.787500 1.000000 0.918750
0.918750 1.000000 0.918750
1.000000 1.000000 0.918750
0.000000 0.000000 1.000000
0.131250 0.000000 1.000000
0.262500 0.000000 1.000000
0.393750 0.000000 1.000000
0.525000 0.000000 1.000000
0.656250 0.000000 1.000000
0.787500 0.000000 1.000000
0.918750 0.000000 1.000000
1.000000 0.000000 1.000000
0.000000 0.131250 1.000000
0.131250 0.131250 1.000000
0.262500 0.131250 1.000000
0.393750 0.131250 1.000000
0.525000 0.131250 1.000000
0.656250 0.131250 1.000000
0.787500 0.131250 1.000000
0.918750 0.131250 1.000000
1.000000 0.131250 1.000000
0.000000 0.262500 1.000000
0.131250 0.262500 1.000000
0.262500 0.262500 1.000000
0.393750 0.262500 1.000000
0.525000 0.262500 1.000000
0.656250 0.262500 1.000000
0.787500 0.262500 1.000000
0.918750 0.262500 1.000000
1.000000 0.262500 1.000000
0.000000 0.393750 1.000000
0.131250 0.393750 1.000000
0.262500 0.393750 1.000000
0.393750 0.393750 1.000000
0.525000 0.393750 1.000000
0.656250 0.393750 1.000000
0.787500 0.393750 1.000000
0.918750 0.393750 1.000000
1.000000 0.393750 1.000000
0.000000 0.525000 1.000000
0.131250 0.525000 1.000000
0.262500 0.525000 1.000000
0.393750 0.525000 1.000000
0.525000 0.525000 1.000000
0.656250 0.525000 1.000000
0.787500 0.525000 1.000000
0.918750 0.525000 1.000000
1.000000 0.525000 1.000000
0.000000 0.656250 1.000000
0.131250 0.656250 1.000000
0.262500 0.656250 1.000000
0.393750 0.656250 1.000000
0.525000 0.656250 1.000000
0.656250 0.656250 1.000000
0.787500 0.656250 1.000000
0.918750 0.656250 1.000000
1.000000 0.656250 1.000000
0.000000 0.787500 1.000000
0.131250 0.787500 1.000000
0.262500 0.787500 1.000000
0.393750 0.787500 1.000000
0.525000 0.787500 1.000000
0.656250 0.787500 1.000000
0.787500 0.787500 1.000000
0.918750 0.787500 1.000000
1.000000 0.787500 1.000000
0.000000 0.918750 1.000000
0.131250 0.918750 1.000000
0.262500 0.918750 1.000000
0.393750 0.918750 1.000000
0.525000 0.918750 1.000000
0.656250 0.918750 1.000000
0.787500 0.918750 1.000000
0.918750 0.918750 1.000000
1.000000 0.918750 1.000000
0.000000 1.000000 1.000000
0.131250 1.000000 1.000000
0.262500 1.000000 1.000000
0.393750 1.000000 1.000000
0.525000 1.000000 1.000000
0.656250 1.000000 1.000000
0.787500 1.000000 1.000000
0.918750 1.000000 1.000000
1.000000 1.000000 1.000000
