src/assets/luts/natural_boost.cube
TITLE "Natural Boost"
LUT_3D_SIZE 17
0.000000 0.000000 0.000000
0.065625 0.000000 0.000000
0.131250 0.000000 0.000000
0.196875 0.000000 0.000000
0.262500 0.000000 0.000000
0.328125 0.000000 0.000000
0.393750 0.000000 0.000000
0.459375 0.000000 0.000000
0.525000 0.000000 0.000000
0.590625 0.000000 0.000000
0.656250 0.000000 0.000000
0.721875 0.000000 0.000000
0.787500 0.000000 0.000000
0.853125 0.000000 0.000000
0.918750 0.000000 0.000000
0.984375 0.000000 0.000000
1.000000 0.000000 0.000000
0.000000 0.065625 0.000000
0.065625 0.065625 0.000000
0.131250 0.065625 0.000000
0.196875 0.065625 0.000000
0.262500 0.065625 0.000000
0.328125 0.065625 0.000000
0.393750 0.065625 0.000000
0.459375 0.065625 0.000000
0.525000 0.065625 0.000000
0.590625 0.065625 0.000000
0.656250 0.065625 0.000000
0.721875 0.065625 0.000000
0.787500 0.065625 0.000000
0.853125 0.065625 0.000000
0.918750 0.065625 0.000000
0.984375 0.065625 0.000000
1.000000 0.065625 0.000000
0.000000 0.131250 0.000000
0.065625 0.131250 0.000000
0.131250 0.131250 0.000000
0.196875 0.131250 0.000000
0.262500 0.131250 0.000000
0.328125 0.131250 0.000000
0.393750 0.131250 0.000000
0.459375 0.131250 0.000000
0.525000 0.131250 0.000000
0.590625 0.131250 0.000000
0.656250 0.131250 0.000000
0.721875 0.131250 0.000000
0.787500 0.131250 0.000000
0.853125 0.131250 0.000000
0.918750 0.131250 0.000000
0.984375 0.131250 0.000000
1.000000 0.131250 0.000000
0.000000 0.196875 0.000000
0.065625 0.196875 0.000000
0.131250 0.196875 0.000000
0.196875 0.196875 0.000000
0.262500 0.196875 0.000000
0.328125 0.196875 0.000000
0.393750 0.196875 0.000000
0.459375 0.196875 0.000000
0.525000 0.196875 0.000000
0.590625 0.196875 0.000000
0.656250 0.196875 0.000000
0.721875 0.196875 0.000000
0.787500 0.196875 0.000000
0.853125 0.196875 0.000000
0.918750 0.196875 0.000000
0.984375 0.196875 0.000000
1.000000 0.196875 0.000000
0.000000 0.262500 0.000000
0.065625 0.262500 0.000000
0.131250 0.262500 0.000000
0.196875 0.262500 0.000000
0.262500 0.262500 0.000000
0.328125 0.262500 0.000000
0.393750 0.262500 0.000000
0.459375 0.262500 0.000000
0.525000 0.262500 0.000000
0.590625 0.262500 0.000000
0.656250 0.262500 0.000000
0.721875 0.262500 0.000000
0.787500 0.262500 0.000000
0.853125 0.262500 0.000000
0.918750 0.262500 0.000000
0.984375 0.262500 0.000000
1.000000 0.262500 0.000000
0.000000 0.328125 0.000000
0.065625 0.328125 0.000000
0.131250 0.328125 0.000000
0.196875 0.328125 0.000000
0.262500 0.328125 0.000000
0.328125 0.328125 0.000000
0.393750 0.328125 0.000000
0.459375 0.328125 0.000000
0.525000 0.328125 0.000000
0.590625 0.328125 0.000000
0.656250 0.328125 0.000000
0.721875 0.328125 0.000000
0.787500 0.328125 0.000000
0.853125 0.328125 0.000000
0.918750 0.328125 0.000000
0.984375 0.328125 0.000000
1.000000 0.328125 0.000000
0.000000 0.393750 0.000000
0.065625 0.393750 0.000000
0.131250 0.393750 0.000000
0.196875 0.393750 0.000000
0.262500 0.393750 0.000000
0.328125 0.393750 0.000000
0.393750 0.393750 0.000000
0.459375 0.393750 0.000000
0.525000 0.393750 0.000000
0.590625 0.393750 0.000000
0.656250 0.393750 0.000000
0.721875 0.393750 0.000000
0.787500 0.393750 0.000000
0.853125 0.393750 0.000000
0.918750 0.393750 0.000000
0.984375 0.393750 0.000000
1.000000 0.393750 0.000000
0.000000 0.459375 0.000000
0.065625 0.459375 0.000000
0.131250 0.459375 0.000000
0.196875 0.459375 0.000000
0.262500 0.459375 0.000000
0.328125 0.459375 0.000000
0.393750 0.459375 0.000000
0.459375 0.459375 0.000000
0.525000 0.459375 0.000000
0.590625 0.459375 0.000000
0.656250 0.459375 0.000000
0.721875 0.459375 0.000000
0.787500 0.459375 0.000000
0.853125 0.459375 0.000000
0.918750 0.459375 0.000000
0.984375 0.459375 0.000000
1.000000 0.459375 0.000000
0.000000 0.525000 0.000000
0.065625 0.525000 0.000000
0.131250 0.525000 0.000000
0.196875 0.525000 0.000000
0.262500 0.525000 0.000000
0.328125 0.525000 0.000000
0.393750 0.525000 0.000000
0.459375 0.525000 0.000000
0.525000 0.525000 0.000000
0.590625 0.525000 0.000000
0.656250 0.525000 0.000000
0.721875 0.525000 0.000000
0.787500 0.525000 0.000000
0.853125 0.525000 0.000000
0.918750 0.525000 0.000000
0.984375 0.525000 0.000000
1.000000 0.525000 0.000000
0.000000 0.590625 0.000000
0.065625 0.590625 0.000000
0.131250 0.590625 0.000000
0.196875 0.590625 0.000000
0.262500 0.590625 0.000000
0.328125 0.590625 0.000000
0.393750 0.590625 0.000000
0.459375 0.590625 0.000000
0.525000 0.590625 0.000000
0.590625 0.590625 0.000000
0.656250 0.590625 0.000000
0.721875 0.590625 0.000000
0.787500 0.590625 0.000000
0.853125 0.590625 0.000000
0.918750 0.590625 0.000000
0.984375 0.590625 0.000000
1.000000 0.590625 0.000000
0.000000 0.656250 0.000000
0.065625 0.656250 0.000000
0.131250 0.656250 0.000000
0.196875 0.656250 0.000000
0.262500 0.656250 0.000000
0.328125 0.656250 0.000000
0.393750 0.656250 0.000000
0.459375 0.656250 0.000000
0.525000 0.656250 0.000000
0.590625 0.656250 0.000000
0.656250 0.656250 0.000000
0.721875 0.656250 0.000000
0.787500 0.656250 0.000000
0.853125 0.656250 0.000000
0.918750 0.656250 0.000000
0.984375 0.656250 0.000000
1.000000 0.656250 0.000000
0.000000 0.721875 0.000000
0.065625 0.721875 0.000000
0.131250 0.721875 0.000000
0.196875 0.721875 0.000000
0.262500 0.721875 0.000000
0.328125 0.721875 0.000000
0.393750 0.721875 0.000000
0.459375 0.721875 0.000000
0.525000 0.721875 0.000000
0.590625 0.721875 0.000000
0.656250 0.721875 0.000000
0.721875 0.721875 0.000000
0.787500 0.721875 0.000000
0.853125 0.721875 0.000000
0.918750 0.721875 0.000000
0.984375 0.721875 0.000000
1.000000 0.721875 0.000000
0.000000 0.787500 0.000000
0.065625 0.787500 0.000000
0.131250 0.787500 0.000000
0.196875 0.787500 0.000000
0.262500 0.787500 0.000000
0.328125 0.787500 0.000000
0.393750 0.787500 0.000000
0.459375 0.787500 0.000000
0.525000 0.787500 0.000000
0.590625 0.787500 0.000000
0.656250 0.787500 0.000000
0.721875 0.787500 0.000000
0.787500 0.787500 0.000000
0.853125 0.787500 0.000000
0.918750 0.787500 0.000000
0.984375 0.787500 0.000000
1.000000 0.787500 0.000000
0.000000 0.853125 0.000000
0.065625 0.853125 0.000000
0.131250 0.853125 0.000000
0.196875 0.853125 0.000000
0.262500 0.853125 0.000000
0.328125 0.853125 0.000000
0.393750 0.853125 0.000000
0.459375 0.853125 0.000000
0.525000 0.853125 0.000000
0.590625 0.853125 0.000000
0.656250 0.853125 0.000000
0.721875 0.853125 0.000000
0.787500 0.853125 0.000000
0.853125 0.853125 0.000000
0.918750 0.853125 0.000000
0.984375 0.853125 0.000000
1.000000 0.853125 0.000000
0.000000 0.918750 0.000000
0.065625 0.918750 0.000000
0.131250 0.918750 0.000000
0.196875 0.918750 0.000000
0.262500 0.918750 0.000000
0.328125 0.918750 0.000000
0.393750 0.918750 0.000000
0.459375 0.918750 0.000000
0.525000 0.918750 0.000000
0.590625 0.918750 0.000000
0.656250 0.918750 0.000000
0.721875 0.918750 0.000000
0.787500 0.918750 0.000000
0.853125 0.918750 0.000000
0.918750 0.918750 0.000000
0.984375 0.918750 0.000000
1.000000 0.918750 0.000000
0.000000 0.984375 0.000000
0.065625 0.984375 0.000000
0.131250 0.984375 0.000000
0.196875 0.984375 0.000000
0.262500 0.984375 0.000000
0.328125 0.984375 0.000000
0.393750 0.984375 0.000000
0.459375 0.984375 0.000000
0.525000 0.984375 0.000000
0.590625 0.984375 0.000000
0.656250 0.984375 0.000000
0.721875 0.984375 0.000000
0.787500 0.984375 0.000000
0.853125 0.984375 0.000000
0.918750 0.984375 0.000000
0.984375 0.984375 0.000000
1.000000 0.984375 0.000000
0.000000 1.000000 0.000000
0.065625 1.000000 0.000000
0.131250 1.000000 0.000000
0.196875 1.000000 0.000000
0.262500 1.000000 0.000000
0.328125 1.000000 0.000000
0.393750 1.000000 0.000000
0.459375 1.000000 0.000000
0.525000 1.000000 0.000000
0.590625 1.000000 0.000000
0.656250 1.000000 0.000000
0.721875 1.000000 0.000000
0.787500 1.000000 0.000000
0.853125 1.000000 0.000000
0.918750 1.000000 0.000000
0.984375 1.000000 0.000000
1.000000 1.000000 0.000000
0.000000 0.000000 0.065625
0.065625 0.000000 0.065625
0.131250 0.000000 0.065625
0.196875 0.000000 0.065625
0.262500 0.000000 0.065625
0.328125 0.000000 0.065625
0.393750 0.000000 0.065625
0.459375 0.000000 0.065625
0.525000 0.000000 0.065625
0.590625 0.000000 0.065625
0.656250 0.000000 0.065625
0.721875 0.000000 0.065625
0.787500 0.000000 0.065625
0.853125 0.000000 0.065625
0.918750 0.000000 0.065625
0.984375 0.000000 0.065625
1.000000 0.000000 0.065625
0.000000 0.065625 0.065625
0.065625 0.065625 0.065625
0.131250 0.065625 0.065625
0.196875 0.065625 0.065625
0.262500 0.065625 0.065625
0.328125 0.065625 0.065625
0.393750 0.065625 0.065625
0.459375 0.065625 0.065625
0.525000 0.065625 0.065625
0.590625 0.065625 0.065625
0.656250 0.065625 0.065625
0.721875 0.065625 0.065625
0.787500 0.065625 0.065625
0.853125 0.065625 0.065625
0.918750 0.065625 0.065625
0.984375 0.065625 0.065625
1.000000 0.065625 0.065625
0.000000 0.131250 0.065625
0.065625 0.131250 0.065625
0.131250 0.131250 0.065625
0.196875 0.131250 0.065625
0.262500 0.131250 0.065625
0.328125 0.131250 0.065625
0.393750 0.131250 0.065625
0.459375 0.131250 0.065625
0.525000 0.131250 0.065625
0.590625 0.131250 0.065625
0.656250 0.131250 0.065625
0.721875 0.131250 0.065625
0.787500 0.131250 0.065625
0.853125 0.131250 0.065625
0.918750 0.131250 0.065625
0.984375 0.131250 0.065625
1.000000 0.131250 0.065625
0.000000 0.196875 0.065625
0.065625 0.196875 0.065625
0.131250 0.196875 0.065625
0.196875 0.196875 0.065625
0.262500 0.196875 0.065625
0.328125 0.196875 0.065625
0.393750 0.196875 0.065625
0.459375 0.196875 0.065625
0.525000 0.196875 0.065625
0.590625 0.196875 0.065625
0.656250 0.196875 0.065625
0.721875 0.196875 0.065625
0.787500 0.196875 0.065625
0.853125 0.196875 0.065625
0.918750 0.196875 0.065625
0.984375 0.196875 0.065625
1.000000 0.196875 0.065625
0.000000 0.262500 0.065625
0.065625 0.262500 0.065625
0.131250 0.262500 0.065625
0.196875 0.262500 0.065625
0.262500 0.262500 0.065625
0.328125 0.262500 0.065625
0.393750 0.262500 0.065625
0.459375 0.262500 0.065625
0.525000 0.262500 0.065625
0.590625 0.262500 0.065625
0.656250 0.262500 0.065625
0.721875 0.262500 0.065625
0.787500 0.262500 0.065625
0.853125 0.262500 0.065625
0.918750 0.262500 0.065625
0.984375 0.262500 0.065625
1.000000 0.262500 0.065625
0.000000 0.328125 0.065625
0.065625 0.328125 0.065625
0.131250 0.328125 0.065625
0.196875 0.328125 0.065625
0.262500 0.328125 0.065625
0.328125 0.328125 0.065625
0.393750 0.328125 0.065625
0.459375 0.328125 0.065625
0.525000 0.328125 0.065625
0.590625 0.328125 0.065625
0.656250 0.328125 0.065625
0.721875 0.328125 0.065625
0.787500 0.328125 0.065625
0.853125 0.328125 0.065625
0.918750 0.328125 0.065625
0.984375 0.328125 0.065625
1.000000 0.328125 0.065625
0.000000 0.393750 0.065625
0.065625 0.393750 0.065625
0.131250 0.393750 0.065625
0.196875 0.393750 0.065625
0.262500 0.393750 0.065625
0.328125 0.393750 0.065625
0.393750 0.393750 0.065625
0.459375 0.393750 0.065625
0.525000 0.393750 0.065625
0.590625 0.393750 0.065625
0.656250 0.393750 0.065625
0.721875 0.393750 0.065625
0.787500 0.393750 0.065625
0.853125 0.393750 0.065625
0.918750 0.393750 0.065625
0.984375 0.393750 0.065625
1.000000 0.393750 0.065625
0.000000 0.459375 0.065625
0.065625 0.459375 0.065625
0.131250 0.459375 0.065625
0.196875 0.459375 0.065625
0.262500 0.459375 0.065625
0.328125 0.459375 0.065625
0.393750 0.459375 0.065625
0.459375 0.459375 0.065625
0.525000 0.459375 0.065625
0.590625 0.459375 0.065625
0.656250 0.459375 0.065625
0.721875 0.459375 0.065625
0.787500 0.459375 0.065625
0.853125 0.459375 0.065625
0.918750 0.459375 0.065625
0.984375 0.459375 0.065625
1.000000 0.459375 0.065625
0.000000 0.525000 0.065625
0.065625 0.525000 0.065625
0.131250 0.525000 0.065625
0.196875 0.525000 0.065625
0.262500 0.525000 0.065625
0.328125 0.525000 0.065625
0.393750 0.525000 0.065625
0.459375 0.525000 0.065625
0.525000 0.525000 0.065625
0.590625 0.525000 0.065625
0.656250 0.525000 0.065625
0.721875 0.525000 0.065625
0.787500 0.525000 0.065625
0.853125 0.525000 0.065625
0.918750 0.525000 0.065625
0.984375 0.525000 0.065625
1.000000 0.525000 0.065625
0.000000 0.590625 0.065625
0.065625 0.590625 0.065625
0.131250 0.590625 0.065625
0.196875 0.590625 0.065625
0.262500 0.590625 0.065625
0.328125 0.590625 0.065625
0.393750 0.590625 0.065625
0.459375 0.590625 0.065625
0.525000 0.590625 0.065625
0.590625 0.590625 0.065625
0.656250 0.590625 0.065625
0.721875 0.590625 0.065625
0.787500 0.590625 0.065625
0.853125 0.590625 0.065625
0.918750 0.590625 0.065625
0.984375 0.590625 0.065625
1.000000 0.590625 0.065625
0.000000 0.656250 0.065625
0.065625 0.656250 0.065625
0.131250 0.656250 0.065625
0.196875 0.656250 0.065625
0.262500 0.656250 0.065625
0.328125 0.656250 0.065625
0.393750 0.656250 0.065625
0.459375 0.656250 0.065625
0.525000 0.656250 0.065625
0.590625 0.656250 0.065625
0.656250 0.656250 0.065625
0.721875 0.656250 0.065625
0.787500 0.656250 0.065625
0.853125 0.656250 0.065625
0.918750 0.656250 0.065625
0.984375 0.656250 0.065625
1.000000 0.656250 0.065625
0.000000 0.721875 0.065625
0.065625 0.721875 0.065625
0.131250 0.721875 0.065625
0.196875 0.721875 0.065625
0.262500 0.721875 0.065625
0.328125 0.721875 0.065625
0.393750 0.721875 0.065625
0.459375 0.721875 0.065625
0.525000 0.721875 0.065625
0.590625 0.721875 0.065625
0.656250 0.721875 0.065625
0.721875 0.721875 0.065625
0.787500 0.721875 0.065625
0.853125 0.721875 0.065625
0.918750 0.721875 0.065625
0.984375 0.721875 0.065625
1.000000 0.721875 0.065625
0.000000 0.787500 0.065625
0.065625 0.787500 0.065625
0.131250 0.787500 0.065625
0.196875 0.787500 0.065625
0.262500 0.787500 0.065625
0.328125 0.787500 0.065625
0.393750 0.787500 0.065625
0.459375 0.787500 0.065625
0.525000 0.787500 0.065625
0.590625 0.787500 0.065625
0.656250 0.787500 0.065625
0.721875 0.787500 0.065625
0.787500 0.787500 0.065625
0.853125 0.787500 0.065625
0.918750 0.787500 0.065625
0.984375 0.787500 0.065625
1.000000 0.787500 0.065625
0.000000 0.853125 0.065625
0.065625 0.853125 0.065625
0.131250 0.853125 0.065625
0.196875 0.853125 0.065625
0.262500 0.853125 0.065625
0.328125 0.853125 0.065625
0.393750 0.853125 0.065625
0.459375 0.853125 0.065625
0.525000 0.853125 0.065625
0.590625 0.853125 0.065625
0.656250 0.853125 0.065625
0.721875 0.853125 0.065625
0.787500 0.853125 0.065625
0.853125 0.853125 0.065625
0.918750 0.853125 0.065625
0.984375 0.853125 0.065625
1.000000 0.853125 0.065625
0.000000 0.918750 0.065625
0.065625 0.918750 0.065625
0.131250 0.918750 0.065625
0.196875 0.918750 0.065625
0.262500 0.918750 0.065625
0.328125 0.918750 0.065625
0.393750 0.918750 0.065625
0.459375 0.918750 0.065625
0.525000 0.918750 0.065625
0.590625 0.918750 0.065625
0.656250 0.918750 0.065625
0.721875 0.918750 0.065625
0.787500 0.918750 0.065625
0.853125 0.918750 0.065625
0.918750 0.918750 0.065625
0.984375 0.918750 0.065625
1.000000 0.918750 0.065625
0.000000 0.984375 0.065625
0.065625 0.984375 0.065625
0.131250 0.984375 0.065625
0.196875 0.984375 0.065625
0.262500 0.984375 0.065625
0.328125 0.984375 0.065625
0.393750 0.984375 0.065625
0.459375 0.984375 0.065625
0.525000 0.984375 0.065625
0.590625 0.984375 0.065625
0.656250 0.984375 0.065625
0.721875 0.984375 0.065625
0.787500 0.984375 0.065625
0.853125 0.984375 0.065625
0.918750 0.984375 0.065625
0.984375 0.984375 0.065625
1.000000 0.984375 0.065625
0.000000 1.000000 0.065625
0.065625 1.000000 0.065625
0.131250 1.000000 0.065625
0.196875 1.000000 0.065625
0.262500 1.000000 0.065625
0.328125 1.000000 0.065625
0.393750 1.000000 0.065625
0.459375 1.000000 0.065625
0.525000 1.000000 0.065625
0.590625 1.000000 0.065625
0.656250 1.000000 0.065625
0.721875 1.000000 0.065625
0.787500 1.000000 0.065625
0.853125 1.000000 0.065625
0.918750 1.000000 0.065625
0.984375 1.000000 0.065625
1.000000 1.000000 0.065625
0.000000 0.000000 0.131250
0.065625 0.000000 0.131250
0.131250 0.000000 0.131250
0.196875 0.000000 0.131250
0.262500 0.000000 0.131250
0.328125 0.000000 0.131250
0.393750 0.000000 0.131250
0.459375 0.000000 0.131250
0.525000 0.000000 0.131250
0.590625 0.000000 0.131250
0.656250 0.000000 0.131250
0.721875 0.000000 0.131250
0.787500 0.000000 0.131250
0.853125 0.000000 0.131250
0.918750 0.000000 0.131250
0.984375 0.000000 0.131250
1.000000 0.000000 0.131250
0.000000 0.065625 0.131250
0.065625 0.065625 0.131250
0.131250 0.065625 0.131250
0.196875 0.065625 0.131250
0.262500 0.065625 0.131250
0.328125 0.065625 0.131250
0.393750 0.065625 0.131250
0.459375 0.065625 0.131250
0.525000 0.065625 0.131250
0.590625 0.065625 0.131250
0.656250 0.065625 0.131250
0.721875 0.065625 0.131250
0.787500 0.065625 0.131250
0.853125 0.065625 0.131250
0.918750 0.065625 0.131250
0.984375 0.065625 0.131250
1.000000 0.065625 0.131250
0.000000 0.131250 0.131250
0.065625 0.131250 0.131250
0.131250 0.131250 0.131250
0.196875 0.131250 0.131250
0.262500 0.131250 0.131250
0.328125 0.131250 0.131250
0.393750 0.131250 0.131250
0.459375 0.131250 0.131250
0.525000 0.131250 0.131250
0.590625 0.131250 0.131250
0.656250 0.131250 0.131250
0.721875 0.131250 0.131250
0.787500 0.131250 0.131250
0.853125 0.131250 0.131250
0.918750 0.131250 0.131250
0.984375 0.131250 0.131250
1.000000 0.131250 0.131250
0.000000 0.196875 0.131250
0.065625 0.196875 0.131250
0.131250 0.196875 0.131250
0.196875 0.196875 0.131250
0.262500 0.196875 0.131250
0.328125 0.196875 0.131250
0.393750 0.196875 0.131250
0.459375 0.196875 0.131250
0.525000 0.196875 0.131250
0.590625 0.196875 0.131250
0.656250 0.196875 0.131250
0.721875 0.196875 0.131250
0.787500 0.196875 0.131250
0.853125 0.196875 0.131250
0.918750 0.196875 0.131250
0.984375 0.196875 0.131250
1.000000 0.196875 0.131250
0.000000 0.262500 0.131250
0.065625 0.262500 0.131250
0.131250 0.262500 0.131250
0.196875 0.262500 0.131250
0.262500 0.262500 0.131250
0.328125 0.262500 0.131250
0.393750 0.262500 0.131250
0.459375 0.262500 0.131250
0.525000 0.262500 0.131250
0.590625 0.262500 0.131250
0.656250 0.262500 0.131250
0.721875 0.262500 0.131250
0.787500 0.262500 0.131250
0.853125 0.262500 0.131250
0.918750 0.262500 0.131250
0.984375 0.262500 0.131250
1.000000 0.262500 0.131250
0.000000 0.328125 0.131250
0.065625 0.328125 0.131250
0.131250 0.328125 0.131250
0.196875 0.328125 0.131250
0.262500 0.328125 0.131250
0.328125 0.328125 0.131250
0.393750 0.328125 0.131250
0.459375 0.328125 0.131250
0.525000 0.328125 0.131250
0.590625 0.328125 0.131250
0.656250 0.328125 0.131250
0.721875 0.328125 0.131250
0.787500 0.328125 0.131250
0.853125 0.328125 0.131250
0.918750 0.328125 0.131250
0.984375 0.328125 0.131250
1.000000 0.328125 0.131250
0.000000 0.393750 0.131250
0.065625 0.393750 0.131250
0.131250 0.393750 0.131250
0.196875 0.393750 0.131250
0.262500 0.393750 0.131250
0.328125 0.393750 0.131250
0.393750 0.393750 0.131250
0.459375 0.393750 0.131250
0.525000 0.393750 0.131250
0.590625 0.393750 0.131250
0.656250 0.393750 0.131250
0.721875 0.393750 0.131250
0.787500 0.393750 0.131250
0.853125 0.393750 0.131250
0.918750 0.393750 0.131250
0.984375 0.393750 0.131250
1.000000 0.393750 0.131250
0.000000 0.459375 0.131250
0.065625 0.459375 0.131250
0.131250 0.459375 0.131250
0.196875 0.459375 0.131250
0.262500 0.459375 0.131250
0.328125 0.459375 0.131250
0.393750 0.459375 0.131250
0.459375 0.459375 0.131250
0.525000 0.459375 0.131250
0.590625 0.459375 0.131250
0.656250 0.459375 0.131250
0.721875 0.459375 0.131250
0.787500 0.459375 0.131250
0.853125 0.459375 0.131250
0.918750 0.459375 0.131250
0.984375 0.459375 0.131250
1.000000 0.459375 0.131250
0.000000 0.525000 0.131250
0.065625 0.525000 0.131250
0.131250 0.525000 0.131250
0.196875 0.525000 0.131250
0.262500 0.525000 0.131250
0.328125 0.525000 0.131250
0.393750 0.525000 0.131250
0.459375 0.525000 0.131250
0.525000 0.525000 0.131250
0.590625 0.525000 0.131250
0.656250 0.525000 0.131250
0.721875 0.525000 0.131250
0.787500 0.525000 0.131250
0.853125 0.525000 0.131250
0.918750 0.525000 0.131250
0.984375 0.525000 0.131250
1.000000 0.525000 0.131250
0.000000 0.590625 0.131250
0.065625 0.590625 0.131250
0.131250 0.590625 0.131250
0.196875 0.590625 0.131250
0.262500 0.590625 0.131250
0.328125 0.590625 0.131250
0.393750 0.590625 0.131250
0.459375 0.590625 0.131250
0.525000 0.590625 0.131250
0.590625 0.590625 0.131250
0.656250 0.590625 0.131250
0.721875 0.590625 0.131250
0.787500 0.590625 0.131250
0.853125 0.590625 0.131250
0.918750 0.590625 0.131250
0.984375 0.590625 0.131250
1.000000 0.590625 0.131250
0.000000 0.656250 0.131250
0.065625 0.656250 0.131250
0.131250 0.656250 0.131250
0.196875 0.656250 0.131250
0.262500 0.656250 0.131250
0.328125 0.656250 0.131250
0.393750 0.656250 0.131250
0.459375 0.656250 0.131250
0.525000 0.656250 0.131250
0.590625 0.656250 0.131250
0.656250 0.656250 0.131250
0.721875 0.656250 0.131250
0.787500 0.656250 0.131250
0.853125 0.656250 0.131250
0.918750 0.656250 0.131250
0.984375 0.656250 0.131250
1.000000 0.656250 0.131250
0.000000 0.721875 0.131250
0.065625 0.721875 0.131250
0.131250 0.721875 0.131250
0.196875 0.721875 0.131250
0.262500 0.721875 0.131250
0.328125 0.721875 0.131250
0.393750 0.721875 0.131250
0.459375 0.721875 0.131250
0.525000 0.721875 0.131250
0.590625 0.721875 0.131250
0.656250 0.721875 0.131250
0.721875 0.721875 0.131250
0.787500 0.721875 0.131250
0.853125 0.721875 0.131250
0.918750 0.721875 0.131250
0.984375 0.721875 0.131250
1.000000 0.721875 0.131250
0.000000 0.787500 0.131250
0.065625 0.787500 0.131250
0.131250 0.787500 0.131250
0.196875 0.787500 0.131250
0.262500 0.787500 0.131250
0.328125 0.787500 0.131250
0.393750 0.787500 0.131250
0.459375 0.787500 0.131250
0.525000 0.787500 0.131250
0.590625 0.787500 0.131250
0.656250 0.787500 0.131250
0.721875 0.787500 0.131250
0.787500 0.787500 0.131250
0.853125 0.787500 0.131250
0.918750 0.787500 0.131250
0.984375 0.787500 0.131250
1.000000 0.787500 0.131250
0.000000 0.853125 0.131250
0.065625 0.853125 0.131250
0.131250 0.853125 0.131250
0.196875 0.853125 0.131250
0.262500 0.853125 0.131250
0.328125 0.853125 0.131250
0.393750 0.853125 0.131250
0.459375 0.853125 0.131250
0.525000 0.853125 0.131250
0.590625 0.853125 0.131250
0.656250 0.853125 0.131250
0.721875 0.853125 0.131250
0.787500 0.853125 0.131250
0.853125 0.853125 0.131250
0.918750 0.853125 0.131250
0.984375 0.853125 0.131250
1.000000 0.853125 0.131250
0.000000 0.918750 0.131250
0.065625 0.918750 0.131250
0.131250 0.918750 0.131250
0.196875 0.918750 0.131250
0.262500 0.918750 0.131250
0.328125 0.918750 0.131250
0.393750 0.918750 0.131250
0.459375 0.918750 0.131250
0.525000 0.918750 0.131250
0.590625 0.918750 0.131250
0.656250 0.918750 0.131250
0.721875 0.918750 0.131250
0.787500 0.918750 0.131250
0.853125 0.918750 0.131250
0.918750 0.918750 0.131250
0.984375 0.918750 0.131250
1.000000 0.918750 0.131250
0.000000 0.984375 0.131250
0.065625 0.984375 0.131250
0.131250 0.984375 0.131250
0.196875 0.984375 0.131250
0.262500 0.984375 0.131250
0.328125 0.984375 0.131250
0.393750 0.984375 0.131250
0.459375 0.984375 0.131250
0.525000 0.984375 0.131250
0.590625 0.984375 0.131250
0.656250 0.984375 0.131250
0.721875 0.984375 0.131250
0.787500 0.984375 0.131250
0.853125 0.984375 0.131250
0.918750 0.984375 0.131250
0.984375 0.984375 0.131250
1.000000 0.984375 0.131250
0.000000 1.000000 0.131250
0.065625 1.000000 0.131250
0.131250 1.000000 0.131250
0.196875 1.000000 0.131250
0.262500 1.000000 0.131250
0.328125 1.000000 0.131250
0.393750 1.000000 0.131250
0.459375 1.000000 0.131250
0.525000 1.000000 0.131250
0.590625 1.000000 0.131250
0.656250 1.000000 0.131250
0.721875 1.000000 0.131250
0.787500 1.000000 0.131250
0.853125 1.000000 0.131250
0.918750 1.000000 0.131250
0.984375 1.000000 0.131250
1.000000 1.000000 0.131250
0.000000 0.000000 0.196875
0.065625 0.000000 0.196875
0.131250 0.000000 0.196875
0.196875 0.000000 0.196875
0.262500 0.000000 0.196875
0.328125 0.000000 0.196875
0.393750 0.000000 0.196875
0.459375 0.000000 0.196875
0.525000 0.000000 0.196875
0.590625 0.000000 0.196875
0.656250 0.000000 0.196875
0.721875 0.000000 0.196875
0.787500 0.000000 0.196875
0.853125 0.000000 0.196875
0.918750 0.000000 0.196875
0.984375 0.000000 0.196875
1.000000 0.000000 0.196875
0.000000 0.065625 0.196875
0.065625 0.065625 0.196875
0.131250 0.065625 0.196875
