src/assets/luts/natural_boost.cube
TITLE "Natural Boost"
LUT_3D_SIZE 5
0.000000 0.000000 0.000000
0.262500 0.000000 0.000000
0.525000 0.000000 0.000000
0.787500 0.000000 0.000000
1.000000 0.000000 0.000000
0.000000 0.262500 0.000000
0.262500 0.262500 0.000000
0.525000 0.262500 0.000000
0.787500 0.262500 0.000000
1.000000 0.262500 0.000000
0.000000 0.525000 0.000000
0.262500 0.525000 0.000000
0.525000 0.525000 0.000000
0.787500 0.525000 0.000000
1.000000 0.525000 0.000000
0.000000 0.787500 0.000000
0.262500 0.787500 0.000000
0.525000 0.787500 0.000000
0.787500 0.787500 0.000000
1.000000 0.787500 0.000000
0.000000 1.000000 0.000000
0.262500 1.000000 0.000000
0.525000 1.000000 0.000000
0.787500 1.000000 0.000000
1.000000 1.000000 0.000000
0.000000 0.000000 0.262500
0.262500 0.000000 0.262500
0.525000 0.000000 0.262500
0.787500 0.000000 0.262500
1.000000 0.000000 0.262500
0.000000 0.262500 0.262500
0.262500 0.262500 0.262500
0.525000 0.262500 0.262500
0.787500 0.262500 0.262500
1.000000 0.262500 0.262500
0.000000 0.525000 0.262500
0.262500 0.525000 0.262500
0.525000 0.525000 0.262500
0.787500 0.525000 0.262500
1.000000 0.525000 0.262500
0.000000 0.787500 0.262500
0.262500 0.787500 0.262500
0.525000 0.787500 0.262500
0.787500 0.787500 0.262500
1.000000 0.787500 0.262500
0.000000 1.000000 0.262500
0.262500 1.000000 0.262500
0.525000 1.000000 0.262500
0.787500 1.000000 0.262500
1.000000 1.000000 0.262500
0.000000 0.000000 0.525000
0.262500 0.000000 0.525000
0.525000 0.000000 0.525000
0.787500 0.000000 0.525000
1.000000 0.000000 0.525000
0.000000 0.262500 0.525000
0.262500 0.262500 0.525000
0.525000 0.262500 0.525000
0.787500 0.262500 0.525000
1.000000 0.262500 0.525000
0.000000 0.525000 0.525000
0.262500 0.525000 0.525000
0.525000 0.525000 0.525000
0.787500 0.525000 0.525000
1.000000 0.525000 0.525000
0.000000 0.787500 0.525000
0.262500 0.787500 0.525000
0.525000 0.787500 0.525000
0.787500 0.787500 0.525000
1.000000 0.787500 0.525000
0.000000 1.000000 0.525000
0.262500 1.000000 0.525000
0.525000 1.000000 0.525000
0.787500 1.000000 0.525000
1.000000 1.000000 0.525000
0.000000 0.000000 0.787500
0.262500 0.000000 0.787500
0.525000 0.000000 0.787500
0.787500 0.000000 0.787500
1.000000 0.000000 0.787500
0.000000 0.262500 0.787500
0.262500 0.262500 0.787500
0.525000 0.262500 0.787500
0.787500 0.262500 0.787500
1.000000 0.262500 0.787500
0.000000 0.525000 0.787500
0.262500 0.525000 0.787500
0.525000 0.525000 0.787500
0.787500 0.525000 0.787500
1.000000 0.525000 0.787500
0.000000 0.787500 0.787500
0.262500 0.787500 0.787500
0.525000 0.787500 0.787500
0.787500 0.787500 0.787500
1.000000 0.787500 0.787500
0.000000 1.000000 0.787500
0.262500 1.000000 0.787500
0.525000 1.000000 0.787500
0.787500 1.000000 0.787500
1.000000 1.000000 0.787500
0.000000 0.000000 1.000000
0.262500 0.000000 1.000000
0.525000 0.000000 1.000000
0.787500 0.000000 1.000000
1.000000 0.000000 1.000000
0.000000 0.262500 1.000000
0.262500 0.262500 1.000000
0.525000 0.262500 1.000000
0.787500 0.262500 1.000000
1.000000 0.262500 1.000000
0.000000 0.525000 1.000000
0.262500 0.525000 1.000000
0.525000 0.525000 1.000000
0.787500 0.525000 1.000000
1.000000 0.525000 1.000000
0.000000 0.787500 1.000000
0.262500 0.787500 1.000000
0.525000 0.787500 1.000000
0.787500 0.787500 1.000000
1.000000 0.787500 1.000000
0.000000 1.000000 1.000000
0.262500 1.000000 1.000000
0.525000 1.000000 1.000000
0.787500 1.000000 1.000000
1.000000 1.000000 1.000000
