src/assets/luts/teal_orange.cube
TITLE "Teal & Orange"
LUT_3D_SIZE 17
0.000000 0.000000 0.000000
0.062500 0.000000 0.000000
0.125000 0.000000 0.000000
0.187500 0.000000 0.000000
0.250000 0.000000 0.000000
0.312500 0.000000 0.000000
0.375000 0.000000 0.000000
0.437500 0.000000 0.000000
0.500000 0.000000 0.000000
0.618750 0.000000 0.000000
0.687500 0.000000 0.000000
0.756250 0.000000 0.000000
0.825000 0.000000 0.000000
0.893750 0.000000 0.000000
0.962500 0.000000 0.000000
1.000000 0.000000 0.000000
1.000000 0.000000 0.000000
0.000000 0.062500 0.000000
0.062500 0.062500 0.000000
0.125000 0.062500 0.000000
0.187500 0.062500 0.000000
0.250000 0.062500 0.000000
0.312500 0.062500 0.000000
0.375000 0.062500 0.000000
0.437500 0.062500 0.000000
0.500000 0.062500 0.000000
0.618750 0.062500 0.000000
0.687500 0.062500 0.000000
0.756250 0.062500 0.000000
0.825000 0.062500 0.000000
0.893750 0.062500 0.000000
0.962500 0.062500 0.000000
1.000000 0.062500 0.000000
1.000000 0.062500 0.000000
0.000000 0.125000 0.000000
0.062500 0.125000 0.000000
0.125000 0.125000 0.000000
0.187500 0.125000 0.000000
0.250000 0.125000 0.000000
0.312500 0.125000 0.000000
0.375000 0.125000 0.000000
0.437500 0.125000 0.000000
0.500000 0.125000 0.000000
0.618750 0.125000 0.000000
0.687500 0.125000 0.000000
0.756250 0.125000 0.000000
0.825000 0.125000 0.000000
0.893750 0.125000 0.000000
0.962500 0.125000 0.000000
1.000000 0.125000 0.000000
1.000000 0.125000 0.000000
0.000000 0.187500 0.000000
0.062500 0.187500 0.000000
0.125000 0.187500 0.000000
0.187500 0.187500 0.000000
0.250000 0.187500 0.000000
0.312500 0.187500 0.000000
0.375000 0.187500 0.000000
0.437500 0.187500 0.000000
0.500000 0.187500 0.000000
0.618750 0.187500 0.000000
0.687500 0.187500 0.000000
0.756250 0.187500 0.000000
0.825000 0.187500 0.000000
0.893750 0.187500 0.000000
0.962500 0.187500 0.000000
1.000000 0.187500 0.000000
1.000000 0.187500 0.000000
0.000000 0.250000 0.000000
0.062500 0.250000 0.000000
0.125000 0.250000 0.000000
0.187500 0.250000 0.000000
0.250000 0.250000 0.000000
0.312500 0.250000 0.000000
0.375000 0.250000 0.000000
0.437500 0.250000 0.000000
0.500000 0.250000 0.000000
0.618750 0.250000 0.000000
0.687500 0.250000 0.000000
0.756250 0.250000 0.000000
0.825000 0.250000 0.000000
0.893750 0.250000 0.000000
0.962500 0.250000 0.000000
1.000000 0.250000 0.000000
1.000000 0.250000 0.000000
0.000000 0.312500 0.000000
0.062500 0.312500 0.000000
0.125000 0.312500 0.000000
0.187500 0.312500 0.000000
0.250000 0.312500 0.000000
0.312500 0.312500 0.000000
0.375000 0.312500 0.000000
0.437500 0.312500 0.000000
0.500000 0.312500 0.000000
0.618750 0.312500 0.000000
0.687500 0.312500 0.000000
0.756250 0.312500 0.000000
0.825000 0.312500 0.000000
0.893750 0.312500 0.000000
0.962500 0.312500 0.000000
1.000000 0.312500 0.000000
1.000000 0.312500 0.000000
0.000000 0.375000 0.000000
0.062500 0.375000 0.000000
0.125000 0.375000 0.000000
0.187500 0.375000 0.000000
0.250000 0.375000 0.000000
0.312500 0.375000 0.000000
0.375000 0.375000 0.000000
0.437500 0.375000 0.000000
0.500000 0.375000 0.000000
0.618750 0.375000 0.000000
0.687500 0.375000 0.000000
0.756250 0.375000 0.000000
0.825000 0.375000 0.000000
0.893750 0.375000 0.000000
0.962500 0.375000 0.000000
1.000000 0.375000 0.000000
1.000000 0.375000 0.000000
0.000000 0.437500 0.000000
0.062500 0.437500 0.000000
0.125000 0.437500 0.000000
0.187500 0.437500 0.000000
0.250000 0.437500 0.000000
0.312500 0.437500 0.000000
0.375000 0.437500 0.000000
0.437500 0.437500 0.000000
0.500000 0.437500 0.000000
0.618750 0.437500 0.000000
0.687500 0.437500 0.000000
0.756250 0.437500 0.000000
0.825000 0.437500 0.000000
0.893750 0.437500 0.000000
0.962500 0.437500 0.000000
1.000000 0.437500 0.000000
1.000000 0.437500 0.000000
0.000000 0.500000 0.000000
0.062500 0.500000 0.000000
0.125000 0.500000 0.000000
0.187500 0.500000 0.000000
0.250000 0.500000 0.000000
0.312500 0.500000 0.000000
0.375000 0.500000 0.000000
0.437500 0.500000 0.000000
0.500000 0.500000 0.000000
0.618750 0.500000 0.000000
0.687500 0.500000 0.000000
0.756250 0.500000 0.000000
0.825000 0.500000 0.000000
0.893750 0.500000 0.000000
0.962500 0.500000 0.000000
1.000000 0.500000 0.000000
1.000000 0.500000 0.000000
0.000000 0.562500 0.000000
0.062500 0.562500 0.000000
0.125000 0.562500 0.000000
0.187500 0.562500 0.000000
0.250000 0.562500 0.000000
0.312500 0.562500 0.000000
0.375000 0.562500 0.000000
0.437500 0.562500 0.000000
0.500000 0.562500 0.000000
0.618750 0.562500 0.000000
0.687500 0.562500 0.000000
0.756250 0.562500 0.000000
0.825000 0.562500 0.000000
0.893750 0.562500 0.000000
0.962500 0.562500 0.000000
1.000000 0.562500 0.000000
1.000000 0.562500 0.000000
0.000000 0.625000 0.000000
0.062500 0.625000 0.000000
0.125000 0.625000 0.000000
0.187500 0.625000 0.000000
0.250000 0.625000 0.000000
0.312500 0.625000 0.000000
0.375000 0.625000 0.000000
0.437500 0.625000 0.000000
0.500000 0.625000 0.000000
0.618750 0.625000 0.000000
0.687500 0.625000 0.000000
0.756250 0.625000 0.000000
0.825000 0.625000 0.000000
0.893750 0.625000 0.000000
0.962500 0.625000 0.000000
1.000000 0.625000 0.000000
1.000000 0.625000 0.000000
0.000000 0.687500 0.000000
0.062500 0.687500 0.000000
0.125000 0.687500 0.000000
0.187500 0.687500 0.000000
0.250000 0.687500 0.000000
0.312500 0.687500 0.000000
0.375000 0.687500 0.000000
0.437500 0.687500 0.000000
0.500000 0.687500 0.000000
0.618750 0.687500 0.000000
0.687500 0.687500 0.000000
0.756250 0.687500 0.000000
0.825000 0.687500 0.000000
0.893750 0.687500 0.000000
0.962500 0.687500 0.000000
1.000000 0.687500 0.000000
1.000000 0.687500 0.000000
0.000000 0.750000 0.000000
0.062500 0.750000 0.000000
0.125000 0.750000 0.000000
0.187500 0.750000 0.000000
0.250000 0.750000 0.000000
0.312500 0.750000 0.000000
0.375000 0.750000 0.000000
0.437500 0.750000 0.000000
0.500000 0.750000 0.000000
0.618750 0.750000 0.000000
0.687500 0.750000 0.000000
0.756250 0.750000 0.000000
0.825000 0.750000 0.000000
0.893750 0.750000 0.000000
0.962500 0.750000 0.000000
1.000000 0.750000 0.000000
1.000000 0.750000 0.000000
0.000000 0.812500 0.000000
0.062500 0.812500 0.000000
0.125000 0.812500 0.000000
0.187500 0.812500 0.000000
0.250000 0.812500 0.000000
0.312500 0.812500 0.000000
0.375000 0.812500 0.000000
0.437500 0.812500 0.000000
0.500000 0.812500 0.000000
0.618750 0.812500 0.000000
0.687500 0.812500 0.000000
0.756250 0.812500 0.000000
0.825000 0.812500 0.000000
0.893750 0.812500 0.000000
0.962500 0.812500 0.000000
1.000000 0.812500 0.000000
1.000000 0.812500 0.000000
0.000000 0.875000 0.000000
0.062500 0.875000 0.000000
0.125000 0.875000 0.000000
0.187500 0.875000 0.000000
0.250000 0.875000 0.000000
0.312500 0.875000 0.000000
0.375000 0.875000 0.000000
0.437500 0.875000 0.000000
0.500000 0.875000 0.000000
0.618750 0.875000 0.000000
0.687500 0.875000 0.000000
0.756250 0.875000 0.000000
0.825000 0.875000 0.000000
0.893750 0.875000 0.000000
0.962500 0.875000 0.000000
1.000000 0.875000 0.000000
1.000000 0.875000 0.000000
0.000000 0.937500 0.000000
0.062500 0.937500 0.000000
0.125000 0.937500 0.000000
0.187500 0.937500 0.000000
0.250000 0.937500 0.000000
0.312500 0.937500 0.000000
0.375000 0.937500 0.000000
0.437500 0.937500 0.000000
0.500000 0.937500 0.000000
0.618750 0.937500 0.000000
0.687500 0.937500 0.000000
0.756250 0.937500 0.000000
0.825000 0.937500 0.000000
0.893750 0.937500 0.000000
0.962500 0.937500 0.000000
1.000000 0.937500 0.000000
1.000000 0.937500 0.000000
0.000000 1.000000 0.000000
0.062500 1.000000 0.000000
0.125000 1.000000 0.000000
0.187500 1.000000 0.000000
0.250000 1.000000 0.000000
0.312500 1.000000 0.000000
0.375000 1.000000 0.000000
0.437500 1.000000 0.000000
0.500000 1.000000 0.000000
0.618750 1.000000 0.000000
0.687500 1.000000 0.000000
0.756250 1.000000 0.000000
0.825000 1.000000 0.000000
0.893750 1.000000 0.000000
0.962500 1.000000 0.000000
1.000000 1.000000 0.000000
1.000000 1.000000 0.000000
0.000000 0.000000 0.068750
0.062500 0.000000 0.068750
0.125000 0.000000 0.068750
0.187500 0.000000 0.068750
0.250000 0.000000 0.068750
0.312500 0.000000 0.068750
0.375000 0.000000 0.068750
0.437500 0.000000 0.068750
0.500000 0.000000 0.056250
0.618750 0.000000 0.056250
0.687500 0.000000 0.056250
0.756250 0.000000 0.056250
0.825000 0.000000 0.056250
0.893750 0.000000 0.056250
0.962500 0.000000 0.056250
1.000000 0.000000 0.056250
1.000000 0.000000 0.056250
0.000000 0.062500 0.068750
0.062500 0.062500 0.068750
0.125000 0.062500 0.068750
0.187500 0.062500 0.068750
0.250000 0.062500 0.068750
0.312500 0.062500 0.068750
0.375000 0.062500 0.068750
0.437500 0.062500 0.068750
0.500000 0.062500 0.056250
0.618750 0.062500 0.056250
0.687500 0.062500 0.056250
0.756250 0.062500 0.056250
0.825000 0.062500 0.056250
0.893750 0.062500 0.056250
0.962500 0.062500 0.056250
1.000000 0.062500 0.056250
1.000000 0.062500 0.056250
0.000000 0.125000 0.068750
0.062500 0.125000 0.068750
0.125000 0.125000 0.068750
0.187500 0.125000 0.068750
0.250000 0.125000 0.068750
0.312500 0.125000 0.068750
0.375000 0.125000 0.068750
0.437500 0.125000 0.068750
0.500000 0.125000 0.056250
0.618750 0.125000 0.056250
0.687500 0.125000 0.056250
0.756250 0.125000 0.056250
0.825000 0.125000 0.056250
0.893750 0.125000 0.056250
0.962500 0.125000 0.056250
1.000000 0.125000 0.056250
1.000000 0.125000 0.056250
0.000000 0.187500 0.068750
0.062500 0.187500 0.068750
0.125000 0.187500 0.068750
0.187500 0.187500 0.068750
0.250000 0.187500 0.068750
0.312500 0.187500 0.068750
0.375000 0.187500 0.068750
0.437500 0.187500 0.068750
0.500000 0.187500 0.056250
0.618750 0.187500 0.056250
0.687500 0.187500 0.056250
0.756250 0.187500 0.056250
0.825000 0.187500 0.056250
0.893750 0.187500 0.056250
0.962500 0.187500 0.056250
1.000000 0.187500 0.056250
1.000000 0.187500 0.056250
0.000000 0.250000 0.068750
0.062500 0.250000 0.068750
0.125000 0.250000 0.068750
0.187500 0.250000 0.068750
0.250000 0.250000 0.068750
0.312500 0.250000 0.068750
0.375000 0.250000 0.068750
0.437500 0.250000 0.068750
0.500000 0.250000 0.056250
0.618750 0.250000 0.056250
0.687500 0.250000 0.056250
0.756250 0.250000 0.056250
0.825000 0.250000 0.056250
0.893750 0.250000 0.056250
0.962500 0.250000 0.056250
1.000000 0.250000 0.056250
1.000000 0.250000 0.056250
0.000000 0.312500 0.068750
0.062500 0.312500 0.068750
0.125000 0.312500 0.068750
0.187500 0.312500 0.068750
0.250000 0.312500 0.068750
0.312500 0.312500 0.068750
0.375000 0.312500 0.068750
0.437500 0.312500 0.068750
0.500000 0.312500 0.056250
0.618750 0.312500 0.056250
0.687500 0.312500 0.056250
0.756250 0.312500 0.056250
0.825000 0.312500 0.056250
0.893750 0.312500 0.056250
0.962500 0.312500 0.056250
1.000000 0.312500 0.056250
1.000000 0.312500 0.056250
0.000000 0.375000 0.068750
0.062500 0.375000 0.068750
0.125000 0.375000 0.068750
0.187500 0.375000 0.068750
0.250000 0.375000 0.068750
0.312500 0.375000 0.068750
0.375000 0.375000 0.068750
0.437500 0.375000 0.068750
0.500000 0.375000 0.056250
0.618750 0.375000 0.056250
0.687500 0.375000 0.056250
0.756250 0.375000 0.056250
0.825000 0.375000 0.056250
0.893750 0.375000 0.056250
0.962500 0.375000 0.056250
1.000000 0.375000 0.056250
1.000000 0.375000 0.056250
0.000000 0.437500 0.068750
0.062500 0.437500 0.068750
0.125000 0.437500 0.068750
0.187500 0.437500 0.068750
0.250000 0.437500 0.068750
0.312500 0.437500 0.068750
0.375000 0.437500 0.068750
0.437500 0.437500 0.068750
0.500000 0.437500 0.056250
0.618750 0.437500 0.056250
0.687500 0.437500 0.056250
0.756250 0.437500 0.056250
0.825000 0.437500 0.056250
0.893750 0.437500 0.056250
0.962500 0.437500 0.056250
1.000000 0.437500 0.056250
1.000000 0.437500 0.056250
0.000000 0.500000 0.068750
0.062500 0.500000 0.068750
0.125000 0.500000 0.068750
0.187500 0.500000 0.068750
0.250000 0.500000 0.068750
0.312500 0.500000 0.068750
0.375000 0.500000 0.068750
0.437500 0.500000 0.068750
0.500000 0.500000 0.056250
0.618750 0.500000 0.056250
0.687500 0.500000 0.056250
0.756250 0.500000 0.056250
0.825000 0.500000 0.056250
0.893750 0.500000 0.056250
0.962500 0.500000 0.056250
1.000000 0.500000 0.056250
1.000000 0.500000 0.056250
0.000000 0.562500 0.068750
0.062500 0.562500 0.068750
0.125000 0.562500 0.068750
0.187500 0.562500 0.068750
0.250000 0.562500 0.068750
0.312500 0.562500 0.068750
0.375000 0.562500 0.068750
0.437500 0.562500 0.068750
0.500000 0.562500 0.056250
0.618750 0.562500 0.056250
0.687500 0.562500 0.056250
0.756250 0.562500 0.056250
0.825000 0.562500 0.056250
0.893750 0.562500 0.056250
0.962500 0.562500 0.056250
1.000000 0.562500 0.056250
1.000000 0.562500 0.056250
0.000000 0.625000 0.068750
0.062500 0.625000 0.068750
0.125000 0.625000 0.068750
0.187500 0.625000 0.068750
0.250000 0.625000 0.068750
0.312500 0.625000 0.068750
0.375000 0.625000 0.068750
0.437500 0.625000 0.068750
0.500000 0.625000 0.056250
0.618750 0.625000 0.056250
0.687500 0.625000 0.056250
0.756250 0.625000 0.056250
0.825000 0.625000 0.056250
0.893750 0.625000 0.056250
0.962500 0.625000 0.056250
1.000000 0.625000 0.056250
1.000000 0.625000 0.056250
0.000000 0.687500 0.068750
0.062500 0.687500 0.068750
0.125000 0.687500 0.068750
0.187500 0.687500 0.068750
0.250000 0.687500 0.068750
0.312500 0.687500 0.068750
0.375000 0.687500 0.068750
0.437500 0.687500 0.068750
0.500000 0.687500 0.056250
0.618750 0.687500 0.056250
0.687500 0.687500 0.056250
0.756250 0.687500 0.056250
0.825000 0.687500 0.056250
0.893750 0.687500 0.056250
0.962500 0.687500 0.056250
1.000000 0.687500 0.056250
1.000000 0.687500 0.056250
0.000000 0.750000 0.068750
0.062500 0.750000 0.068750
0.125000 0.750000 0.068750
0.187500 0.750000 0.068750
0.250000 0.750000 0.068750
0.312500 0.750000 0.068750
0.375000 0.750000 0.068750
0.437500 0.750000 0.068750
0.500000 0.750000 0.056250
0.618750 0.750000 0.056250
0.687500 0.750000 0.056250
0.756250 0.750000 0.056250
0.825000 0.750000 0.056250
0.893750 0.750000 0.056250
0.962500 0.750000 0.056250
1.000000 0.750000 0.056250
1.000000 0.750000 0.056250
0.000000 0.812500 0.068750
0.062500 0.812500 0.068750
0.125000 0.812500 0.068750
0.187500 0.812500 0.068750
0.250000 0.812500 0.068750
0.312500 0.812500 0.068750
0.375000 0.812500 0.068750
0.437500 0.812500 0.068750
0.500000 0.812500 0.056250
0.618750 0.812500 0.056250
0.687500 0.812500 0.056250
0.756250 0.812500 0.056250
0.825000 0.812500 0.056250
0.893750 0.812500 0.056250
0.962500 0.812500 0.056250
1.000000 0.812500 0.056250
1.000000 0.812500 0.056250
0.000000 0.875000 0.068750
0.062500 0.875000 0.068750
0.125000 0.875000 0.068750
0.187500 0.875000 0.068750
0.250000 0.875000 0.068750
0.312500 0.875000 0.068750
0.375000 0.875000 0.068750
0.437500 0.875000 0.068750
0.500000 0.875000 0.056250
0.618750 0.875000 0.056250
0.687500 0.875000 0.056250
0.756250 0.875000 0.056250
0.825000 0.875000 0.056250
0.893750 0.875000 0.056250
0.962500 0.875000 0.056250
1.000000 0.875000 0.056250
1.000000 0.875000 0.056250
0.000000 0.937500 0.068750
0.062500 0.937500 0.068750
0.125000 0.937500 0.068750
0.187500 0.937500 0.068750
0.250000 0.937500 0.068750
0.312500 0.937500 0.068750
0.375000 0.937500 0.068750
0.437500 0.937500 0.068750
0.500000 0.937500 0.056250
0.618750 0.937500 0.056250
0.687500 0.937500 0.056250
0.756250 0.937500 0.056250
0.825000 0.937500 0.056250
0.893750 0.937500 0.056250
0.962500 0.937500 0.056250
1.000000 0.937500 0.056250
1.000000 0.937500 0.056250
0.000000 1.000000 0.068750
0.062500 1.000000 0.068750
0.125000 1.000000 0.068750
0.187500 1.000000 0.068750
0.250000 1.000000 0.068750
0.312500 1.000000 0.068750
0.375000 1.000000 0.068750
0.437500 1.000000 0.068750
0.500000 1.000000 0.056250
0.618750 1.000000 0.056250
0.687500 1.000000 0.056250
0.756250 1.000000 0.056250
0.825000 1.000000 0.056250
0.893750 1.000000 0.056250
0.962500 1.000000 0.056250
1.000000 1.000000 0.056250
1.000000 1.000000 0.056250
0.000000 0.000000 0.137500
0.062500 0.000000 0.137500
0.125000 0.000000 0.137500
0.187500 0.000000 0.137500
0.250000 0.000000 0.137500
0.312500 0.000000 0.137500
0.375000 0.000000 0.137500
0.437500 0.000000 0.137500
0.500000 0.000000 0.112500
0.618750 0.000000 0.112500
0.687500 0.000000 0.112500
0.756250 0.000000 0.112500
0.825000 0.000000 0.112500
0.893750 0.000000 0.112500
0.962500 0.000000 0.112500
1.000000 0.000000 0.112500
1.000000 0.000000 0.112500
0.000000 0.062500 0.137500
0.062500 0.062500 0.137500
0.125000 0.062500 0.137500
0.187500 0.062500 0.137500
0.250000 0.062500 0.137500
0.312500 0.062500 0.137500
0.375000 0.062500 0.137500
0.437500 0.062500 0.137500
0.500000 0.062500 0.112500
0.618750 0.062500 0.112500
0.687500 0.062500 0.112500
0.756250 0.062500 0.112500
0.825000 0.062500 0.112500
0.893750 0.062500 0.112500
0.962500 0.062500 0.112500
1.000000 0.062500 0.112500
1.000000 0.062500 0.112500
0.000000 0.125000 0.137500
0.062500 0.125000 0.137500
0.125000 0.125000 0.137500
0.187500 0.125000 0.137500
0.250000 0.125000 0.137500
0.312500 0.125000 0.137500
0.375000 0.125000 0.137500
0.437500 0.125000 0.137500
0.500000 0.125000 0.112500
0.618750 0.125000 0.112500
0.687500 0.125000 0.112500
0.756250 0.125000 0.112500
0.825000 0.125000 0.112500
0.893750 0.125000 0.112500
0.962500 0.125000 0.112500
1.000000 0.125000 0.112500
1.000000 0.125000 0.112500
0.000000 0.187500 0.137500
0.062500 0.187500 0.137500
0.125000 0.187500 0.137500
0.187500 0.187500 0.137500
0.250000 0.187500 0.137500
0.312500 0.187500 0.137500
0.375000 0.187500 0.137500
0.437500 0.187500 0.137500
0.500000 0.187500 0.112500
0.618750 0.187500 0.112500
0.687500 0.187500 0.112500
0.756250 0.187500 0.112500
0.825000 0.187500 0.112500
0.893750 0.187500 0.112500
0.962500 0.187500 0.112500
1.000000 0.187500 0.112500
1.000000 0.187500 0.112500
0.000000 0.250000 0.137500
0.062500 0.250000 0.137500
0.125000 0.250000 0.137500
0.187500 0.250000 0.137500
0.250000 0.250000 0.137500
0.312500 0.250000 0.137500
0.375000 0.250000 0.137500
0.437500 0.250000 0.137500
0.500000 0.250000 0.112500
0.618750 0.250000 0.112500
0.687500 0.250000 0.112500
0.756250 0.250000 0.112500
0.825000 0.250000 0.112500
0.893750 0.250000 0.112500
0.962500 0.250000 0.112500
1.000000 0.250000 0.112500
1.000000 0.250000 0.112500
0.000000 0.312500 0.137500
0.062500 0.312500 0.137500
0.125000 0.312500 0.137500
0.187500 0.312500 0.137500
0.250000 0.312500 0.137500
0.312500 0.312500 0.137500
0.375000 0.312500 0.137500
0.437500 0.312500 0.137500
0.500000 0.312500 0.112500
0.618750 0.312500 0.112500
0.687500 0.312500 0.112500
0.756250 0.312500 0.112500
0.825000 0.312500 0.112500
0.893750 0.312500 0.112500
0.962500 0.312500 0.112500
1.000000 0.312500 0.112500
1.000000 0.312500 0.112500
0.000000 0.375000 0.137500
0.062500 0.375000 0.137500
0.125000 0.375000 0.137500
0.187500 0.375000 0.137500
0.250000 0.375000 0.137500
0.312500 0.375000 0.137500
0.375000 0.375000 0.137500
0.437500 0.375000 0.137500
0.500000 0.375000 0.112500
0.618750 0.375000 0.112500
0.687500 0.375000 0.112500
0.756250 0.375000 0.112500
0.825000 0.375000 0.112500
0.893750 0.375000 0.112500
0.962500 0.375000 0.112500
1.000000 0.375000 0.112500
1.000000 0.375000 0.112500
0.000000 0.437500 0.137500
0.062500 0.437500 0.137500
0.125000 0.437500 0.137500
0.187500 0.437500 0.137500
0.250000 0.437500 0.137500
0.312500 0.437500 0.137500
0.375000 0.437500 0.137500
0.437500 0.437500 0.137500
0.500000 0.437500 0.112500
0.618750 0.437500 0.112500
0.687500 0.437500 0.112500
0.756250 0.437500 0.112500
0.825000 0.437500 0.112500
0.893750 0.437500 0.112500
0.962500 0.437500 0.112500
1.000000 0.437500 0.112500
1.000000 0.437500 0.112500
0.000000 0.500000 0.137500
0.062500 0.500000 0.137500
0.125000 0.500000 0.137500
0.187500 0.500000 0.137500
0.250000 0.500000 0.137500
0.312500 0.500000 0.137500
0.375000 0.500000 0.137500
0.437500 0.500000 0.137500
0.500000 0.500000 0.112500
0.618750 0.500000 0.112500
0.687500 0.500000 0.112500
0.756250 0.500000 0.112500
0.825000 0.500000 0.112500
0.893750 0.500000 0.112500
0.962500 0.500000 0.112500
1.000000 0.500000 0.112500
1.000000 0.500000 0.112500
0.000000 0.562500 0.137500
0.062500 0.562500 0.137500
0.125000 0.562500 0.137500
0.187500 0.562500 0.137500
0.250000 0.562500 0.137500
0.312500 0.562500 0.137500
0.375000 0.562500 0.137500
0.437500 0.562500 0.137500
0.500000 0.562500 0.112500
0.618750 0.562500 0.112500
0.687500 0.562500 0.112500
0.756250 0.562500 0.112500
0.825000 0.562500 0.112500
0.893750 0.562500 0.112500
0.962500 0.562500 0.112500
1.000000 0.562500 0.112500
1.000000 0.562500 0.112500
0.000000 0.625000 0.137500
0.062500 0.625000 0.137500
0.125000 0.625000 0.137500
0.187500 0.625000 0.137500
0.250000 0.625000 0.137500
0.312500 0.625000 0.137500
0.375000 0.625000 0.137500
0.437500 0.625000 0.137500
0.500000 0.625000 0.112500
0.618750 0.625000 0.112500
0.687500 0.625000 0.112500
0.756250 0.625000 0.112500
0.825000 0.625000 0.112500
0.893750 0.625000 0.112500
0.962500 0.625000 0.112500
1.000000 0.625000 0.112500
1.000000 0.625000 0.112500
0.000000 0.687500 0.137500
0.062500 0.687500 0.137500
0.125000 0.687500 0.137500
0.187500 0.687500 0.137500
0.250000 0.687500 0.137500
0.312500 0.687500 0.137500
0.375000 0.687500 0.137500
0.437500 0.687500 0.137500
0.500000 0.687500 0.112500
0.618750 0.687500 0.112500
0.687500 0.687500 0.112500
0.756250 0.687500 0.112500
0.825000 0.687500 0.112500
0.893750 0.687500 0.112500
0.962500 0.687500 0.112500
1.000000 0.687500 0.112500
1.000000 0.687500 0.112500
0.000000 0.750000 0.137500
0.062500 0.750000 0.137500
0.125000 0.750000 0.137500
0.187500 0.750000 0.137500
0.250000 0.750000 0.137500
0.312500 0.750000 0.137500
0.375000 0.750000 0.137500
0.437500 0.750000 0.137500
0.500000 0.750000 0.112500
0.618750 0.750000 0.112500
0.687500 0.750000 0.112500
0.756250 0.750000 0.112500
0.825000 0.750000 0.112500
0.893750 0.750000 0.112500
0.962500 0.750000 0.112500
1.000000 0.750000 0.112500
1.000000 0.750000 0.112500
0.000000 0.812500 0.137500
0.062500 0.812500 0.137500
0.125000 0.812500 0.137500
0.187500 0.812500 0.137500
0.250000 0.812500 0.137500
0.312500 0.812500 0.137500
0.375000 0.812500 0.137500
0.437500 0.812500 0.137500
0.500000 0.812500 0.112500
0.618750 0.812500 0.112500
0.687500 0.812500 0.112500
0.756250 0.812500 0.112500
0.825000 0.812500 0.112500
0.893750 0.812500 0.112500
0.962500 0.812500 0.112500
1.000000 0.812500 0.112500
1.000000 0.812500 0.112500
0.000000 0.875000 0.137500
0.062500 0.875000 0.137500
0.125000 0.875000 0.137500
0.187500 0.875000 0.137500
0.250000 0.875000 0.137500
0.312500 0.875000 0.137500
0.375000 0.875000 0.137500
0.437500 0.875000 0.137500
0.500000 0.875000 0.112500
0.618750 0.875000 0.112500
0.687500 0.875000 0.112500
0.756250 0.875000 0.112500
0.825000 0.875000 0.112500
0.893750 0.875000 0.112500
0.962500 0.875000 0.112500
1.000000 0.875000 0.112500
1.000000 0.875000 0.112500
0.000000 0.937500 0.137500
0.062500 0.937500 0.137500
0.125000 0.937500 0.137500
0.187500 0.937500 0.137500
0.250000 0.937500 0.137500
0.312500 0.937500 0.137500
0.375000 0.937500 0.137500
0.437500 0.937500 0.137500
0.500000 0.937500 0.112500
0.618750 0.937500 0.112500
0.687500 0.937500 0.112500
0.756250 0.937500 0.112500
0.825000 0.937500 0.112500
0.893750 0.937500 0.112500
0.962500 0.937500 0.112500
1.000000 0.937500 0.112500
1.000000 0.937500 0.112500
0.000000 1.000000 0.137500
0.062500 1.000000 0.137500
0.125000 1.000000 0.137500
0.187500 1.000000 0.137500
0.250000 1.000000 0.137500
0.312500 1.000000 0.137500
0.375000 1.000000 0.137500
0.437500 1.000000 0.137500
0.500000 1.000000 0.112500
0.618750 1.000000 0.112500
0.687500 1.000000 0.112500
0.756250 1.000000 0.112500
0.825000 1.000000 0.112500
0.893750 1.000000 0.112500
0.962500 1.000000 0.112500
1.000000 1.000000 0.112500
1.000000 1.000000 0.112500
0.000000 0.000000 0.206250
0.062500 0.000000 0.206250
0.125000 0.000000 0.206250
0.187500 0.000000 0.206250
0.250000 0.000000 0.206250
0.312500 0.000000 0.206250
0.375000 0.000000 0.206250
0.437500 0.000000 0.206250
0.500000 0.000000 0.168750
0.618750 0.000000 0.168750
0.687500 0.000000 0.168750
0.756250 0.000000 0.168750
0.825000 0.000000 0.168750
0.893750 0.000000 0.168750
0.962500 0.000000 0.168750
1.000000 0.000000 0.168750
1.000000 0.000000 0.168750
0.000000 0.062500 0.206250
0.062500 0.062500 0.206250
0.125000 0.062500 0.206250
