src/assets/luts/teal_orange.cube
TITLE "Teal & Orange"
LUT_3D_SIZE 5
0.000000 0.000000 0.000000
0.250000 0.000000 0.000000
0.500000 0.000000 0.000000
0.825000 0.000000 0.000000
1.000000 0.000000 0.000000
0.000000 0.250000 0.000000
0.250000 0.250000 0.000000
0.500000 0.250000 0.000000
0.825000 0.250000 0.000000
1.000000 0.250000 0.000000
0.000000 0.500000 0.000000
0.250000 0.500000 0.000000
0.500000 0.500000 0.000000
0.825000 0.500000 0.000000
1.000000 0.500000 0.000000
0.000000 0.750000 0.000000
0.250000 0.750000 0.000000
0.500000 0.750000 0.000000
0.825000 0.750000 0.000000
1.000000 0.750000 0.000000
0.000000 1.000000 0.000000
0.250000 1.000000 0.000000
0.500000 1.000000 0.000000
0.825000 1.000000 0.000000
1.000000 1.000000 0.000000
0.000000 0.000000 0.275000
0.250000 0.000000 0.275000
0.500000 0.000000 0.225000
0.825000 0.000000 0.225000
1.000000 0.000000 0.225000
0.000000 0.250000 0.275000
0.250000 0.250000 0.275000
0.500000 0.250000 0.225000
0.825000 0.250000 0.225000
1.000000 0.250000 0.225000
0.000000 0.500000 0.275000
0.250000 0.500000 0.275000
0.500000 0.500000 0.225000
0.825000 0.500000 0.225000
1.000000 0.500000 0.225000
0.000000 0.750000 0.275000
0.250000 0.750000 0.275000
0.500000 0.750000 0.225000
0.825000 0.750000 0.225000
1.000000 0.750000 0.225000
0.000000 1.000000 0.275000
0.250000 1.000000 0.275000
0.500000 1.000000 0.225000
0.825000 1.000000 0.225000
1.000000 1.000000 0.225000
0.000000 0.000000 0.550000
0.250000 0.000000 0.550000
0.500000 0.000000 0.450000
0.825000 0.000000 0.450000
1.000000 0.000000 0.450000
0.000000 0.250000 0.550000
0.250000 0.250000 0.550000
0.500000 0.250000 0.450000
0.825000 0.250000 0.450000
1.000000 0.250000 0.450000
0.000000 0.500000 0.550000
0.250000 0.500000 0.550000
0.500000 0.500000 0.450000
0.825000 0.500000 0.450000
1.000000 0.500000 0.450000
0.000000 0.750000 0.550000
0.250000 0.750000 0.550000
0.500000 0.750000 0.450000
0.825000 0.750000 0.450000
1.000000 0.750000 0.450000
0.000000 1.000000 0.550000
0.250000 1.000000 0.550000
0.500000 1.000000 0.450000
0.825000 1.000000 0.450000
1.000000 1.000000 0.450000
0.000000 0.000000 0.825000
0.250000 0.000000 0.825000
0.500000 0.000000 0.675000
0.825000 0.000000 0.675000
1.000000 0.000000 0.675000
0.000000 0.250000 0.825000
0.250000 0.250000 0.825000
0.500000 0.250000 0.675000
0.825000 0.250000 0.675000
1.000000 0.250000 0.675000
0.000000 0.500000 0.825000
0.250000 0.500000 0.825000
0.500000 0.500000 0.675000
0.825000 0.500000 0.675000
1.000000 0.500000 0.675000
0.000000 0.750000 0.825000
0.250000 0.750000 0.825000
0.500000 0.750000 0.675000
0.825000 0.750000 0.675000
1.000000 0.750000 0.675000
0.000000 1.000000 0.825000
0.250000 1.000000 0.825000
0.500000 1.000000 0.675000
0.825000 1.000000 0.675000
1.000000 1.000000 0.675000
0.000000 0.000000 1.000000
0.250000 0.000000 1.000000
0.500000 0.000000 0.900000
0.825000 0.000000 0.900000
1.000000 0.000000 0.900000
0.000000 0.250000 1.000000
0.250000 0.250000 1.000000
0.500000 0.250000 0.900000
0.825000 0.250000 0.900000
1.000000 0.250000 0.900000
0.000000 0.500000 1.000000
0.250000 0.500000 1.000000
0.500000 0.500000 0.900000
0.825000 0.500000 0.900000
1.000000 0.500000 0.900000
0.000000 0.750000 1.000000
0.250000 0.750000 1.000000
0.500000 0.750000 0.900000
0.825000 0.750000 0.900000
1.000000 0.750000 0.900000
0.000000 1.000000 1.000000
0.250000 1.000000 1.000000
0.500000 1.000000 0.900000
0.825000 1.000000 0.900000
1.000000 1.000000 0.900000
